{
 "type": "map",
 "orientation": "orthogonal",
 "renderorder": "right-down",
 "width": 48,
 "height": 36,
 "tilewidth": 16,
 "tileheight": 16,
 "infinite": false,
 "nextlayerid": 103,
 "nextobjectid": 500,
 "tiledversion": "1.10.2",
 "version": "1.10",
 "compressionlevel": -1,
 "properties": [
  {
   "name": "zone",
   "type": "string",
   "value": "NatureVillage"
  },
  {
   "name": "standalone",
   "type": "bool",
   "value": true
  },
  {
   "name": "entrance_x",
   "type": "int",
   "value": 22
  },
  {
   "name": "entrance_y",
   "type": "int",
   "value": 35
  }
 ],
 "tilesets": [
  {
   "name": "cozy_farm",
   "firstgid": 1,
   "image": "../world/terrain.png",
   "imagewidth": 864,
   "imageheight": 800,
   "tilewidth": 16,
   "tileheight": 16,
   "columns": 54,
   "tilecount": 2700,
   "margin": 0,
   "spacing": 0
  },
  {
   "name": "cozy_town",
   "firstgid": 2701,
   "image": "../world/terrain-town.png",
   "imagewidth": 720,
   "imageheight": 1072,
   "tilewidth": 16,
   "tileheight": 16,
   "columns": 45,
   "tilecount": 3015,
   "margin": 0,
   "spacing": 0
  },
  {
   "name": "nature_things",
   "firstgid": 5716,
   "image": "../world/nature.png",
   "imagewidth": 160,
   "imageheight": 208,
   "tilewidth": 16,
   "tileheight": 16,
   "columns": 10,
   "tilecount": 130,
   "margin": 0,
   "spacing": 0
  },
  {
   "name": "nv_ground",
   "firstgid": 5846,
   "image": "../world/nature_village/ground_textures.png",
   "imagewidth": 64,
   "imageheight": 32,
   "tilewidth": 16,
   "tileheight": 16,
   "columns": 4,
   "tilecount": 8,
   "margin": 0,
   "spacing": 0
  },
  {
   "name": "nv_structures",
   "firstgid": 5854,
   "tilewidth": 16,
   "tileheight": 16,
   "tilecount": 6,
   "columns": 0,
   "tiles": [
    {
     "id": 0,
     "image": "../world/nature_village/house_cream.png",
     "imagewidth": 58,
     "imageheight": 72
    },
    {
     "id": 1,
     "image": "../world/nature_village/house_dark.png",
     "imagewidth": 74,
     "imageheight": 83
    },
    {
     "id": 2,
     "image": "../world/nature_village/house_green.png",
     "imagewidth": 101,
     "imageheight": 83
    },
    {
     "id": 3,
     "image": "../world/nature_village/house_victorian.png",
     "imagewidth": 82,
     "imageheight": 73
    },
    {
     "id": 4,
     "image": "../world/nature_village/house_cabin.png",
     "imagewidth": 88,
     "imageheight": 89
    },
    {
     "id": 5,
     "image": "../world/nature_village/bench.png",
     "imagewidth": 32,
     "imageheight": 20
    }
   ]
  }
 ],
 "layers": [
  {
   "id": 1,
   "name": "ground",
   "type": "tilelayer",
   "width": 48,
   "height": 36,
   "x": 0,
   "y": 0,
   "opacity": 1,
   "visible": true,
   "data": [
    5846,
    5847,
    5846,
    5847,
    5846,
    5847,
    5846,
    5847,
    5846,
    5847,
    5846,
    5847,
    5846,
    5847,
    5846,
    5847,
    5846,
    5847,
    5846,
    5847,
    5846,
    5847,
    5846,
    5847,
    5846,
    5847,
    5846,
    5847,
    5846,
    5847,
    5846,
    5847,
    5846,
    5847,
    5846,
    5847,
    5846,
    5847,
    5846,
    5847,
    5846,
    5847,
    5846,
    5847,
    5846,
    5847,
    5846,
    5847,
    5850,
    5851,
    5850,
    5851,
    5850,
    5851,
    5850,
    5851,
    5850,
    5851,
    5850,
    5851,
    5850,
    5851,
    5850,
    5851,
    5850,
    5851,
    5850,
    5851,
    5850,
    5851,
    5850,
    5851,
    5850,
    5851,
    5850,
    5851,
    5850,
    5851,
    5850,
    5851,
    5850,
    5851,
    5850,
    5851,
    5850,
    5851,
    5850,
    5851,
    5850,
    5851,
    5850,
    5851,
    5850,
    5851,
    5850,
    5851,
    5846,
    5847,
    5846,
    5847,
    5846,
    5847,
    5846,
    5847,
    5846,
    5847,
    5846,
    5847,
    5846,
    5847,
    5846,
    5847,
    5846,
    5847,
    5846,
    5847,
    5846,
    5847,
    5846,
    5847,
    5846,
    5847,
    5846,
    5847,
    5846,
    5847,
    5846,
    5847,
    5846,
    5847,
    5846,
    5847,
    5846,
    5847,
    5846,
    5847,
    5846,
    5847,
    5846,
    5847,
    5846,
    5847,
    5846,
    5847,
    5850,
    5851,
    5850,
    5851,
    5850,
    5851,
    5850,
    5851,
    5850,
    5851,
    5850,
    5851,
    5850,
    5851,
    5850,
    5851,
    5850,
    5851,
    5850,
    5851,
    5850,
    5851,
    5850,
    5851,
    5850,
    5851,
    5850,
    5851,
    5850,
    5851,
    5850,
    5851,
    5850,
    5851,
    5850,
    5851,
    5850,
    5851,
    5850,
    5851,
    5850,
    5851,
    5850,
    5851,
    5850,
    5851,
    5850,
    5851,
    5846,
    5847,
    5846,
    5847,
    5846,
    5847,
    5846,
    5847,
    5846,
    5847,
    5846,
    5847,
    5846,
    5847,
    5846,
    5847,
    5846,
    5847,
    5846,
    5847,
    5846,
    5847,
    5846,
    5847,
    5846,
    5847,
    5846,
    5847,
    5846,
    5847,
    5846,
    5847,
    5846,
    5847,
    5846,
    5847,
    5846,
    5847,
    5846,
    5847,
    5846,
    5847,
    5846,
    5847,
    5846,
    5847,
    5846,
    5847,
    5850,
    5851,
    5850,
    5851,
    5850,
    5851,
    5850,
    5851,
    5850,
    5851,
    5850,
    5851,
    5850,
    5851,
    5850,
    5851,
    5850,
    5851,
    5850,
    5851,
    5850,
    5851,
    5850,
    5851,
    5850,
    5851,
    5850,
    5851,
    5850,
    5851,
    5850,
    5851,
    5850,
    5851,
    5850,
    5851,
    5850,
    5851,
    5850,
    5851,
    5850,
    5851,
    5850,
    5851,
    5850,
    5851,
    5850,
    5851,
    5846,
    5847,
    5846,
    5847,
    5846,
    5847,
    5846,
    5847,
    5846,
    5847,
    5846,
    5847,
    5846,
    5847,
    5846,
    5847,
    5846,
    5847,
    5846,
    5847,
    5846,
    5847,
    5846,
    5847,
    5846,
    5847,
    5846,
    5847,
    5846,
    5847,
    5846,
    5847,
    5846,
    5847,
    5846,
    5847,
    5846,
    5847,
    5846,
    5847,
    5846,
    5847,
    5846,
    5847,
    5846,
    5847,
    5846,
    5847,
    5850,
    5851,
    5850,
    5851,
    5850,
    5851,
    5850,
    5851,
    5850,
    5851,
    5850,
    5851,
    5850,
    5851,
    5850,
    5851,
    5850,
    5851,
    5850,
    5851,
    5850,
    5851,
    5850,
    5851,
    5850,
    5851,
    5850,
    5851,
    5850,
    5851,
    5850,
    5851,
    5850,
    5851,
    5850,
    5851,
    5850,
    5851,
    5850,
    5851,
    5850,
    5851,
    5850,
    5851,
    5850,
    5851,
    5850,
    5851,
    5846,
    5847,
    5846,
    5847,
    5846,
    5847,
    5846,
    5847,
    5846,
    5847,
    5846,
    5847,
    5846,
    5847,
    5846,
    5847,
    5846,
    5847,
    5846,
    5847,
    5846,
    5847,
    5846,
    5847,
    5846,
    5847,
    5846,
    5847,
    5846,
    5847,
    5846,
    5847,
    5846,
    5847,
    5846,
    5847,
    5846,
    5847,
    5846,
    5847,
    5846,
    5847,
    5846,
    5847,
    5846,
    5847,
    5846,
    5847,
    5850,
    5851,
    5850,
    5851,
    5850,
    5851,
    5850,
    5851,
    5850,
    5851,
    5850,
    5851,
    5850,
    5851,
    5850,
    5851,
    5850,
    5851,
    5850,
    5851,
    5850,
    5851,
    5850,
    5851,
    5850,
    5851,
    5850,
    5851,
    5850,
    5851,
    5850,
    5851,
    5850,
    5851,
    5850,
    5851,
    5850,
    5851,
    5850,
    5851,
    5850,
    5851,
    5850,
    5851,
    5850,
    5851,
    5850,
    5851,
    5846,
    5847,
    5846,
    5847,
    5846,
    5847,
    5846,
    5847,
    5846,
    5847,
    5846,
    5847,
    5846,
    5847,
    5846,
    5847,
    5846,
    5847,
    5846,
    5847,
    5846,
    5847,
    5846,
    5847,
    5846,
    5847,
    5846,
    5847,
    5846,
    5847,
    5846,
    5847,
    5846,
    5847,
    5846,
    5847,
    5846,
    5847,
    5846,
    5847,
    5846,
    5847,
    5846,
    5847,
    5846,
    5847,
    5846,
    5847,
    5850,
    5851,
    5850,
    5851,
    5850,
    5851,
    5850,
    5851,
    5850,
    5851,
    5850,
    5851,
    5850,
    5851,
    5850,
    5851,
    5850,
    5851,
    5850,
    5851,
    5850,
    5851,
    5850,
    5851,
    5850,
    5851,
    5850,
    5851,
    5850,
    5851,
    5850,
    5851,
    5850,
    5851,
    5850,
    5851,
    5850,
    5851,
    5850,
    5851,
    5850,
    5851,
    5850,
    5851,
    5850,
    5851,
    5850,
    5851,
    5846,
    5847,
    5846,
    5847,
    5846,
    5847,
    5846,
    5847,
    5846,
    5847,
    5846,
    5847,
    5846,
    5847,
    5846,
    5847,
    5846,
    5847,
    5846,
    5847,
    5846,
    5847,
    5846,
    5847,
    5846,
    5847,
    5846,
    5847,
    5846,
    5847,
    5846,
    5847,
    5846,
    5847,
    5846,
    5847,
    5846,
    5847,
    5846,
    5847,
    5846,
    5847,
    5846,
    5847,
    5846,
    5847,
    5846,
    5847,
    5850,
    5851,
    5850,
    5851,
    5850,
    5851,
    5850,
    5851,
    5850,
    5851,
    5850,
    5851,
    5850,
    5851,
    5850,
    5851,
    5850,
    5851,
    5850,
    5851,
    5850,
    5851,
    5850,
    5851,
    5850,
    5851,
    5850,
    5851,
    5850,
    5851,
    5850,
    5851,
    5850,
    5851,
    5850,
    5851,
    5850,
    5851,
    5850,
    5851,
    5850,
    5851,
    5850,
    5851,
    5850,
    5851,
    5850,
    5851,
    5846,
    5847,
    5846,
    5847,
    5846,
    5847,
    5846,
    5847,
    5846,
    5847,
    5846,
    5847,
    5846,
    5847,
    5846,
    5847,
    5846,
    5847,
    5846,
    5847,
    5846,
    5847,
    5846,
    5847,
    5846,
    5847,
    5846,
    5847,
    5846,
    5847,
    5846,
    5847,
    5846,
    5847,
    5846,
    5847,
    5846,
    5847,
    5846,
    5847,
    5846,
    5847,
    5846,
    5847,
    5846,
    5847,
    5846,
    5847,
    5850,
    5851,
    5850,
    5851,
    5850,
    5851,
    5850,
    5851,
    5850,
    5851,
    5850,
    5851,
    5850,
    5851,
    5850,
    5851,
    5850,
    5851,
    5850,
    5851,
    5850,
    5851,
    5850,
    5851,
    5850,
    5851,
    5850,
    5851,
    5850,
    5851,
    5850,
    5851,
    5850,
    5851,
    5850,
    5851,
    5850,
    5851,
    5850,
    5851,
    5850,
    5851,
    5850,
    5851,
    5850,
    5851,
    5850,
    5851,
    5846,
    5847,
    5846,
    5847,
    5846,
    5847,
    5846,
    5847,
    5846,
    5847,
    5846,
    5847,
    5846,
    5847,
    5846,
    5847,
    5846,
    5847,
    5846,
    5847,
    5846,
    5847,
    5846,
    5847,
    5846,
    5847,
    5846,
    5847,
    5846,
    5847,
    5846,
    5847,
    5846,
    5847,
    5846,
    5847,
    5846,
    5847,
    5846,
    5847,
    5846,
    5847,
    5846,
    5847,
    5846,
    5847,
    5846,
    5847,
    5850,
    5851,
    5850,
    5851,
    5850,
    5851,
    5850,
    5851,
    5850,
    5851,
    5850,
    5851,
    5850,
    5851,
    5850,
    5851,
    5850,
    5851,
    5850,
    5851,
    5850,
    5851,
    5850,
    5851,
    5850,
    5851,
    5850,
    5851,
    5850,
    5851,
    5850,
    5851,
    5850,
    5851,
    5850,
    5851,
    5850,
    5851,
    5850,
    5851,
    5850,
    5851,
    5850,
    5851,
    5850,
    5851,
    5850,
    5851,
    5846,
    5847,
    5846,
    5847,
    5846,
    5847,
    5846,
    5847,
    5846,
    5847,
    5846,
    5847,
    5846,
    5847,
    5846,
    5847,
    5846,
    5847,
    5846,
    5847,
    5846,
    5847,
    5846,
    5847,
    5846,
    5847,
    5846,
    5847,
    5846,
    5847,
    5846,
    5847,
    5846,
    5847,
    5846,
    5847,
    5846,
    5847,
    5846,
    5847,
    5846,
    5847,
    5846,
    5847,
    5846,
    5847,
    5846,
    5847,
    5850,
    5851,
    5850,
    5851,
    5850,
    5851,
    5850,
    5851,
    5850,
    5851,
    5850,
    5851,
    5850,
    5851,
    5850,
    5851,
    5850,
    5851,
    5850,
    5851,
    5850,
    5851,
    5850,
    5851,
    5850,
    5851,
    5850,
    5851,
    5850,
    5851,
    5850,
    5851,
    5850,
    5851,
    5850,
    5851,
    5850,
    5851,
    5850,
    5851,
    5850,
    5851,
    5850,
    5851,
    5850,
    5851,
    5850,
    5851,
    5846,
    5847,
    5846,
    5847,
    5846,
    5847,
    5846,
    5847,
    5846,
    5847,
    5846,
    5847,
    5846,
    5847,
    5846,
    5847,
    5846,
    5847,
    5846,
    5847,
    5846,
    5847,
    5846,
    5847,
    5846,
    5847,
    5846,
    5847,
    5846,
    5847,
    5846,
    5847,
    5846,
    5847,
    5846,
    5847,
    5846,
    5847,
    5846,
    5847,
    5846,
    5847,
    5846,
    5847,
    5846,
    5847,
    5846,
    5847,
    5850,
    5851,
    5850,
    5851,
    5850,
    5851,
    5850,
    5851,
    5850,
    5851,
    5850,
    5851,
    5850,
    5851,
    5850,
    5851,
    5850,
    5851,
    5850,
    5851,
    5850,
    5851,
    5850,
    5851,
    5850,
    5851,
    5850,
    5851,
    5850,
    5851,
    5850,
    5851,
    5850,
    5851,
    5850,
    5851,
    5850,
    5851,
    5850,
    5851,
    5850,
    5851,
    5850,
    5851,
    5850,
    5851,
    5850,
    5851,
    5846,
    5847,
    5846,
    5847,
    5846,
    5847,
    5846,
    5847,
    5846,
    5847,
    5846,
    5847,
    5846,
    5847,
    5846,
    5847,
    5846,
    5847,
    5846,
    5847,
    5846,
    5847,
    5846,
    5847,
    5846,
    5847,
    5846,
    5847,
    5846,
    5847,
    5846,
    5847,
    5846,
    5847,
    5846,
    5847,
    5846,
    5847,
    5846,
    5847,
    5846,
    5847,
    5846,
    5847,
    5846,
    5847,
    5846,
    5847,
    5850,
    5851,
    5850,
    5851,
    5850,
    5851,
    5850,
    5851,
    5850,
    5851,
    5850,
    5851,
    5850,
    5851,
    5850,
    5851,
    5850,
    5851,
    5850,
    5851,
    5850,
    5851,
    5850,
    5851,
    5850,
    5851,
    5850,
    5851,
    5850,
    5851,
    5850,
    5851,
    5850,
    5851,
    5850,
    5851,
    5850,
    5851,
    5850,
    5851,
    5850,
    5851,
    5850,
    5851,
    5850,
    5851,
    5850,
    5851,
    5846,
    5847,
    5846,
    5847,
    5846,
    5847,
    5846,
    5847,
    5846,
    5847,
    5846,
    5847,
    5846,
    5847,
    5846,
    5847,
    5846,
    5847,
    5846,
    5847,
    5846,
    5847,
    5846,
    5847,
    5846,
    5847,
    5846,
    5847,
    5846,
    5847,
    5846,
    5847,
    5846,
    5847,
    5846,
    5847,
    5846,
    5847,
    5846,
    5847,
    5846,
    5847,
    5846,
    5847,
    5846,
    5847,
    5846,
    5847,
    5850,
    5851,
    5850,
    5851,
    5850,
    5851,
    5850,
    5851,
    5850,
    5851,
    5850,
    5851,
    5850,
    5851,
    5850,
    5851,
    5850,
    5851,
    5850,
    5851,
    5850,
    5851,
    5850,
    5851,
    5850,
    5851,
    5850,
    5851,
    5850,
    5851,
    5850,
    5851,
    5850,
    5851,
    5850,
    5851,
    5850,
    5851,
    5850,
    5851,
    5850,
    5851,
    5850,
    5851,
    5850,
    5851,
    5850,
    5851,
    5846,
    5847,
    5846,
    5847,
    5846,
    5847,
    5846,
    5847,
    5846,
    5847,
    5846,
    5847,
    5846,
    5847,
    5846,
    5847,
    5846,
    5847,
    5846,
    5847,
    5846,
    5847,
    5846,
    5847,
    5846,
    5847,
    5846,
    5847,
    5846,
    5847,
    5846,
    5847,
    5846,
    5847,
    5846,
    5847,
    5846,
    5847,
    5846,
    5847,
    5846,
    5847,
    5846,
    5847,
    5846,
    5847,
    5846,
    5847,
    5850,
    5851,
    5850,
    5851,
    5850,
    5851,
    5850,
    5851,
    5850,
    5851,
    5850,
    5851,
    5850,
    5851,
    5850,
    5851,
    5850,
    5851,
    5850,
    5851,
    5850,
    5851,
    5850,
    5851,
    5850,
    5851,
    5850,
    5851,
    5850,
    5851,
    5850,
    5851,
    5850,
    5851,
    5850,
    5851,
    5850,
    5851,
    5850,
    5851,
    5850,
    5851,
    5850,
    5851,
    5850,
    5851,
    5850,
    5851,
    5846,
    5847,
    5846,
    5847,
    5846,
    5847,
    5846,
    5847,
    5846,
    5847,
    5846,
    5847,
    5846,
    5847,
    5846,
    5847,
    5846,
    5847,
    5846,
    5847,
    5846,
    5847,
    5846,
    5847,
    5846,
    5847,
    5846,
    5847,
    5846,
    5847,
    5846,
    5847,
    5846,
    5847,
    5846,
    5847,
    5846,
    5847,
    5846,
    5847,
    5846,
    5847,
    5846,
    5847,
    5846,
    5847,
    5846,
    5847,
    5850,
    5851,
    5850,
    5851,
    5850,
    5851,
    5850,
    5851,
    5850,
    5851,
    5850,
    5851,
    5850,
    5851,
    5850,
    5851,
    5850,
    5851,
    5850,
    5851,
    5850,
    5851,
    5850,
    5851,
    5850,
    5851,
    5850,
    5851,
    5850,
    5851,
    5850,
    5851,
    5850,
    5851,
    5850,
    5851,
    5850,
    5851,
    5850,
    5851,
    5850,
    5851,
    5850,
    5851,
    5850,
    5851,
    5850,
    5851,
    5846,
    5847,
    5846,
    5847,
    5846,
    5847,
    5846,
    5847,
    5846,
    5847,
    5846,
    5847,
    5846,
    5847,
    5846,
    5847,
    5846,
    5847,
    5846,
    5847,
    5846,
    5847,
    5846,
    5847,
    5846,
    5847,
    5846,
    5847,
    5846,
    5847,
    5846,
    5847,
    5846,
    5847,
    5846,
    5847,
    5846,
    5847,
    5846,
    5847,
    5846,
    5847,
    5846,
    5847,
    5846,
    5847,
    5846,
    5847,
    5850,
    5851,
    5850,
    5851,
    5850,
    5851,
    5850,
    5851,
    5850,
    5851,
    5850,
    5851,
    5850,
    5851,
    5850,
    5851,
    5850,
    5851,
    5850,
    5851,
    5850,
    5851,
    5850,
    5851,
    5850,
    5851,
    5850,
    5851,
    5850,
    5851,
    5850,
    5851,
    5850,
    5851,
    5850,
    5851,
    5850,
    5851,
    5850,
    5851,
    5850,
    5851,
    5850,
    5851,
    5850,
    5851,
    5850,
    5851,
    5846,
    5847,
    5846,
    5847,
    5846,
    5847,
    5846,
    5847,
    5846,
    5847,
    5846,
    5847,
    5846,
    5847,
    5846,
    5847,
    5846,
    5847,
    5846,
    5847,
    5846,
    5847,
    5846,
    5847,
    5846,
    5847,
    5846,
    5847,
    5846,
    5847,
    5846,
    5847,
    5846,
    5847,
    5846,
    5847,
    5846,
    5847,
    5846,
    5847,
    5846,
    5847,
    5846,
    5847,
    5846,
    5847,
    5846,
    5847,
    5850,
    5851,
    5850,
    5851,
    5850,
    5851,
    5850,
    5851,
    5850,
    5851,
    5850,
    5851,
    5850,
    5851,
    5850,
    5851,
    5850,
    5851,
    5850,
    5851,
    5850,
    5851,
    5850,
    5851,
    5850,
    5851,
    5850,
    5851,
    5850,
    5851,
    5850,
    5851,
    5850,
    5851,
    5850,
    5851,
    5850,
    5851,
    5850,
    5851,
    5850,
    5851,
    5850,
    5851,
    5850,
    5851,
    5850,
    5851,
    5846,
    5847,
    5846,
    5847,
    5846,
    5847,
    5846,
    5847,
    5846,
    5847,
    5846,
    5847,
    5846,
    5847,
    5846,
    5847,
    5846,
    5847,
    5846,
    5847,
    5846,
    5847,
    5846,
    5847,
    5846,
    5847,
    5846,
    5847,
    5846,
    5847,
    5846,
    5847,
    5846,
    5847,
    5846,
    5847,
    5846,
    5847,
    5846,
    5847,
    5846,
    5847,
    5846,
    5847,
    5846,
    5847,
    5846,
    5847,
    5850,
    5851,
    5850,
    5851,
    5850,
    5851,
    5850,
    5851,
    5850,
    5851,
    5850,
    5851,
    5850,
    5851,
    5850,
    5851,
    5850,
    5851,
    5850,
    5851,
    5850,
    5851,
    5850,
    5851,
    5850,
    5851,
    5850,
    5851,
    5850,
    5851,
    5850,
    5851,
    5850,
    5851,
    5850,
    5851,
    5850,
    5851,
    5850,
    5851,
    5850,
    5851,
    5850,
    5851,
    5850,
    5851,
    5850,
    5851
   ]
  },
  {
   "id": 2,
   "name": "water",
   "type": "tilelayer",
   "width": 48,
   "height": 36,
   "x": 0,
   "y": 0,
   "opacity": 1,
   "visible": true,
   "data": [
    0,
    0,
    0,
    0,
    0,
    0,
    0,
    0,
    0,
    0,
    0,
    0,
    0,
    0,
    0,
    0,
    0,
    0,
    0,
    0,
    0,
    0,
    0,
    0,
    0,
    0,
    0,
    0,
    0,
    0,
    0,
    0,
    0,
    0,
    0,
    0,
    0,
    0,
    0,
    0,
    0,
    0,
    0,
    0,
    0,
    0,
    0,
    0,
    0,
    0,
    0,
    0,
    0,
    0,
    0,
    0,
    0,
    0,
    0,
    0,
    0,
    0,
    0,
    0,
    0,
    0,
    0,
    0,
    0,
    0,
    0,
    0,
    0,
    0,
    0,
    0,
    0,
    0,
    0,
    0,
    0,
    0,
    0,
    0,
    0,
    0,
    0,
    0,
    0,
    0,
    0,
    0,
    0,
    0,
    0,
    0,
    0,
    0,
    0,
    0,
    0,
    0,
    0,
    0,
    0,
    0,
    0,
    0,
    0,
    0,
    0,
    0,
    0,
    0,
    0,
    0,
    0,
    0,
    0,
    0,
    0,
    0,
    0,
    0,
    0,
    0,
    0,
    0,
    0,
    0,
    0,
    0,
    0,
    0,
    0,
    0,
    0,
    0,
    0,
    0,
    0,
    0,
    0,
    0,
    0,
    0,
    0,
    0,
    0,
    0,
    0,
    0,
    0,
    0,
    0,
    0,
    0,
    0,
    0,
    0,
    0,
    0,
    0,
    0,
    0,
    0,
    0,
    0,
    0,
    0,
    0,
    0,
    0,
    0,
    0,
    0,
    0,
    0,
    0,
    0,
    0,
    0,
    0,
    0,
    0,
    0,
    0,
    0,
    0,
    0,
    0,
    0,
    0,
    0,
    0,
    0,
    0,
    0,
    0,
    0,
    0,
    0,
    0,
    0,
    0,
    0,
    0,
    0,
    0,
    0,
    0,
    0,
    0,
    0,
    0,
    0,
    0,
    0,
    0,
    0,
    0,
    0,
    0,
    0,
    0,
    0,
    0,
    0,
    0,
    0,
    0,
    0,
    0,
    0,
    0,
    0,
    0,
    0,
    0,
    0,
    0,
    0,
    0,
    0,
    0,
    0,
    0,
    0,
    0,
    0,
    0,
    0,
    0,
    0,
    0,
    0,
    0,
    0,
    0,
    0,
    0,
    0,
    0,
    0,
    0,
    0,
    0,
    0,
    0,
    0,
    0,
    0,
    0,
    0,
    0,
    0,
    0,
    0,
    0,
    0,
    0,
    0,
    0,
    0,
    0,
    0,
    0,
    0,
    0,
    0,
    0,
    0,
    0,
    0,
    0,
    0,
    0,
    0,
    0,
    0,
    0,
    0,
    0,
    0,
    0,
    0,
    0,
    0,
    0,
    0,
    0,
    0,
    0,
    0,
    0,
    0,
    0,
    0,
    0,
    0,
    0,
    0,
    0,
    0,
    0,
    0,
    0,
    0,
    0,
    0,
    0,
    0,
    0,
    0,
    0,
    0,
    0,
    0,
    0,
    0,
    0,
    0,
    0,
    0,
    0,
    0,
    0,
    0,
    0,
    0,
    0,
    0,
    0,
    0,
    0,
    0,
    0,
    0,
    0,
    0,
    0,
    0,
    0,
    0,
    0,
    0,
    0,
    0,
    0,
    0,
    0,
    0,
    0,
    0,
    0,
    0,
    0,
    0,
    0,
    0,
    0,
    0,
    0,
    0,
    0,
    0,
    0,
    0,
    0,
    0,
    0,
    0,
    0,
    0,
    0,
    0,
    0,
    0,
    0,
    0,
    0,
    0,
    0,
    0,
    0,
    0,
    0,
    0,
    0,
    0,
    0,
    0,
    0,
    0,
    0,
    0,
    0,
    0,
    0,
    0,
    0,
    0,
    0,
    0,
    0,
    0,
    0,
    0,
    0,
    0,
    0,
    0,
    0,
    0,
    0,
    0,
    0,
    0,
    0,
    0,
    0,
    0,
    0,
    0,
    0,
    0,
    0,
    0,
    0,
    0,
    0,
    0,
    0,
    0,
    0,
    0,
    0,
    0,
    0,
    0,
    0,
    0,
    0,
    0,
    0,
    0,
    0,
    0,
    0,
    0,
    0,
    0,
    0,
    0,
    0,
    0,
    0,
    0,
    0,
    0,
    0,
    0,
    0,
    0,
    0,
    0,
    0,
    0,
    0,
    0,
    0,
    0,
    0,
    0,
    0,
    0,
    0,
    0,
    0,
    0,
    0,
    0,
    0,
    0,
    0,
    0,
    0,
    0,
    0,
    0,
    0,
    0,
    0,
    0,
    0,
    0,
    0,
    0,
    0,
    0,
    0,
    0,
    0,
    0,
    0,
    0,
    0,
    0,
    0,
    0,
    0,
    0,
    0,
    0,
    0,
    0,
    0,
    0,
    0,
    0,
    0,
    0,
    0,
    0,
    0,
    0,
    0,
    0,
    0,
    0,
    0,
    0,
    0,
    0,
    0,
    0,
    0,
    0,
    0,
    0,
    0,
    0,
    0,
    0,
    0,
    0,
    0,
    0,
    0,
    0,
    0,
    0,
    0,
    0,
    0,
    0,
    0,
    0,
    0,
    0,
    0,
    0,
    0,
    0,
    0,
    0,
    0,
    0,
    0,
    0,
    0,
    0,
    0,
    0,
    0,
    0,
    0,
    0,
    0,
    0,
    0,
    0,
    0,
    0,
    0,
    0,
    0,
    0,
    0,
    0,
    0,
    0,
    0,
    0,
    0,
    0,
    0,
    0,
    0,
    0,
    0,
    0,
    0,
    0,
    0,
    0,
    0,
    0,
    0,
    0,
    0,
    0,
    0,
    0,
    0,
    0,
    0,
    0,
    0,
    0,
    0,
    0,
    0,
    0,
    0,
    0,
    0,
    0,
    0,
    0,
    0,
    0,
    0,
    0,
    0,
    0,
    0,
    0,
    0,
    0,
    0,
    0,
    0,
    0,
    0,
    0,
    0,
    0,
    0,
    0,
    0,
    0,
    0,
    0,
    0,
    0,
    0,
    0,
    0,
    0,
    0,
    0,
    0,
    0,
    0,
    0,
    0,
    0,
    0,
    0,
    0,
    0,
    0,
    0,
    0,
    0,
    0,
    0,
    0,
    0,
    0,
    0,
    0,
    0,
    0,
    0,
    0,
    0,
    0,
    0,
    0,
    0,
    0,
    0,
    0,
    0,
    0,
    0,
    0,
    0,
    0,
    0,
    0,
    0,
    0,
    0,
    0,
    0,
    0,
    0,
    0,
    0,
    0,
    0,
    0,
    0,
    0,
    0,
    0,
    0,
    0,
    0,
    0,
    0,
    0,
    0,
    0,
    0,
    0,
    0,
    0,
    0,
    0,
    0,
    0,
    0,
    0,
    0,
    0,
    0,
    0,
    0,
    0,
    0,
    0,
    0,
    0,
    0,
    0,
    0,
    0,
    0,
    0,
    0,
    0,
    0,
    0,
    0,
    0,
    0,
    0,
    0,
    0,
    0,
    0,
    0,
    0,
    0,
    0,
    0,
    0,
    0,
    0,
    0,
    0,
    0,
    0,
    0,
    0,
    0,
    0,
    0,
    0,
    0,
    763,
    764,
    763,
    764,
    0,
    0,
    0,
    0,
    0,
    0,
    0,
    0,
    0,
    0,
    0,
    0,
    0,
    0,
    0,
    0,
    0,
    0,
    0,
    0,
    0,
    0,
    0,
    0,
    0,
    0,
    0,
    0,
    0,
    0,
    0,
    0,
    0,
    0,
    0,
    0,
    0,
    0,
    0,
    0,
    0,
    0,
    0,
    818,
    3248,
    3248,
    3248,
    818,
    817,
    0,
    0,
    0,
    0,
    0,
    0,
    0,
    0,
    0,
    0,
    0,
    0,
    0,
    0,
    0,
    0,
    0,
    0,
    0,
    0,
    0,
    0,
    0,
    0,
    0,
    0,
    0,
    0,
    0,
    0,
    0,
    0,
    0,
    0,
    0,
    0,
    0,
    0,
    0,
    0,
    0,
    0,
    0,
    3248,
    3248,
    3248,
    764,
    0,
    0,
    0,
    0,
    0,
    0,
    0,
    0,
    0,
    0,
    0,
    0,
    0,
    0,
    0,
    0,
    0,
    0,
    0,
    0,
    0,
    0,
    0,
    0,
    0,
    0,
    0,
    0,
    0,
    0,
    0,
    0,
    0,
    0,
    0,
    0,
    0,
    0,
    0,
    0,
    0,
    0,
    0,
    0,
    0,
    0,
    0,
    0,
    0,
    0,
    0,
    0,
    0,
    0,
    0,
    0,
    0,
    0,
    0,
    0,
    0,
    0,
    0,
    0,
    0,
    0,
    0,
    0,
    0,
    0,
    0,
    0,
    0,
    0,
    0,
    0,
    0,
    0,
    0,
    0,
    0,
    0,
    0,
    0,
    0,
    0,
    0,
    0,
    0,
    0,
    0,
    0,
    0,
    0,
    0,
    0,
    0,
    0,
    0,
    0,
    0,
    0,
    0,
    0,
    0,
    0,
    0,
    0,
    0,
    0,
    0,
    0,
    0,
    0,
    0,
    0,
    0,
    0,
    0,
    0,
    0,
    0,
    0,
    0,
    0,
    0,
    0,
    0,
    0,
    0,
    0,
    0,
    0,
    0,
    0,
    0,
    0,
    0,
    0,
    0,
    0,
    0,
    0,
    0,
    0,
    0,
    0,
    0,
    0,
    0,
    0,
    0,
    0,
    0,
    0,
    0,
    0,
    0,
    0,
    0,
    0,
    0,
    0,
    0,
    0,
    0,
    0,
    0,
    0,
    0,
    0,
    0,
    0,
    0,
    0,
    0,
    0,
    0,
    0,
    0,
    0,
    0,
    0,
    0,
    0,
    0,
    0,
    0,
    0,
    0,
    0,
    0,
    0,
    0,
    0,
    0,
    0,
    0,
    0,
    0,
    0,
    0,
    0,
    0,
    0,
    0,
    0,
    0,
    0,
    0,
    0,
    0,
    0,
    0,
    0,
    0,
    0,
    0,
    0,
    0,
    0,
    0,
    0,
    0,
    0,
    0,
    0,
    0,
    0,
    0,
    0,
    0,
    0,
    0,
    0,
    0,
    0,
    0,
    0,
    0,
    0,
    0,
    0,
    0,
    0,
    0,
    0,
    0,
    0,
    0,
    0,
    0,
    0,
    0,
    0,
    0,
    0,
    0,
    0,
    0,
    0,
    0,
    0,
    0,
    0,
    0,
    0,
    0,
    0,
    0,
    0,
    0,
    0,
    0,
    0,
    0,
    0,
    0,
    0,
    0,
    0,
    0,
    0,
    0,
    0,
    0,
    0,
    0,
    0,
    0,
    0,
    0,
    0,
    0,
    0,
    0,
    0,
    0,
    0,
    0,
    0,
    0,
    0,
    0,
    0,
    0,
    0,
    0,
    0,
    0,
    0,
    0,
    0,
    0,
    0,
    0,
    0,
    0,
    0,
    0,
    0,
    0,
    0,
    0,
    0,
    0,
    0,
    0,
    0,
    0,
    0,
    0,
    0,
    0,
    0,
    0,
    0,
    0,
    0,
    0,
    0,
    0,
    0,
    0,
    0,
    0,
    0,
    0,
    0,
    0,
    0,
    0,
    0,
    0,
    0,
    0,
    0,
    0,
    0,
    0,
    0,
    0,
    0,
    0,
    0,
    0,
    0,
    0,
    0,
    0,
    0,
    0,
    0,
    0,
    0,
    0,
    0,
    0,
    0,
    0,
    0,
    0,
    0,
    0,
    0,
    0,
    0,
    0,
    0,
    0,
    0,
    0,
    0,
    0,
    0,
    0,
    0,
    0,
    0,
    0,
    0,
    0,
    0,
    0,
    0,
    0,
    0,
    0,
    0,
    0,
    0,
    0,
    0,
    0,
    0,
    0,
    0,
    0,
    0,
    0,
    0,
    0,
    0,
    0,
    0,
    0,
    0,
    0,
    0,
    0,
    0,
    0,
    0,
    0,
    0,
    0,
    0,
    0,
    0,
    0,
    0,
    0,
    0,
    0,
    0,
    0,
    0,
    0,
    0,
    0,
    0,
    0,
    0,
    0,
    0,
    0,
    0,
    0,
    0,
    0,
    0,
    0,
    0,
    0,
    0,
    0,
    0,
    0,
    0,
    0,
    0,
    0,
    0,
    0,
    0,
    0,
    0,
    0,
    0,
    0,
    0,
    0,
    0,
    0,
    0,
    0,
    0,
    0,
    0,
    0,
    0,
    0,
    0,
    0,
    0,
    0,
    0,
    0,
    0,
    0,
    0,
    0,
    0,
    0,
    0,
    0,
    0,
    0,
    0,
    0,
    0,
    0,
    0,
    0,
    0,
    0,
    0,
    0,
    0,
    0,
    0,
    0,
    0,
    0,
    0,
    0,
    0,
    0,
    0,
    0,
    0,
    0,
    0,
    0,
    0,
    0,
    0,
    0,
    0,
    0,
    0,
    0,
    0,
    0,
    0,
    0,
    0,
    0,
    0,
    0,
    0,
    0,
    0,
    0,
    0,
    0,
    0,
    0,
    0,
    0,
    0,
    0,
    0,
    0,
    0,
    0,
    0,
    0,
    0,
    0,
    0,
    0,
    0,
    0,
    0,
    0,
    0,
    0,
    0,
    0,
    0,
    0,
    0,
    0,
    0,
    0,
    0,
    0,
    0,
    0,
    0,
    0,
    0,
    0,
    0,
    0,
    0,
    0,
    0,
    0,
    0,
    0,
    0,
    0,
    0,
    0,
    0,
    0,
    0,
    0,
    0,
    0,
    0,
    0,
    0,
    0,
    0,
    0,
    0,
    0,
    0,
    0,
    0,
    0,
    0,
    0,
    0,
    0,
    0,
    0,
    0,
    0,
    0,
    0,
    0,
    0,
    0,
    0,
    0,
    0,
    0,
    0,
    0,
    0,
    0,
    0,
    0,
    0,
    0,
    0,
    0,
    0,
    0,
    0,
    0,
    0,
    0,
    0,
    0,
    0,
    0,
    0,
    0,
    0,
    0,
    0,
    0,
    0,
    0,
    0,
    0,
    0,
    0,
    0,
    0,
    0,
    0,
    0,
    0,
    0,
    0,
    0,
    0,
    0,
    0,
    0,
    0,
    0,
    0,
    0,
    0,
    0,
    0,
    0,
    0,
    0,
    0,
    0,
    0,
    0,
    0,
    0,
    0,
    0,
    0,
    0,
    0,
    0,
    0,
    0,
    0,
    0,
    0,
    0,
    0,
    0,
    0,
    0,
    0,
    0,
    0,
    0,
    0,
    0,
    0,
    0,
    0,
    0,
    0,
    0,
    0,
    0,
    0,
    0,
    0,
    0,
    0,
    0,
    0,
    0,
    0,
    0,
    0,
    0,
    0,
    0,
    0,
    0,
    0,
    0,
    0,
    0,
    0,
    0,
    0,
    0,
    0,
    0,
    0,
    0,
    0,
    0,
    0,
    0,
    0,
    0,
    0,
    0,
    0,
    0,
    0,
    0,
    0,
    0,
    0,
    0,
    0,
    0,
    0,
    0,
    0,
    0,
    0,
    0,
    0,
    0,
    0,
    0,
    0,
    0,
    0,
    0,
    0,
    0,
    0,
    0,
    0,
    0,
    0,
    0,
    0,
    0,
    0,
    0,
    0,
    0,
    0,
    0,
    0,
    0,
    0,
    0,
    0,
    0,
    0,
    0,
    0,
    0,
    0,
    0,
    0,
    0,
    0,
    0
   ]
  },
  {
   "id": 3,
   "name": "path",
   "type": "tilelayer",
   "width": 48,
   "height": 36,
   "x": 0,
   "y": 0,
   "opacity": 1,
   "visible": true,
   "data": [
    0,
    0,
    0,
    0,
    0,
    0,
    0,
    0,
    0,
    0,
    0,
    0,
    0,
    0,
    0,
    0,
    0,
    0,
    0,
    0,
    0,
    0,
    0,
    0,
    0,
    0,
    0,
    0,
    0,
    0,
    0,
    0,
    0,
    0,
    0,
    0,
    0,
    0,
    0,
    0,
    0,
    0,
    0,
    0,
    0,
    0,
    0,
    0,
    0,
    0,
    0,
    0,
    0,
    0,
    0,
    0,
    0,
    0,
    0,
    0,
    0,
    0,
    0,
    0,
    0,
    0,
    0,
    0,
    0,
    0,
    0,
    0,
    0,
    0,
    0,
    0,
    0,
    0,
    0,
    0,
    0,
    0,
    0,
    0,
    0,
    0,
    0,
    0,
    0,
    0,
    0,
    0,
    0,
    0,
    0,
    0,
    0,
    0,
    0,
    0,
    0,
    0,
    0,
    0,
    0,
    0,
    0,
    0,
    0,
    0,
    0,
    0,
    0,
    0,
    0,
    0,
    0,
    0,
    0,
    0,
    0,
    0,
    0,
    0,
    0,
    0,
    0,
    0,
    0,
    0,
    0,
    0,
    0,
    0,
    0,
    0,
    0,
    0,
    0,
    0,
    0,
    0,
    0,
    0,
    0,
    0,
    0,
    0,
    0,
    0,
    0,
    0,
    0,
    0,
    0,
    0,
    0,
    0,
    0,
    0,
    0,
    0,
    0,
    0,
    0,
    0,
    0,
    0,
    0,
    0,
    0,
    0,
    0,
    0,
    0,
    0,
    0,
    0,
    0,
    0,
    0,
    0,
    0,
    0,
    0,
    0,
    0,
    0,
    0,
    0,
    0,
    0,
    0,
    0,
    0,
    0,
    0,
    0,
    0,
    0,
    0,
    0,
    0,
    0,
    0,
    0,
    0,
    0,
    0,
    0,
    0,
    0,
    0,
    0,
    5848,
    5849,
    5848,
    5849,
    5848,
    5849,
    5848,
    5849,
    5848,
    5849,
    5848,
    5849,
    5848,
    5849,
    5848,
    5849,
    5848,
    5849,
    0,
    0,
    0,
    0,
    0,
    0,
    0,
    0,
    0,
    0,
    0,
    0,
    0,
    0,
    0,
    0,
    0,
    0,
    0,
    0,
    0,
    0,
    0,
    0,
    0,
    0,
    0,
    0,
    0,
    0,
    5852,
    5853,
    5852,
    5853,
    5852,
    5853,
    5852,
    5853,
    5852,
    5853,
    5852,
    5853,
    5852,
    5853,
    5852,
    5853,
    5852,
    5853,
    0,
    0,
    0,
    0,
    0,
    0,
    0,
    0,
    0,
    0,
    0,
    0,
    0,
    0,
    0,
    0,
    0,
    0,
    0,
    0,
    0,
    0,
    0,
    0,
    0,
    0,
    0,
    0,
    0,
    0,
    5848,
    5849,
    0,
    0,
    0,
    0,
    0,
    0,
    0,
    0,
    0,
    0,
    0,
    0,
    0,
    0,
    5848,
    5849,
    0,
    0,
    0,
    0,
    0,
    0,
    0,
    0,
    0,
    0,
    0,
    0,
    0,
    0,
    0,
    0,
    0,
    0,
    0,
    0,
    0,
    0,
    0,
    0,
    0,
    0,
    0,
    0,
    0,
    0,
    5852,
    5853,
    0,
    0,
    0,
    0,
    0,
    0,
    0,
    0,
    0,
    0,
    0,
    0,
    0,
    0,
    0,
    0,
    0,
    0,
    0,
    0,
    0,
    0,
    0,
    0,
    0,
    0,
    0,
    0,
    0,
    0,
    0,
    0,
    0,
    0,
    0,
    0,
    0,
    0,
    0,
    0,
    0,
    0,
    0,
    0,
    0,
    0,
    5848,
    5849,
    0,
    0,
    0,
    0,
    0,
    0,
    0,
    0,
    0,
    0,
    0,
    0,
    0,
    0,
    0,
    0,
    0,
    0,
    0,
    0,
    0,
    0,
    0,
    0,
    0,
    0,
    0,
    0,
    0,
    0,
    0,
    0,
    0,
    0,
    0,
    0,
    0,
    0,
    0,
    0,
    0,
    0,
    0,
    0,
    0,
    0,
    5852,
    5853,
    0,
    0,
    0,
    0,
    0,
    0,
    0,
    0,
    0,
    0,
    0,
    0,
    0,
    0,
    0,
    0,
    0,
    0,
    0,
    0,
    0,
    0,
    0,
    0,
    0,
    0,
    0,
    0,
    0,
    0,
    0,
    0,
    0,
    5849,
    5848,
    0,
    0,
    0,
    0,
    0,
    0,
    0,
    0,
    0,
    0,
    0,
    5848,
    5849,
    0,
    0,
    0,
    0,
    0,
    0,
    0,
    0,
    0,
    0,
    0,
    0,
    0,
    0,
    0,
    0,
    0,
    0,
    0,
    0,
    0,
    0,
    0,
    0,
    0,
    0,
    0,
    0,
    0,
    0,
    0,
    0,
    0,
    5853,
    5852,
    0,
    0,
    0,
    0,
    0,
    0,
    0,
    0,
    0,
    0,
    0,
    5852,
    5853,
    0,
    0,
    0,
    0,
    0,
    0,
    0,
    0,
    0,
    0,
    0,
    0,
    0,
    0,
    0,
    0,
    0,
    0,
    0,
    0,
    0,
    0,
    0,
    0,
    0,
    0,
    0,
    0,
    0,
    0,
    0,
    0,
    0,
    5849,
    5848,
    0,
    0,
    0,
    0,
    0,
    0,
    0,
    0,
    0,
    0,
    0,
    5848,
    5849,
    0,
    0,
    0,
    0,
    0,
    0,
    0,
    0,
    0,
    0,
    0,
    0,
    0,
    0,
    0,
    0,
    0,
    0,
    0,
    0,
    0,
    0,
    0,
    0,
    0,
    0,
    0,
    0,
    0,
    0,
    0,
    0,
    0,
    5853,
    5852,
    0,
    0,
    0,
    0,
    0,
    0,
    0,
    0,
    0,
    0,
    0,
    5852,
    5853,
    0,
    0,
    0,
    0,
    0,
    0,
    0,
    0,
    0,
    0,
    0,
    0,
    0,
    0,
    0,
    0,
    0,
    0,
    0,
    0,
    0,
    0,
    0,
    0,
    0,
    0,
    0,
    0,
    0,
    0,
    0,
    0,
    0,
    5849,
    5848,
    5849,
    5848,
    5849,
    5848,
    5849,
    5848,
    5849,
    5848,
    5849,
    5848,
    5849,
    5848,
    5849,
    0,
    0,
    0,
    0,
    0,
    0,
    0,
    0,
    0,
    0,
    0,
    0,
    0,
    0,
    0,
    0,
    0,
    0,
    0,
    0,
    0,
    0,
    0,
    0,
    0,
    0,
    0,
    0,
    0,
    0,
    0,
    0,
    0,
    5853,
    5852,
    5853,
    5852,
    5853,
    5852,
    5853,
    5852,
    5853,
    5852,
    5853,
    5852,
    5853,
    5852,
    5853,
    0,
    0,
    0,
    0,
    0,
    0,
    0,
    0,
    0,
    0,
    0,
    0,
    0,
    0,
    0,
    0,
    0,
    0,
    0,
    0,
    0,
    0,
    0,
    0,
    0,
    0,
    0,
    0,
    0,
    0,
    0,
    0,
    0,
    0,
    0,
    0,
    0,
    0,
    0,
    0,
    0,
    0,
    0,
    0,
    0,
    0,
    5848,
    5849,
    0,
    0,
    0,
    0,
    0,
    0,
    0,
    0,
    0,
    0,
    0,
    0,
    0,
    0,
    0,
    0,
    0,
    0,
    0,
    0,
    0,
    0,
    0,
    0,
    0,
    0,
    0,
    0,
    0,
    0,
    0,
    0,
    0,
    0,
    0,
    0,
    0,
    0,
    0,
    0,
    0,
    0,
    0,
    0,
    0,
    0,
    5852,
    5853,
    5852,
    5853,
    5852,
    5853,
    5852,
    5853,
    5852,
    5853,
    5852,
    5853,
    5852,
    0,
    2383,
    2384,
    2383,
    0,
    0,
    0,
    0,
    0,
    0,
    0,
    0,
    0,
    0,
    0,
    0,
    0,
    0,
    0,
    0,
    0,
    0,
    0,
    0,
    0,
    0,
    0,
    0,
    0,
    0,
    0,
    0,
    0,
    0,
    0,
    5848,
    5849,
    5848,
    5849,
    5848,
    5849,
    5848,
    5849,
    5848,
    5849,
    5848,
    5849,
    5848,
    5849,
    2437,
    2438,
    2437,
    0,
    0,
    0,
    0,
    0,
    0,
    0,
    0,
    0,
    0,
    0,
    0,
    0,
    0,
    0,
    0,
    0,
    0,
    0,
    0,
    0,
    0,
    0,
    0,
    0,
    0,
    0,
    0,
    0,
    0,
    0,
    5852,
    5853,
    0,
    0,
    0,
    0,
    0,
    0,
    0,
    0,
    0,
    0,
    0,
    0,
    0,
    0,
    5852,
    5853,
    0,
    0,
    0,
    0,
    0,
    0,
    0,
    0,
    0,
    0,
    0,
    0,
    0,
    0,
    0,
    0,
    0,
    0,
    0,
    0,
    0,
    0,
    0,
    0,
    0,
    0,
    0,
    0,
    0,
    0,
    5848,
    5849,
    0,
    0,
    0,
    0,
    0,
    0,
    0,
    0,
    0,
    0,
    0,
    0,
    0,
    0,
    5848,
    5849,
    0,
    0,
    0,
    0,
    0,
    0,
    0,
    0,
    0,
    0,
    0,
    0,
    0,
    0,
    0,
    0,
    0,
    0,
    0,
    0,
    0,
    0,
    0,
    0,
    0,
    0,
    0,
    0,
    0,
    0,
    5852,
    5853,
    0,
    0,
    0,
    0,
    0,
    0,
    0,
    0,
    0,
    0,
    0,
    0,
    0,
    0,
    5852,
    5853,
    0,
    0,
    0,
    0,
    0,
    0,
    0,
    0,
    0,
    0,
    0,
    0,
    0,
    0,
    0,
    0,
    0,
    0,
    0,
    0,
    0,
    0,
    0,
    0,
    0,
    0,
    0,
    0,
    0,
    0,
    5848,
    5849,
    0,
    0,
    0,
    0,
    0,
    0,
    0,
    0,
    0,
    0,
    0,
    0,
    0,
    0,
    5848,
    5849,
    0,
    0,
    0,
    0,
    0,
    0,
    0,
    0,
    0,
    0,
    0,
    0,
    0,
    0,
    0,
    0,
    0,
    0,
    0,
    0,
    0,
    0,
    0,
    0,
    0,
    0,
    0,
    0,
    0,
    0,
    5852,
    5853,
    0,
    0,
    0,
    0,
    0,
    0,
    0,
    0,
    0,
    0,
    0,
    0,
    0,
    0,
    5852,
    5853,
    0,
    0,
    0,
    0,
    0,
    0,
    0,
    0,
    0,
    0,
    0,
    0,
    0,
    0,
    0,
    0,
    0,
    0,
    0,
    0,
    0,
    0,
    0,
    0,
    0,
    0,
    0,
    0,
    0,
    0,
    5848,
    5849,
    0,
    0,
    0,
    0,
    0,
    0,
    0,
    0,
    0,
    0,
    0,
    0,
    0,
    0,
    5848,
    5849,
    0,
    0,
    0,
    0,
    0,
    0,
    0,
    0,
    0,
    0,
    0,
    0,
    0,
    0,
    0,
    0,
    0,
    0,
    0,
    0,
    0,
    0,
    0,
    0,
    0,
    0,
    0,
    0,
    0,
    0,
    5852,
    5853,
    0,
    0,
    0,
    0,
    0,
    0,
    0,
    0,
    0,
    0,
    0,
    0,
    0,
    0,
    0,
    0,
    0,
    0,
    0,
    0,
    0,
    0,
    0,
    0,
    0,
    0,
    0,
    0,
    0,
    0,
    0,
    0,
    0,
    0,
    0,
    0,
    0,
    0,
    0,
    0,
    0,
    0,
    0,
    0,
    0,
    0,
    5848,
    5849,
    0,
    0,
    0,
    0,
    0,
    0,
    0,
    0,
    0,
    0,
    0,
    0,
    0,
    0,
    0,
    0,
    0,
    0,
    0,
    0,
    0,
    0,
    0,
    0,
    0,
    0,
    0,
    0,
    0,
    0,
    0,
    0,
    0,
    0,
    0,
    0,
    0,
    0,
    0,
    0,
    0,
    0,
    0,
    0,
    0,
    0,
    5852,
    5853,
    0,
    0,
    0,
    0,
    0,
    0,
    0,
    0,
    0,
    0,
    0,
    0,
    0,
    0,
    0,
    0,
    0,
    0,
    0,
    0,
    0,
    0,
    0,
    0,
    0,
    0,
    0,
    0,
    0,
    0,
    0,
    0,
    0,
    0,
    0,
    0,
    0,
    0,
    0,
    0,
    0,
    0,
    0,
    0,
    0,
    0,
    5848,
    5849,
    0,
    0,
    0,
    0,
    0,
    0,
    0,
    0,
    0,
    0,
    0,
    0,
    0,
    0,
    0,
    0,
    0,
    0,
    0,
    0,
    0,
    0,
    0,
    0,
    0,
    0,
    0,
    0,
    0,
    0,
    0,
    0,
    0,
    0,
    0,
    0,
    0,
    0,
    0,
    0,
    0,
    0,
    0,
    0,
    0,
    0,
    5852,
    5853,
    0,
    0,
    0,
    0,
    0,
    0,
    0,
    0,
    0,
    0,
    0,
    0,
    0,
    0,
    0,
    0,
    0,
    0,
    0,
    0,
    0,
    0,
    0,
    0,
    0,
    0,
    0,
    0,
    0,
    0,
    0,
    0,
    0,
    0,
    0,
    0,
    0,
    0,
    0,
    0,
    0,
    0,
    0,
    0,
    0,
    0,
    5848,
    5849,
    0,
    0,
    0,
    0,
    0,
    0,
    0,
    0,
    0,
    0,
    0,
    0,
    0,
    0,
    0,
    0,
    0,
    0,
    0,
    0,
    0,
    0,
    0,
    0,
    0,
    0,
    0,
    0,
    0,
    0,
    0,
    0,
    0,
    0,
    0,
    0,
    0,
    0,
    0,
    0,
    0,
    0,
    0,
    0,
    0,
    0,
    5852,
    5853,
    0,
    0,
    0,
    0,
    0,
    0,
    0,
    0,
    0,
    0,
    0,
    0,
    0,
    0,
    0,
    0,
    0,
    0,
    0,
    0,
    0,
    0,
    0,
    0,
    0,
    0,
    0,
    0,
    0,
    0,
    0,
    0,
    0,
    0,
    0,
    0,
    0,
    0,
    0,
    0,
    0,
    0,
    0,
    0,
    0,
    0,
    5848,
    5849,
    0,
    0,
    0,
    0,
    0,
    0,
    0,
    0,
    0,
    0,
    0,
    0,
    0,
    0,
    0,
    0,
    0,
    0,
    0,
    0,
    0,
    0,
    0,
    0,
    0,
    0,
    0,
    0,
    0,
    0,
    0,
    0,
    0,
    0,
    0,
    0,
    0,
    0,
    0,
    0,
    0,
    0,
    0,
    0,
    0,
    0,
    5852,
    5853,
    0,
    0,
    0,
    0,
    0,
    0,
    0,
    0,
    0,
    0,
    0,
    0,
    0,
    0,
    0,
    0,
    0,
    0,
    0,
    0,
    0,
    0,
    0,
    0,
    0,
    0,
    0,
    0,
    0,
    0,
    0,
    0,
    0,
    0,
    0,
    0,
    0,
    0,
    0,
    0,
    0,
    0,
    0,
    0,
    0,
    0,
    5848,
    5849,
    0,
    0,
    0,
    0,
    0,
    0,
    0,
    0,
    0,
    0,
    0,
    0,
    0,
    0,
    0,
    0,
    0,
    0,
    0,
    0,
    0,
    0,
    0,
    0,
    0,
    0,
    0,
    0,
    0,
    0,
    0,
    0,
    0,
    0,
    0,
    0,
    0,
    0,
    0,
    0,
    0,
    0,
    0,
    0,
    0,
    0,
    5852,
    5853,
    0,
    0,
    0,
    0,
    0,
    0,
    0,
    0,
    0,
    0,
    0,
    0,
    0,
    0,
    0,
    0,
    0,
    0,
    0,
    0,
    0,
    0,
    0,
    0
   ]
  },
  {
   "id": 4,
   "name": "fences",
   "type": "tilelayer",
   "width": 48,
   "height": 36,
   "x": 0,
   "y": 0,
   "opacity": 1,
   "visible": true,
   "data": [
    0,
    0,
    0,
    0,
    0,
    0,
    0,
    0,
    0,
    0,
    0,
    0,
    0,
    0,
    0,
    0,
    0,
    0,
    0,
    0,
    0,
    0,
    0,
    0,
    0,
    0,
    0,
    0,
    0,
    0,
    0,
    0,
    0,
    0,
    0,
    0,
    0,
    0,
    0,
    0,
    0,
    0,
    0,
    0,
    0,
    0,
    0,
    0,
    0,
    0,
    0,
    0,
    0,
    0,
    0,
    0,
    0,
    0,
    0,
    0,
    0,
    0,
    0,
    0,
    0,
    0,
    0,
    0,
    0,
    0,
    0,
    0,
    0,
    0,
    0,
    0,
    0,
    0,
    0,
    0,
    0,
    0,
    0,
    0,
    0,
    0,
    0,
    0,
    0,
    0,
    0,
    0,
    0,
    0,
    0,
    0,
    0,
    0,
    0,
    0,
    0,
    0,
    0,
    0,
    0,
    0,
    0,
    0,
    0,
    0,
    0,
    0,
    0,
    0,
    0,
    0,
    0,
    0,
    0,
    0,
    0,
    0,
    0,
    0,
    0,
    0,
    0,
    0,
    0,
    0,
    0,
    0,
    0,
    0,
    0,
    0,
    0,
    0,
    0,
    0,
    0,
    0,
    0,
    0,
    0,
    0,
    0,
    1625,
    1626,
    1621,
    1622,
    1621,
    1622,
    1621,
    1622,
    1621,
    1625,
    1626,
    0,
    0,
    0,
    0,
    0,
    0,
    0,
    0,
    0,
    0,
    0,
    0,
    0,
    0,
    0,
    0,
    0,
    0,
    1625,
    1626,
    1621,
    1622,
    1621,
    1622,
    1567,
    1568,
    1621,
    1622,
    1621,
    1622,
    1625,
    1626,
    0,
    0,
    0,
    0,
    0,
    1679,
    1680,
    1675,
    1676,
    1675,
    1676,
    1675,
    1676,
    1675,
    1679,
    1680,
    0,
    0,
    0,
    1625,
    1626,
    0,
    0,
    0,
    0,
    0,
    0,
    0,
    0,
    1625,
    1626,
    0,
    0,
    0,
    1679,
    1680,
    1675,
    1676,
    1675,
    1676,
    1621,
    1622,
    1675,
    1676,
    1675,
    1676,
    1679,
    1680,
    0,
    0,
    0,
    0,
    0,
    0,
    0,
    0,
    0,
    0,
    0,
    0,
    0,
    0,
    1623,
    0,
    0,
    0,
    0,
    1679,
    1680,
    0,
    0,
    0,
    0,
    0,
    0,
    0,
    0,
    1679,
    1680,
    0,
    0,
    0,
    1623,
    0,
    0,
    0,
    0,
    0,
    0,
    0,
    0,
    0,
    0,
    0,
    1623,
    0,
    0,
    0,
    0,
    0,
    0,
    0,
    0,
    0,
    0,
    0,
    0,
    0,
    0,
    0,
    1677,
    0,
    0,
    0,
    0,
    1623,
    0,
    0,
    0,
    0,
    0,
    0,
    0,
    0,
    0,
    1623,
    0,
    0,
    0,
    0,
    1677,
    0,
    0,
    0,
    0,
    0,
    0,
    0,
    0,
    0,
    0,
    0,
    1677,
    0,
    0,
    0,
    0,
    0,
    0,
    0,
    0,
    0,
    0,
    0,
    0,
    0,
    0,
    0,
    1623,
    0,
    0,
    0,
    0,
    1677,
    0,
    0,
    0,
    0,
    0,
    0,
    0,
    0,
    0,
    1677,
    0,
    0,
    0,
    0,
    1623,
    0,
    0,
    0,
    0,
    0,
    0,
    0,
    0,
    0,
    0,
    0,
    1623,
    0,
    0,
    0,
    0,
    0,
    0,
    0,
    0,
    0,
    0,
    0,
    0,
    0,
    0,
    0,
    1677,
    0,
    0,
    0,
    0,
    1623,
    0,
    0,
    0,
    0,
    0,
    0,
    0,
    0,
    0,
    1623,
    0,
    0,
    0,
    0,
    1677,
    0,
    0,
    0,
    0,
    0,
    0,
    0,
    0,
    0,
    0,
    0,
    1677,
    0,
    0,
    0,
    0,
    0,
    0,
    0,
    0,
    0,
    0,
    0,
    0,
    0,
    0,
    0,
    1567,
    1568,
    0,
    0,
    0,
    1677,
    0,
    0,
    0,
    0,
    0,
    0,
    0,
    0,
    0,
    1677,
    0,
    0,
    0,
    0,
    1623,
    0,
    0,
    0,
    0,
    0,
    0,
    0,
    0,
    0,
    0,
    0,
    1623,
    0,
    0,
    0,
    0,
    0,
    0,
    0,
    0,
    0,
    0,
    0,
    0,
    0,
    0,
    0,
    1621,
    1622,
    0,
    0,
    0,
    1623,
    0,
    0,
    0,
    0,
    0,
    0,
    0,
    0,
    0,
    1623,
    0,
    0,
    0,
    0,
    1677,
    0,
    0,
    0,
    0,
    0,
    0,
    0,
    0,
    0,
    0,
    0,
    1677,
    0,
    0,
    0,
    0,
    0,
    0,
    0,
    0,
    0,
    0,
    0,
    0,
    0,
    0,
    0,
    1623,
    0,
    0,
    0,
    0,
    1677,
    0,
    0,
    0,
    0,
    0,
    0,
    0,
    0,
    0,
    1677,
    0,
    0,
    0,
    0,
    1623,
    0,
    0,
    0,
    0,
    0,
    0,
    0,
    0,
    0,
    0,
    0,
    1623,
    0,
    0,
    0,
    0,
    0,
    0,
    0,
    0,
    0,
    0,
    0,
    0,
    0,
    0,
    0,
    1677,
    0,
    0,
    0,
    0,
    1623,
    0,
    0,
    0,
    0,
    0,
    0,
    0,
    0,
    0,
    1623,
    0,
    0,
    0,
    0,
    1677,
    0,
    0,
    0,
    0,
    0,
    0,
    0,
    0,
    0,
    0,
    0,
    1677,
    0,
    0,
    0,
    0,
    0,
    0,
    1625,
    1626,
    1621,
    1622,
    1621,
    1622,
    1621,
    1622,
    1621,
    1625,
    1626,
    0,
    0,
    0,
    1677,
    0,
    0,
    0,
    0,
    0,
    0,
    0,
    0,
    0,
    1677,
    0,
    0,
    0,
    0,
    1623,
    0,
    0,
    0,
    0,
    0,
    0,
    0,
    0,
    0,
    0,
    0,
    1623,
    0,
    0,
    0,
    0,
    0,
    0,
    1679,
    1680,
    1675,
    1676,
    1675,
    1676,
    1675,
    1676,
    1675,
    1679,
    1680,
    0,
    0,
    0,
    1623,
    0,
    0,
    0,
    0,
    0,
    0,
    0,
    0,
    0,
    1623,
    0,
    0,
    0,
    0,
    1677,
    0,
    0,
    0,
    0,
    0,
    0,
    0,
    0,
    0,
    0,
    0,
    1677,
    0,
    0,
    0,
    0,
    0,
    0,
    0,
    0,
    0,
    0,
    0,
    0,
    0,
    0,
    0,
    0,
    0,
    0,
    0,
    0,
    1625,
    1626,
    1621,
    1622,
    1621,
    1622,
    1567,
    1568,
    1621,
    1622,
    1625,
    1626,
    0,
    0,
    0,
    0,
    0,
    0,
    0,
    0,
    0,
    0,
    0,
    0,
    0,
    0,
    0,
    0,
    0,
    0,
    0,
    0,
    0,
    0,
    0,
    0,
    0,
    0,
    0,
    0,
    0,
    0,
    0,
    0,
    0,
    0,
    0,
    0,
    1679,
    1680,
    1675,
    1676,
    1675,
    1676,
    1621,
    1622,
    1675,
    1676,
    1679,
    1680,
    0,
    0,
    0,
    0,
    0,
    0,
    0,
    0,
    0,
    0,
    0,
    0,
    0,
    0,
    0,
    0,
    0,
    0,
    0,
    0,
    0,
    0,
    0,
    0,
    0,
    0,
    0,
    0,
    0,
    0,
    0,
    0,
    0,
    0,
    0,
    0,
    0,
    0,
    0,
    0,
    0,
    0,
    0,
    0,
    0,
    0,
    0,
    0,
    0,
    0,
    0,
    0,
    0,
    0,
    0,
    0,
    0,
    0,
    0,
    0,
    0,
    0,
    0,
    0,
    0,
    0,
    0,
    0,
    0,
    0,
    0,
    0,
    0,
    0,
    0,
    0,
    0,
    0,
    0,
    0,
    0,
    0,
    0,
    0,
    0,
    0,
    0,
    0,
    0,
    0,
    0,
    0,
    0,
    0,
    0,
    0,
    0,
    0,
    0,
    0,
    0,
    0,
    0,
    0,
    0,
    0,
    0,
    0,
    0,
    0,
    0,
    0,
    0,
    0,
    0,
    0,
    0,
    0,
    0,
    0,
    0,
    0,
    0,
    0,
    0,
    0,
    0,
    0,
    0,
    0,
    0,
    0,
    0,
    0,
    0,
    0,
    0,
    0,
    0,
    0,
    0,
    0,
    0,
    0,
    0,
    0,
    0,
    0,
    0,
    0,
    0,
    0,
    0,
    0,
    0,
    0,
    0,
    0,
    0,
    0,
    0,
    0,
    0,
    0,
    0,
    0,
    0,
    0,
    0,
    0,
    0,
    0,
    0,
    0,
    0,
    0,
    0,
    0,
    0,
    1625,
    1626,
    0,
    0,
    0,
    0,
    0,
    0,
    0,
    0,
    0,
    1625,
    1626,
    0,
    0,
    0,
    0,
    0,
    0,
    0,
    0,
    0,
    0,
    0,
    0,
    0,
    0,
    0,
    0,
    0,
    0,
    0,
    0,
    0,
    0,
    0,
    0,
    0,
    0,
    0,
    0,
    0,
    0,
    0,
    0,
    0,
    0,
    0,
    1679,
    1680,
    0,
    0,
    0,
    0,
    0,
    0,
    0,
    0,
    0,
    1679,
    1680,
    0,
    0,
    0,
    0,
    1625,
    1626,
    1621,
    1622,
    1621,
    1622,
    1567,
    1568,
    1621,
    1622,
    1621,
    1622,
    1626,
    0,
    0,
    0,
    0,
    0,
    0,
    0,
    0,
    0,
    0,
    0,
    0,
    0,
    0,
    0,
    0,
    0,
    0,
    1623,
    0,
    0,
    0,
    0,
    0,
    0,
    0,
    0,
    0,
    0,
    1623,
    0,
    0,
    0,
    0,
    0,
    1679,
    1680,
    1675,
    1676,
    1675,
    1676,
    1621,
    1622,
    1675,
    1676,
    1675,
    1676,
    1680,
    0,
    0,
    0,
    0,
    0,
    0,
    0,
    0,
    0,
    0,
    0,
    0,
    0,
    0,
    0,
    0,
    0,
    0,
    1677,
    0,
    0,
    0,
    0,
    0,
    0,
    0,
    0,
    0,
    0,
    1677,
    0,
    0,
    0,
    0,
    0,
    1623,
    0,
    0,
    0,
    0,
    0,
    0,
    0,
    0,
    0,
    0,
    1623,
    0,
    0,
    0,
    0,
    0,
    0,
    0,
    0,
    0,
    0,
    0,
    0,
    0,
    0,
    0,
    0,
    0,
    0,
    0,
    1623,
    0,
    0,
    0,
    0,
    0,
    0,
    0,
    0,
    0,
    0,
    1623,
    0,
    0,
    0,
    0,
    0,
    1677,
    0,
    0,
    0,
    0,
    0,
    0,
    0,
    0,
    0,
    0,
    1677,
    0,
    0,
    0,
    0,
    0,
    0,
    0,
    0,
    0,
    0,
    0,
    0,
    0,
    0,
    0,
    0,
    0,
    0,
    0,
    1677,
    0,
    0,
    0,
    0,
    0,
    0,
    0,
    0,
    0,
    0,
    1677,
    0,
    0,
    0,
    0,
    0,
    1623,
    0,
    0,
    0,
    0,
    0,
    0,
    0,
    0,
    0,
    0,
    1623,
    0,
    0,
    0,
    0,
    0,
    0,
    0,
    0,
    0,
    0,
    0,
    0,
    0,
    0,
    0,
    0,
    0,
    0,
    0,
    1623,
    0,
    0,
    0,
    0,
    0,
    0,
    0,
    0,
    0,
    0,
    1623,
    0,
    0,
    0,
    0,
    0,
    1677,
    0,
    0,
    0,
    0,
    0,
    0,
    0,
    0,
    0,
    0,
    1677,
    0,
    0,
    0,
    0,
    0,
    0,
    0,
    0,
    0,
    0,
    0,
    0,
    0,
    0,
    0,
    0,
    0,
    0,
    0,
    1677,
    0,
    0,
    0,
    0,
    0,
    0,
    0,
    0,
    0,
    0,
    1677,
    0,
    0,
    0,
    0,
    0,
    1623,
    0,
    0,
    0,
    0,
    0,
    0,
    0,
    0,
    0,
    0,
    1623,
    0,
    0,
    0,
    0,
    0,
    0,
    0,
    0,
    0,
    0,
    0,
    0,
    0,
    0,
    0,
    0,
    0,
    0,
    0,
    1623,
    0,
    0,
    0,
    0,
    0,
    0,
    0,
    0,
    0,
    0,
    1623,
    0,
    0,
    0,
    0,
    0,
    1677,
    0,
    0,
    0,
    0,
    0,
    0,
    0,
    0,
    0,
    0,
    1677,
    0,
    0,
    0,
    0,
    0,
    0,
    0,
    0,
    0,
    0,
    0,
    0,
    0,
    0,
    0,
    0,
    0,
    0,
    0,
    1677,
    0,
    0,
    0,
    0,
    0,
    0,
    0,
    0,
    0,
    0,
    1677,
    0,
    0,
    0,
    0,
    0,
    1623,
    0,
    0,
    0,
    0,
    0,
    0,
    0,
    0,
    0,
    0,
    1623,
    0,
    0,
    0,
    0,
    0,
    0,
    0,
    0,
    0,
    0,
    0,
    0,
    0,
    0,
    0,
    0,
    0,
    0,
    0,
    1625,
    1626,
    1621,
    1622,
    1621,
    1622,
    1567,
    1568,
    1621,
    1622,
    1621,
    1622,
    1626,
    0,
    0,
    0,
    0,
    1677,
    0,
    0,
    0,
    0,
    0,
    0,
    0,
    0,
    0,
    0,
    1677,
    0,
    0,
    0,
    0,
    0,
    0,
    0,
    0,
    0,
    0,
    0,
    0,
    0,
    0,
    0,
    0,
    0,
    0,
    0,
    1679,
    1680,
    1675,
    1676,
    1675,
    1676,
    1621,
    1622,
    1675,
    1676,
    1675,
    1676,
    1680,
    0,
    0,
    0,
    0,
    1623,
    0,
    0,
    0,
    0,
    0,
    0,
    0,
    0,
    0,
    0,
    1623,
    0,
    0,
    0,
    0,
    0,
    0,
    0,
    0,
    0,
    0,
    0,
    0,
    0,
    0,
    0,
    0,
    0,
    0,
    0,
    0,
    0,
    0,
    0,
    0,
    0,
    0,
    0,
    0,
    0,
    0,
    0,
    0,
    0,
    0,
    0,
    0,
    1677,
    0,
    0,
    0,
    0,
    0,
    0,
    0,
    0,
    0,
    0,
    1677,
    0,
    0,
    0,
    0,
    0,
    0,
    0,
    0,
    0,
    0,
    0,
    0,
    0,
    0,
    0,
    0,
    0,
    0,
    0,
    0,
    0,
    0,
    0,
    0,
    0,
    0,
    0,
    0,
    0,
    0,
    0,
    0,
    0,
    0,
    0,
    0,
    0,
    0,
    0,
    0,
    0,
    0,
    0,
    0,
    0,
    0,
    0,
    0,
    0,
    0,
    0,
    0,
    0,
    0,
    0,
    0,
    0,
    0,
    0,
    0,
    0,
    0,
    0,
    0,
    0,
    0,
    0,
    0,
    0,
    0,
    0,
    0,
    0,
    0,
    0,
    0,
    0,
    0,
    0,
    0,
    0,
    0,
    0,
    0,
    0,
    0,
    0,
    0,
    0,
    0,
    0,
    0,
    0,
    0,
    0,
    0,
    0,
    0,
    0,
    0,
    0,
    0,
    0,
    0,
    0,
    0,
    0,
    0,
    0,
    0,
    0,
    0,
    0,
    0,
    0,
    0,
    0,
    0,
    0,
    0,
    0,
    0,
    0,
    0,
    0,
    0,
    0,
    0,
    0,
    0,
    0,
    0,
    0,
    0,
    0,
    0,
    0,
    0,
    0,
    0,
    0,
    0,
    0,
    0,
    0,
    0,
    0
   ]
  },
  {
   "id": 5,
   "name": "trees",
   "type": "tilelayer",
   "width": 48,
   "height": 36,
   "x": 0,
   "y": 0,
   "opacity": 1,
   "visible": true,
   "data": [
    5720,
    5721,
    0,
    0,
    5724,
    5725,
    0,
    0,
    5718,
    5719,
    5722,
    5723,
    5740,
    5741,
    0,
    0,
    0,
    0,
    5724,
    5725,
    5720,
    5721,
    0,
    0,
    5718,
    5719,
    5738,
    5739,
    5738,
    5739,
    0,
    0,
    5740,
    5741,
    5722,
    5723,
    5740,
    5741,
    5720,
    5721,
    0,
    0,
    5738,
    5739,
    0,
    0,
    0,
    0,
    5730,
    5731,
    0,
    0,
    5734,
    5735,
    0,
    0,
    5728,
    5729,
    5732,
    5733,
    5750,
    5751,
    0,
    0,
    0,
    0,
    5734,
    5735,
    5730,
    5731,
    0,
    0,
    5728,
    5729,
    5748,
    5749,
    5748,
    5749,
    0,
    0,
    5750,
    5751,
    5732,
    5733,
    5750,
    5751,
    5730,
    5731,
    0,
    0,
    5748,
    5749,
    0,
    0,
    0,
    0,
    5738,
    5739,
    0,
    0,
    0,
    0,
    0,
    0,
    0,
    0,
    0,
    0,
    0,
    0,
    0,
    0,
    5736,
    5737,
    0,
    0,
    5738,
    5739,
    5738,
    5739,
    5724,
    5725,
    0,
    0,
    0,
    0,
    5718,
    5719,
    0,
    0,
    0,
    0,
    0,
    0,
    5716,
    5717,
    0,
    0,
    0,
    0,
    0,
    0,
    5738,
    5739,
    5748,
    5749,
    0,
    0,
    0,
    0,
    0,
    0,
    0,
    0,
    0,
    0,
    0,
    0,
    0,
    0,
    5746,
    5747,
    0,
    0,
    5748,
    5749,
    5748,
    5749,
    5734,
    5735,
    0,
    0,
    0,
    0,
    5728,
    5729,
    0,
    0,
    0,
    0,
    0,
    0,
    5726,
    5727,
    0,
    0,
    0,
    0,
    0,
    0,
    5748,
    5749,
    5720,
    5721,
    0,
    0,
    0,
    0,
    0,
    0,
    0,
    0,
    0,
    0,
    0,
    0,
    0,
    0,
    0,
    0,
    0,
    0,
    0,
    0,
    0,
    0,
    0,
    0,
    0,
    0,
    0,
    0,
    0,
    0,
    0,
    0,
    0,
    0,
    0,
    0,
    0,
    0,
    0,
    0,
    0,
    0,
    0,
    0,
    5716,
    5717,
    5730,
    5731,
    0,
    0,
    0,
    0,
    0,
    0,
    0,
    0,
    0,
    0,
    0,
    0,
    0,
    0,
    0,
    0,
    0,
    0,
    0,
    0,
    0,
    0,
    0,
    0,
    0,
    0,
    0,
    0,
    0,
    0,
    0,
    0,
    0,
    0,
    0,
    0,
    0,
    0,
    0,
    0,
    0,
    0,
    0,
    0,
    5726,
    5727,
    5722,
    5723,
    5716,
    5717,
    0,
    0,
    0,
    0,
    0,
    0,
    5738,
    5739,
    0,
    0,
    5738,
    5739,
    0,
    0,
    0,
    0,
    0,
    0,
    0,
    0,
    0,
    0,
    0,
    0,
    0,
    0,
    5716,
    5717,
    0,
    0,
    0,
    0,
    0,
    0,
    0,
    0,
    0,
    0,
    0,
    0,
    0,
    0,
    5722,
    5723,
    5732,
    5733,
    5726,
    5727,
    0,
    0,
    0,
    0,
    0,
    0,
    5748,
    5749,
    0,
    0,
    5748,
    5749,
    0,
    0,
    0,
    0,
    0,
    0,
    0,
    0,
    0,
    0,
    0,
    0,
    0,
    0,
    5726,
    5727,
    0,
    0,
    0,
    0,
    0,
    0,
    0,
    0,
    0,
    0,
    0,
    0,
    0,
    0,
    5732,
    5733,
    5740,
    5741,
    5718,
    5719,
    5718,
    5719,
    0,
    0,
    0,
    0,
    5724,
    5725,
    0,
    0,
    5740,
    5741,
    0,
    0,
    0,
    0,
    0,
    0,
    0,
    0,
    0,
    0,
    0,
    0,
    0,
    0,
    5718,
    5719,
    0,
    0,
    0,
    0,
    0,
    0,
    0,
    0,
    0,
    0,
    0,
    0,
    0,
    0,
    5740,
    5741,
    5750,
    5751,
    5728,
    5729,
    5728,
    5729,
    0,
    0,
    0,
    0,
    5734,
    5735,
    0,
    0,
    5750,
    5751,
    0,
    0,
    0,
    0,
    0,
    0,
    0,
    0,
    0,
    0,
    0,
    0,
    0,
    0,
    5728,
    5729,
    0,
    0,
    0,
    0,
    0,
    0,
    0,
    0,
    0,
    0,
    0,
    0,
    0,
    0,
    5750,
    5751,
    5720,
    5721,
    5720,
    5721,
    0,
    0,
    0,
    0,
    0,
    0,
    0,
    0,
    0,
    0,
    0,
    0,
    0,
    0,
    0,
    0,
    0,
    0,
    0,
    0,
    0,
    0,
    0,
    0,
    5736,
    5737,
    0,
    0,
    0,
    0,
    0,
    0,
    0,
    0,
    0,
    0,
    0,
    0,
    5718,
    5719,
    0,
    0,
    5736,
    5737,
    5730,
    5731,
    5730,
    5731,
    0,
    0,
    0,
    0,
    0,
    0,
    0,
    0,
    0,
    0,
    0,
    0,
    0,
    0,
    0,
    0,
    0,
    0,
    0,
    0,
    0,
    0,
    0,
    0,
    5746,
    5747,
    0,
    0,
    0,
    0,
    0,
    0,
    0,
    0,
    0,
    0,
    0,
    0,
    5728,
    5729,
    0,
    0,
    5746,
    5747,
    0,
    0,
    0,
    0,
    0,
    0,
    0,
    0,
    0,
    0,
    0,
    0,
    0,
    0,
    0,
    0,
    0,
    0,
    5736,
    5737,
    0,
    0,
    0,
    0,
    0,
    0,
    0,
    0,
    0,
    0,
    5724,
    5725,
    0,
    0,
    0,
    0,
    0,
    0,
    5720,
    5721,
    5724,
    5725,
    5724,
    5725,
    0,
    0,
    5720,
    5721,
    0,
    0,
    0,
    0,
    0,
    0,
    0,
    0,
    0,
    0,
    0,
    0,
    0,
    0,
    0,
    0,
    0,
    0,
    5746,
    5747,
    0,
    0,
    0,
    0,
    0,
    0,
    0,
    0,
    0,
    0,
    5734,
    5735,
    0,
    0,
    0,
    0,
    0,
    0,
    5730,
    5731,
    5734,
    5735,
    5734,
    5735,
    0,
    0,
    5730,
    5731,
    5716,
    5717,
    0,
    0,
    0,
    0,
    0,
    0,
    0,
    0,
    0,
    0,
    0,
    0,
    0,
    0,
    0,
    0,
    0,
    0,
    0,
    0,
    0,
    0,
    0,
    0,
    0,
    0,
    0,
    0,
    0,
    0,
    0,
    0,
    5740,
    5741,
    0,
    0,
    5716,
    5717,
    0,
    0,
    0,
    0,
    0,
    0,
    0,
    0,
    5726,
    5727,
    0,
    0,
    0,
    0,
    0,
    0,
    0,
    0,
    0,
    0,
    0,
    0,
    0,
    0,
    0,
    0,
    0,
    0,
    0,
    0,
    0,
    0,
    0,
    0,
    0,
    0,
    0,
    0,
    0,
    0,
    0,
    0,
    5750,
    5751,
    0,
    0,
    5726,
    5727,
    0,
    0,
    0,
    0,
    0,
    0,
    0,
    0,
    5740,
    5741,
    5716,
    5717,
    0,
    0,
    5740,
    5741,
    0,
    0,
    0,
    0,
    5738,
    5739,
    0,
    0,
    0,
    0,
    0,
    0,
    0,
    0,
    0,
    0,
    0,
    0,
    0,
    0,
    0,
    0,
    0,
    0,
    0,
    0,
    0,
    0,
    0,
    0,
    0,
    0,
    0,
    0,
    5722,
    5723,
    5720,
    5721,
    0,
    0,
    5750,
    5751,
    5726,
    5727,
    0,
    0,
    5750,
    5751,
    0,
    0,
    0,
    0,
    5748,
    5749,
    0,
    0,
    0,
    0,
    0,
    0,
    0,
    0,
    0,
    0,
    0,
    0,
    0,
    0,
    0,
    0,
    0,
    0,
    0,
    0,
    0,
    0,
    0,
    0,
    0,
    0,
    0,
    0,
    5732,
    5733,
    5730,
    5731,
    0,
    0,
    5736,
    5737,
    5736,
    5737,
    0,
    0,
    0,
    0,
    0,
    0,
    0,
    0,
    0,
    0,
    0,
    0,
    0,
    0,
    0,
    0,
    0,
    0,
    0,
    0,
    0,
    0,
    0,
    0,
    0,
    0,
    0,
    0,
    0,
    0,
    0,
    0,
    0,
    0,
    0,
    0,
    0,
    0,
    0,
    0,
    0,
    0,
    5724,
    5725,
    5746,
    5747,
    5746,
    5747,
    0,
    0,
    0,
    0,
    0,
    0,
    0,
    0,
    0,
    0,
    0,
    0,
    0,
    0,
    0,
    0,
    0,
    0,
    0,
    0,
    0,
    0,
    0,
    0,
    0,
    0,
    0,
    0,
    0,
    0,
    0,
    0,
    0,
    0,
    0,
    0,
    0,
    0,
    0,
    0,
    0,
    0,
    5734,
    5735,
    5724,
    5725,
    5718,
    5719,
    0,
    0,
    0,
    0,
    0,
    0,
    0,
    0,
    0,
    0,
    5720,
    5721,
    0,
    0,
    0,
    0,
    5740,
    5741,
    0,
    0,
    5740,
    5741,
    0,
    0,
    0,
    0,
    0,
    0,
    0,
    0,
    0,
    0,
    0,
    0,
    0,
    0,
    0,
    0,
    0,
    0,
    0,
    0,
    5716,
    5717,
    5734,
    5735,
    5728,
    5729,
    0,
    0,
    0,
    0,
    0,
    0,
    0,
    0,
    0,
    0,
    5730,
    5731,
    0,
    0,
    0,
    0,
    5750,
    5751,
    0,
    0,
    5750,
    5751,
    0,
    0,
    0,
    0,
    0,
    0,
    0,
    0,
    0,
    0,
    0,
    0,
    0,
    0,
    0,
    0,
    0,
    0,
    0,
    0,
    5726,
    5727,
    5722,
    5723,
    5736,
    5737,
    5722,
    5723,
    0,
    0,
    0,
    0,
    0,
    0,
    5740,
    5741,
    0,
    0,
    0,
    0,
    0,
    0,
    0,
    0,
    0,
    0,
    0,
    0,
    0,
    0,
    5720,
    5721,
    0,
    0,
    0,
    0,
    0,
    0,
    0,
    0,
    0,
    0,
    0,
    0,
    0,
    0,
    0,
    0,
    5722,
    5723,
    5732,
    5733,
    5746,
    5747,
    5732,
    5733,
    0,
    0,
    0,
    0,
    0,
    0,
    5750,
    5751,
    0,
    0,
    0,
    0,
    0,
    0,
    0,
    0,
    0,
    0,
    0,
    0,
    0,
    0,
    5730,
    5731,
    0,
    0,
    0,
    0,
    0,
    0,
    0,
    0,
    0,
    0,
    0,
    0,
    0,
    0,
    0,
    0,
    5732,
    5733,
    5722,
    5723,
    5738,
    5739,
    0,
    0,
    0,
    0,
    0,
    0,
    0,
    0,
    0,
    0,
    0,
    0,
    0,
    0,
    0,
    0,
    0,
    0,
    0,
    0,
    0,
    0,
    0,
    0,
    0,
    0,
    5716,
    5717,
    0,
    0,
    0,
    0,
    0,
    0,
    0,
    0,
    0,
    0,
    0,
    0,
    0,
    0,
    0,
    0,
    5732,
    5733,
    5748,
    5749,
    0,
    0,
    0,
    0,
    0,
    0,
    0,
    0,
    0,
    0,
    0,
    0,
    0,
    0,
    0,
    0,
    0,
    0,
    0,
    0,
    0,
    0,
    0,
    0,
    0,
    0,
    5726,
    5727,
    0,
    0,
    0,
    0,
    0,
    0,
    0,
    0,
    0,
    0,
    0,
    0,
    0,
    0,
    0,
    0,
    5716,
    5717,
    0,
    0,
    5736,
    5737,
    0,
    0,
    0,
    0,
    5736,
    5737,
    0,
    0,
    0,
    0,
    0,
    0,
    0,
    0,
    0,
    0,
    0,
    0,
    0,
    0,
    0,
    0,
    0,
    0,
    0,
    0,
    0,
    0,
    0,
    0,
    0,
    0,
    0,
    0,
    0,
    0,
    5716,
    5717,
    0,
    0,
    0,
    0,
    5726,
    5727,
    0,
    0,
    5746,
    5747,
    0,
    0,
    0,
    0,
    5746,
    5747,
    0,
    0,
    0,
    0,
    0,
    0,
    0,
    0,
    0,
    0,
    0,
    0,
    0,
    0,
    0,
    0,
    0,
    0,
    0,
    0,
    0,
    0,
    0,
    0,
    0,
    0,
    0,
    0,
    0,
    0,
    5726,
    5727,
    0,
    0,
    0,
    0,
    0,
    0,
    5736,
    5737,
    0,
    0,
    5716,
    5717,
    0,
    0,
    0,
    0,
    0,
    0,
    5720,
    5721,
    0,
    0,
    5724,
    5725,
    0,
    0,
    0,
    0,
    0,
    0,
    0,
    0,
    5720,
    5721,
    0,
    0,
    0,
    0,
    0,
    0,
    0,
    0,
    0,
    0,
    0,
    0,
    5724,
    5725,
    0,
    0,
    5716,
    5717,
    0,
    0,
    5746,
    5747,
    0,
    0,
    5726,
    5727,
    0,
    0,
    0,
    0,
    0,
    0,
    5730,
    5731,
    0,
    0,
    5734,
    5735,
    0,
    0,
    0,
    0,
    0,
    0,
    0,
    0,
    5730,
    5731,
    0,
    0,
    0,
    0,
    0,
    0,
    0,
    0,
    0,
    0,
    0,
    0,
    5734,
    5735,
    0,
    0,
    5726,
    5727,
    5720,
    5721,
    5740,
    5741,
    0,
    0,
    0,
    0,
    0,
    0,
    0,
    0,
    0,
    0,
    0,
    0,
    0,
    0,
    0,
    0,
    0,
    0,
    0,
    0,
    0,
    0,
    0,
    0,
    0,
    0,
    0,
    0,
    0,
    0,
    0,
    0,
    0,
    0,
    5724,
    5725,
    5736,
    5737,
    0,
    0,
    0,
    0,
    5740,
    5741,
    5730,
    5731,
    5750,
    5751,
    0,
    0,
    0,
    0,
    0,
    0,
    0,
    0,
    0,
    0,
    0,
    0,
    0,
    0,
    0,
    0,
    0,
    0,
    0,
    0,
    0,
    0,
    0,
    0,
    0,
    0,
    0,
    0,
    0,
    0,
    0,
    0,
    0,
    0,
    5734,
    5735,
    5746,
    5747,
    0,
    0,
    0,
    0,
    5750,
    5751,
    0,
    0,
    5724,
    5725,
    0,
    0,
    0,
    0,
    0,
    0,
    5740,
    5741,
    0,
    0,
    5740,
    5741,
    5718,
    5719,
    0,
    0,
    0,
    0,
    0,
    0,
    5716,
    5717,
    0,
    0,
    0,
    0,
    5722,
    5723,
    0,
    0,
    0,
    0,
    5716,
    5717,
    5738,
    5739,
    0,
    0,
    0,
    0,
    0,
    0,
    5740,
    5741,
    0,
    0,
    5734,
    5735,
    0,
    0,
    0,
    0,
    0,
    0,
    5750,
    5751,
    0,
    0,
    5750,
    5751,
    5728,
    5729,
    0,
    0,
    0,
    0,
    0,
    0,
    5726,
    5727,
    0,
    0,
    0,
    0,
    5732,
    5733,
    0,
    0,
    0,
    0,
    5726,
    5727,
    5748,
    5749,
    0,
    0,
    0,
    0,
    0,
    0,
    5750,
    5751,
    0,
    0,
    5722,
    5723,
    0,
    0,
    5718,
    5719,
    5718,
    5719,
    0,
    0,
    5716,
    5717,
    5722,
    5723,
    5720,
    5721,
    5724,
    5725,
    5738,
    5739,
    0,
    0,
    0,
    0,
    5738,
    5739,
    5722,
    5723,
    5724,
    5725,
    5722,
    5723,
    0,
    0,
    5738,
    5739,
    5738,
    5739,
    5740,
    5741,
    5716,
    5717,
    5718,
    5719,
    5724,
    5725,
    0,
    0,
    5732,
    5733,
    0,
    0,
    5728,
    5729,
    5728,
    5729,
    0,
    0,
    5726,
    5727,
    5732,
    5733,
    5730,
    5731,
    5734,
    5735,
    5748,
    5749,
    0,
    0,
    0,
    0,
    5748,
    5749,
    5732,
    5733,
    5734,
    5735,
    5732,
    5733,
    0,
    0,
    5748,
    5749,
    5748,
    5749,
    5750,
    5751,
    5726,
    5727,
    5728,
    5729,
    5734,
    5735
   ]
  },
  {
   "id": 6,
   "name": "bushes_flowers_mushrooms",
   "type": "tilelayer",
   "width": 48,
   "height": 36,
   "x": 0,
   "y": 0,
   "opacity": 1,
   "visible": true,
   "data": [
    0,
    0,
    0,
    0,
    0,
    0,
    0,
    0,
    0,
    0,
    0,
    0,
    0,
    0,
    0,
    0,
    0,
    0,
    0,
    0,
    0,
    0,
    0,
    0,
    0,
    0,
    0,
    0,
    0,
    0,
    0,
    0,
    0,
    0,
    0,
    0,
    0,
    0,
    0,
    0,
    5778,
    0,
    0,
    0,
    0,
    0,
    0,
    0,
    0,
    0,
    0,
    0,
    0,
    0,
    0,
    0,
    0,
    0,
    0,
    0,
    0,
    0,
    0,
    0,
    0,
    0,
    0,
    0,
    0,
    0,
    0,
    0,
    0,
    0,
    0,
    0,
    0,
    0,
    0,
    0,
    0,
    0,
    0,
    0,
    0,
    0,
    0,
    0,
    0,
    0,
    0,
    0,
    0,
    0,
    0,
    0,
    0,
    0,
    0,
    0,
    0,
    0,
    0,
    0,
    0,
    0,
    0,
    0,
    0,
    0,
    0,
    0,
    0,
    0,
    0,
    0,
    0,
    0,
    0,
    0,
    0,
    0,
    5797,
    0,
    0,
    0,
    0,
    0,
    5800,
    0,
    0,
    0,
    0,
    0,
    0,
    0,
    0,
    5780,
    0,
    0,
    0,
    0,
    0,
    0,
    0,
    0,
    0,
    0,
    0,
    0,
    0,
    0,
    0,
    0,
    0,
    0,
    0,
    0,
    0,
    0,
    0,
    0,
    0,
    0,
    0,
    0,
    0,
    0,
    0,
    0,
    0,
    5788,
    0,
    0,
    0,
    0,
    0,
    0,
    0,
    0,
    0,
    0,
    0,
    0,
    0,
    0,
    0,
    0,
    0,
    0,
    0,
    0,
    0,
    0,
    0,
    0,
    0,
    0,
    0,
    0,
    0,
    0,
    0,
    0,
    0,
    0,
    0,
    0,
    0,
    0,
    0,
    0,
    5793,
    0,
    0,
    0,
    0,
    0,
    0,
    0,
    0,
    0,
    0,
    0,
    0,
    0,
    0,
    0,
    0,
    0,
    0,
    0,
    0,
    0,
    0,
    0,
    0,
    0,
    0,
    0,
    0,
    0,
    0,
    0,
    0,
    0,
    0,
    0,
    0,
    0,
    0,
    0,
    0,
    0,
    0,
    0,
    0,
    0,
    0,
    0,
    0,
    0,
    0,
    0,
    0,
    0,
    0,
    0,
    0,
    0,
    0,
    0,
    0,
    0,
    0,
    0,
    0,
    0,
    0,
    0,
    0,
    0,
    0,
    0,
    0,
    0,
    0,
    0,
    0,
    0,
    0,
    0,
    0,
    0,
    0,
    0,
    0,
    0,
    0,
    0,
    0,
    0,
    0,
    0,
    0,
    0,
    0,
    0,
    0,
    0,
    0,
    0,
    0,
    0,
    0,
    0,
    0,
    0,
    0,
    0,
    0,
    0,
    0,
    0,
    0,
    0,
    0,
    0,
    0,
    0,
    0,
    0,
    0,
    0,
    0,
    0,
    0,
    0,
    0,
    0,
    0,
    0,
    0,
    0,
    0,
    0,
    0,
    0,
    0,
    0,
    0,
    0,
    0,
    0,
    0,
    0,
    0,
    0,
    0,
    0,
    0,
    0,
    0,
    0,
    0,
    0,
    0,
    0,
    0,
    0,
    0,
    0,
    0,
    0,
    0,
    0,
    0,
    0,
    0,
    0,
    0,
    0,
    0,
    0,
    0,
    0,
    0,
    0,
    0,
    0,
    0,
    0,
    0,
    0,
    0,
    0,
    0,
    0,
    0,
    0,
    0,
    0,
    0,
    0,
    0,
    0,
    0,
    0,
    0,
    0,
    0,
    0,
    0,
    0,
    0,
    0,
    0,
    0,
    0,
    0,
    0,
    0,
    0,
    0,
    0,
    0,
    0,
    0,
    0,
    0,
    0,
    0,
    0,
    0,
    0,
    0,
    0,
    0,
    0,
    0,
    0,
    0,
    0,
    0,
    0,
    5792,
    0,
    0,
    0,
    0,
    0,
    0,
    0,
    0,
    0,
    0,
    0,
    0,
    0,
    0,
    0,
    0,
    0,
    0,
    0,
    0,
    0,
    0,
    0,
    0,
    0,
    0,
    0,
    0,
    0,
    0,
    0,
    0,
    0,
    0,
    0,
    0,
    0,
    0,
    0,
    0,
    0,
    0,
    0,
    0,
    0,
    5786,
    0,
    0,
    0,
    0,
    0,
    0,
    0,
    0,
    0,
    0,
    0,
    0,
    0,
    0,
    0,
    0,
    0,
    0,
    0,
    0,
    0,
    0,
    0,
    0,
    0,
    0,
    0,
    0,
    0,
    0,
    0,
    0,
    0,
    0,
    0,
    0,
    0,
    0,
    0,
    0,
    0,
    0,
    0,
    0,
    0,
    0,
    0,
    0,
    0,
    0,
    0,
    0,
    0,
    0,
    0,
    0,
    0,
    0,
    0,
    0,
    0,
    0,
    0,
    0,
    0,
    0,
    0,
    0,
    0,
    0,
    0,
    0,
    0,
    0,
    0,
    0,
    0,
    0,
    0,
    0,
    0,
    0,
    0,
    0,
    0,
    0,
    0,
    0,
    0,
    0,
    0,
    0,
    0,
    0,
    0,
    0,
    0,
    0,
    0,
    0,
    0,
    0,
    0,
    0,
    0,
    0,
    0,
    0,
    0,
    0,
    0,
    0,
    0,
    0,
    0,
    0,
    0,
    0,
    0,
    0,
    0,
    0,
    0,
    0,
    0,
    0,
    0,
    0,
    0,
    0,
    0,
    0,
    0,
    0,
    0,
    0,
    0,
    0,
    0,
    0,
    0,
    0,
    0,
    0,
    0,
    0,
    0,
    0,
    0,
    0,
    0,
    0,
    0,
    0,
    0,
    0,
    0,
    0,
    0,
    0,
    0,
    0,
    0,
    0,
    0,
    0,
    0,
    0,
    0,
    0,
    0,
    0,
    0,
    0,
    0,
    0,
    0,
    0,
    0,
    0,
    0,
    0,
    0,
    0,
    0,
    0,
    0,
    0,
    0,
    0,
    0,
    0,
    0,
    0,
    0,
    0,
    0,
    0,
    0,
    0,
    0,
    0,
    0,
    0,
    0,
    0,
    0,
    0,
    0,
    0,
    0,
    0,
    0,
    0,
    0,
    0,
    0,
    0,
    0,
    0,
    0,
    0,
    0,
    0,
    0,
    0,
    0,
    0,
    0,
    0,
    0,
    0,
    0,
    0,
    0,
    0,
    0,
    0,
    0,
    0,
    0,
    0,
    0,
    0,
    0,
    0,
    0,
    0,
    0,
    0,
    0,
    0,
    0,
    0,
    0,
    0,
    0,
    0,
    0,
    0,
    0,
    0,
    0,
    0,
    0,
    0,
    0,
    0,
    0,
    0,
    0,
    0,
    0,
    0,
    0,
    0,
    0,
    0,
    0,
    0,
    0,
    0,
    0,
    0,
    0,
    0,
    0,
    0,
    0,
    0,
    0,
    0,
    0,
    0,
    0,
    0,
    0,
    0,
    0,
    0,
    0,
    0,
    0,
    0,
    0,
    0,
    0,
    0,
    0,
    0,
    0,
    0,
    0,
    0,
    0,
    0,
    5791,
    0,
    0,
    0,
    0,
    0,
    0,
    0,
    0,
    0,
    0,
    0,
    0,
    0,
    0,
    0,
    0,
    0,
    0,
    0,
    0,
    0,
    0,
    0,
    0,
    0,
    0,
    0,
    0,
    0,
    0,
    0,
    0,
    0,
    0,
    0,
    0,
    0,
    0,
    0,
    0,
    0,
    0,
    0,
    0,
    0,
    0,
    0,
    0,
    0,
    0,
    0,
    0,
    0,
    0,
    0,
    0,
    0,
    0,
    0,
    0,
    0,
    0,
    0,
    0,
    0,
    0,
    0,
    0,
    0,
    0,
    0,
    0,
    0,
    0,
    0,
    0,
    5784,
    0,
    0,
    0,
    0,
    0,
    0,
    0,
    0,
    0,
    0,
    0,
    0,
    0,
    0,
    0,
    0,
    0,
    0,
    0,
    0,
    0,
    0,
    0,
    0,
    0,
    0,
    0,
    0,
    0,
    0,
    0,
    0,
    0,
    0,
    0,
    0,
    0,
    0,
    0,
    0,
    0,
    0,
    0,
    0,
    0,
    0,
    0,
    0,
    0,
    0,
    0,
    0,
    0,
    0,
    0,
    0,
    0,
    0,
    0,
    0,
    0,
    0,
    0,
    0,
    0,
    0,
    5777,
    5784,
    0,
    0,
    0,
    0,
    0,
    0,
    0,
    0,
    0,
    0,
    0,
    0,
    0,
    0,
    0,
    0,
    0,
    0,
    0,
    0,
    0,
    0,
    0,
    0,
    0,
    0,
    0,
    0,
    0,
    0,
    0,
    0,
    0,
    0,
    0,
    0,
    0,
    0,
    0,
    0,
    0,
    0,
    0,
    0,
    0,
    0,
    0,
    0,
    0,
    0,
    0,
    0,
    0,
    0,
    0,
    0,
    0,
    0,
    0,
    0,
    0,
    0,
    0,
    0,
    0,
    0,
    0,
    0,
    0,
    0,
    0,
    0,
    0,
    0,
    0,
    0,
    0,
    0,
    0,
    0,
    0,
    0,
    0,
    0,
    0,
    0,
    0,
    0,
    0,
    0,
    0,
    0,
    0,
    0,
    0,
    0,
    0,
    0,
    0,
    0,
    0,
    0,
    0,
    0,
    0,
    0,
    0,
    0,
    0,
    0,
    0,
    0,
    0,
    0,
    0,
    0,
    0,
    0,
    0,
    0,
    0,
    0,
    0,
    0,
    0,
    0,
    5778,
    0,
    0,
    0,
    0,
    0,
    0,
    0,
    0,
    0,
    0,
    0,
    0,
    0,
    0,
    0,
    5781,
    0,
    0,
    0,
    0,
    0,
    0,
    0,
    0,
    0,
    0,
    0,
    0,
    0,
    0,
    0,
    0,
    0,
    0,
    0,
    0,
    0,
    0,
    0,
    0,
    0,
    0,
    0,
    0,
    0,
    0,
    0,
    0,
    0,
    0,
    0,
    0,
    0,
    0,
    0,
    0,
    0,
    0,
    0,
    0,
    0,
    0,
    0,
    0,
    0,
    0,
    0,
    0,
    0,
    0,
    0,
    0,
    0,
    0,
    0,
    0,
    0,
    0,
    0,
    0,
    0,
    0,
    0,
    0,
    0,
    0,
    0,
    0,
    0,
    0,
    0,
    0,
    0,
    0,
    0,
    0,
    0,
    0,
    0,
    0,
    0,
    0,
    0,
    0,
    0,
    0,
    0,
    0,
    0,
    0,
    0,
    0,
    0,
    5783,
    0,
    0,
    0,
    0,
    0,
    0,
    0,
    0,
    0,
    0,
    0,
    0,
    0,
    0,
    0,
    0,
    0,
    0,
    0,
    0,
    0,
    0,
    0,
    0,
    0,
    0,
    0,
    0,
    0,
    0,
    0,
    0,
    0,
    0,
    0,
    0,
    0,
    0,
    0,
    0,
    0,
    0,
    0,
    0,
    0,
    0,
    0,
    0,
    5776,
    0,
    5781,
    0,
    0,
    0,
    0,
    0,
    0,
    0,
    0,
    0,
    0,
    0,
    0,
    0,
    0,
    0,
    5792,
    0,
    0,
    0,
    0,
    0,
    0,
    0,
    0,
    0,
    0,
    0,
    0,
    0,
    0,
    0,
    0,
    0,
    0,
    0,
    0,
    0,
    0,
    0,
    0,
    0,
    0,
    0,
    0,
    0,
    0,
    0,
    0,
    0,
    0,
    0,
    0,
    0,
    0,
    0,
    0,
    0,
    0,
    0,
    0,
    0,
    0,
    0,
    0,
    0,
    0,
    0,
    0,
    0,
    0,
    0,
    0,
    0,
    0,
    0,
    0,
    0,
    0,
    0,
    0,
    0,
    0,
    0,
    0,
    0,
    0,
    0,
    0,
    0,
    0,
    0,
    0,
    0,
    0,
    0,
    0,
    0,
    0,
    0,
    0,
    0,
    0,
    0,
    0,
    0,
    0,
    0,
    0,
    0,
    0,
    5794,
    5795,
    0,
    0,
    0,
    0,
    0,
    0,
    0,
    0,
    0,
    0,
    0,
    0,
    0,
    0,
    0,
    0,
    0,
    0,
    0,
    0,
    0,
    0,
    0,
    0,
    0,
    0,
    0,
    0,
    0,
    0,
    0,
    0,
    0,
    0,
    0,
    0,
    0,
    0,
    0,
    0,
    0,
    0,
    0,
    0,
    0,
    0,
    0,
    0,
    0,
    0,
    0,
    0,
    0,
    0,
    0,
    0,
    0,
    0,
    0,
    0,
    0,
    0,
    0,
    0,
    0,
    0,
    0,
    0,
    0,
    0,
    0,
    0,
    0,
    0,
    0,
    0,
    0,
    0,
    0,
    0,
    0,
    0,
    0,
    0,
    0,
    0,
    0,
    0,
    0,
    0,
    0,
    0,
    0,
    0,
    5794,
    0,
    0,
    0,
    0,
    0,
    0,
    0,
    0,
    0,
    0,
    0,
    0,
    0,
    0,
    0,
    0,
    0,
    0,
    0,
    0,
    0,
    0,
    0,
    0,
    0,
    0,
    0,
    0,
    0,
    0,
    0,
    0,
    0,
    0,
    0,
    0,
    0,
    0,
    0,
    0,
    0,
    0,
    0,
    0,
    0,
    0,
    0,
    0,
    0,
    0,
    0,
    0,
    0,
    0,
    0,
    0,
    0,
    0,
    0,
    0,
    0,
    0,
    0,
    0,
    0,
    0,
    0,
    0,
    0,
    0,
    0,
    0,
    0,
    0,
    0,
    0,
    0,
    0,
    0,
    0,
    0,
    0,
    0,
    0,
    0,
    0,
    0,
    0,
    0,
    0,
    0,
    0,
    0,
    0,
    0,
    0,
    0,
    0,
    0,
    0,
    0,
    0,
    5791,
    0,
    0,
    0,
    0,
    0,
    0,
    0,
    0,
    0,
    0,
    0,
    0,
    0,
    0,
    0,
    0,
    0,
    0,
    0,
    0,
    0,
    0,
    0,
    0,
    0,
    0,
    0,
    0,
    0,
    0,
    0,
    0,
    0,
    0,
    0,
    5787,
    0,
    0,
    0,
    0,
    0,
    0,
    0,
    0,
    0,
    0,
    0,
    0,
    5791,
    0,
    0,
    0,
    0,
    0,
    0,
    0,
    0,
    0,
    0,
    0,
    0,
    0,
    0,
    0,
    0,
    0,
    0,
    0,
    0,
    0,
    0,
    0,
    0,
    0,
    0,
    0,
    0,
    0,
    0,
    0,
    0,
    0,
    0,
    0,
    0,
    0,
    0,
    0,
    0,
    0,
    0,
    0,
    0,
    0,
    0,
    0,
    0,
    0,
    0,
    0,
    5792,
    0,
    0,
    0,
    0,
    0,
    0,
    0,
    0,
    0,
    0,
    0,
    0,
    0,
    0,
    0,
    0,
    0,
    0,
    0,
    0,
    0,
    0,
    0,
    0,
    0,
    0,
    0,
    0,
    0,
    0,
    0,
    0,
    0,
    0,
    0,
    0,
    0,
    0,
    0,
    0,
    0,
    0,
    0,
    0,
    0,
    0,
    0,
    5794,
    0,
    0,
    0,
    0,
    0,
    0,
    0,
    0,
    0,
    0,
    0,
    0,
    0,
    0,
    0,
    0,
    0,
    0,
    0,
    0,
    0,
    0,
    0
   ]
  },
  {
   "id": 7,
   "name": "rocks",
   "type": "tilelayer",
   "width": 48,
   "height": 36,
   "x": 0,
   "y": 0,
   "opacity": 1,
   "visible": true,
   "data": [
    0,
    0,
    0,
    0,
    0,
    0,
    0,
    0,
    0,
    0,
    0,
    0,
    0,
    0,
    0,
    0,
    0,
    0,
    0,
    0,
    0,
    0,
    0,
    0,
    0,
    0,
    0,
    0,
    0,
    0,
    0,
    0,
    0,
    0,
    0,
    0,
    0,
    0,
    0,
    0,
    0,
    0,
    0,
    0,
    0,
    0,
    0,
    0,
    0,
    0,
    0,
    0,
    0,
    0,
    0,
    0,
    0,
    0,
    0,
    0,
    0,
    0,
    0,
    0,
    0,
    0,
    0,
    0,
    0,
    0,
    0,
    0,
    0,
    0,
    0,
    0,
    0,
    0,
    0,
    0,
    0,
    0,
    0,
    0,
    0,
    0,
    0,
    0,
    0,
    0,
    0,
    0,
    0,
    0,
    0,
    0,
    0,
    0,
    0,
    0,
    0,
    0,
    0,
    0,
    0,
    0,
    0,
    0,
    0,
    0,
    0,
    0,
    0,
    0,
    0,
    0,
    0,
    0,
    0,
    0,
    0,
    0,
    0,
    0,
    0,
    0,
    0,
    0,
    0,
    0,
    0,
    0,
    5812,
    0,
    0,
    0,
    0,
    0,
    0,
    0,
    0,
    0,
    0,
    0,
    0,
    0,
    0,
    0,
    0,
    0,
    0,
    0,
    0,
    0,
    0,
    0,
    0,
    0,
    0,
    0,
    0,
    0,
    0,
    0,
    0,
    0,
    0,
    0,
    0,
    0,
    0,
    0,
    0,
    0,
    0,
    0,
    0,
    0,
    0,
    0,
    0,
    0,
    0,
    0,
    0,
    0,
    0,
    0,
    0,
    0,
    0,
    0,
    0,
    0,
    0,
    0,
    0,
    0,
    0,
    0,
    0,
    0,
    0,
    0,
    0,
    0,
    0,
    0,
    0,
    0,
    0,
    0,
    0,
    0,
    0,
    0,
    0,
    0,
    0,
    0,
    0,
    0,
    0,
    0,
    0,
    0,
    0,
    0,
    0,
    0,
    0,
    0,
    0,
    0,
    0,
    0,
    0,
    0,
    0,
    0,
    0,
    0,
    0,
    0,
    0,
    0,
    0,
    0,
    0,
    0,
    0,
    0,
    0,
    0,
    0,
    0,
    0,
    0,
    0,
    0,
    0,
    0,
    0,
    0,
    0,
    0,
    0,
    0,
    0,
    0,
    0,
    0,
    0,
    0,
    0,
    0,
    0,
    0,
    0,
    0,
    0,
    0,
    0,
    0,
    0,
    0,
    0,
    0,
    0,
    0,
    0,
    0,
    0,
    0,
    0,
    0,
    0,
    0,
    0,
    0,
    0,
    0,
    0,
    0,
    0,
    0,
    0,
    0,
    0,
    0,
    0,
    0,
    0,
    0,
    0,
    0,
    0,
    0,
    0,
    0,
    0,
    0,
    0,
    0,
    0,
    0,
    0,
    0,
    0,
    0,
    0,
    0,
    0,
    0,
    0,
    0,
    0,
    0,
    0,
    0,
    0,
    0,
    0,
    0,
    0,
    0,
    0,
    0,
    0,
    0,
    0,
    0,
    0,
    0,
    0,
    0,
    0,
    0,
    0,
    0,
    0,
    0,
    0,
    0,
    0,
    0,
    0,
    0,
    0,
    0,
    0,
    0,
    0,
    0,
    0,
    0,
    0,
    0,
    0,
    0,
    0,
    0,
    0,
    0,
    0,
    0,
    0,
    0,
    0,
    0,
    0,
    0,
    0,
    0,
    0,
    0,
    0,
    0,
    0,
    0,
    0,
    0,
    0,
    0,
    0,
    0,
    0,
    0,
    0,
    0,
    0,
    0,
    0,
    0,
    0,
    0,
    0,
    0,
    0,
    0,
    0,
    0,
    0,
    0,
    0,
    0,
    0,
    0,
    0,
    0,
    0,
    0,
    0,
    0,
    0,
    0,
    0,
    0,
    0,
    0,
    0,
    0,
    0,
    0,
    0,
    0,
    0,
    0,
    0,
    0,
    0,
    0,
    0,
    0,
    0,
    0,
    0,
    0,
    0,
    0,
    0,
    0,
    0,
    0,
    0,
    0,
    0,
    0,
    0,
    0,
    0,
    0,
    0,
    0,
    0,
    0,
    0,
    0,
    0,
    0,
    0,
    0,
    0,
    0,
    0,
    0,
    0,
    0,
    0,
    0,
    0,
    0,
    0,
    0,
    0,
    0,
    0,
    0,
    0,
    0,
    0,
    0,
    0,
    0,
    0,
    0,
    0,
    0,
    0,
    0,
    0,
    0,
    0,
    0,
    0,
    0,
    0,
    0,
    0,
    0,
    0,
    0,
    0,
    0,
    0,
    0,
    0,
    0,
    0,
    0,
    0,
    0,
    0,
    0,
    0,
    0,
    0,
    0,
    0,
    0,
    0,
    0,
    0,
    0,
    0,
    0,
    0,
    0,
    0,
    0,
    0,
    0,
    0,
    0,
    0,
    0,
    0,
    0,
    0,
    0,
    0,
    0,
    0,
    0,
    0,
    0,
    0,
    0,
    0,
    0,
    0,
    0,
    0,
    0,
    0,
    0,
    0,
    0,
    0,
    0,
    0,
    0,
    0,
    5813,
    0,
    0,
    0,
    0,
    0,
    0,
    0,
    0,
    0,
    0,
    0,
    0,
    0,
    0,
    0,
    0,
    0,
    0,
    0,
    0,
    0,
    0,
    0,
    0,
    0,
    0,
    0,
    0,
    0,
    0,
    0,
    0,
    0,
    0,
    0,
    0,
    0,
    0,
    0,
    0,
    0,
    0,
    0,
    0,
    0,
    0,
    0,
    0,
    0,
    0,
    0,
    0,
    0,
    0,
    0,
    0,
    0,
    0,
    0,
    0,
    0,
    0,
    0,
    0,
    0,
    0,
    0,
    0,
    0,
    0,
    0,
    0,
    0,
    0,
    0,
    0,
    0,
    0,
    0,
    0,
    0,
    0,
    0,
    0,
    0,
    0,
    0,
    0,
    0,
    0,
    0,
    0,
    0,
    0,
    0,
    0,
    0,
    0,
    0,
    0,
    0,
    0,
    0,
    0,
    0,
    0,
    0,
    0,
    0,
    0,
    0,
    0,
    0,
    0,
    0,
    0,
    0,
    0,
    0,
    0,
    0,
    0,
    0,
    0,
    0,
    0,
    0,
    0,
    0,
    0,
    0,
    0,
    0,
    0,
    0,
    0,
    0,
    0,
    0,
    0,
    0,
    0,
    0,
    0,
    0,
    0,
    0,
    0,
    0,
    0,
    0,
    0,
    0,
    0,
    0,
    0,
    0,
    0,
    0,
    0,
    0,
    0,
    0,
    0,
    0,
    0,
    0,
    0,
    0,
    0,
    0,
    0,
    5811,
    0,
    0,
    0,
    0,
    0,
    0,
    0,
    0,
    0,
    0,
    0,
    0,
    0,
    0,
    0,
    0,
    0,
    0,
    0,
    0,
    0,
    0,
    0,
    0,
    0,
    0,
    0,
    0,
    0,
    0,
    0,
    0,
    0,
    0,
    0,
    0,
    0,
    0,
    0,
    0,
    0,
    0,
    0,
    0,
    0,
    0,
    5812,
    0,
    0,
    0,
    0,
    0,
    0,
    0,
    0,
    0,
    0,
    0,
    0,
    0,
    0,
    0,
    0,
    0,
    0,
    0,
    0,
    0,
    0,
    0,
    0,
    0,
    0,
    0,
    0,
    0,
    0,
    0,
    0,
    0,
    0,
    0,
    0,
    0,
    0,
    0,
    0,
    0,
    0,
    0,
    0,
    0,
    0,
    0,
    0,
    0,
    0,
    0,
    0,
    0,
    5813,
    0,
    0,
    0,
    0,
    0,
    0,
    0,
    0,
    0,
    0,
    0,
    0,
    0,
    0,
    0,
    0,
    0,
    0,
    0,
    0,
    0,
    0,
    0,
    0,
    0,
    0,
    0,
    0,
    0,
    0,
    0,
    0,
    0,
    0,
    0,
    0,
    0,
    0,
    0,
    0,
    0,
    0,
    0,
    0,
    0,
    0,
    5807,
    0,
    0,
    0,
    0,
    0,
    0,
    0,
    0,
    0,
    0,
    0,
    0,
    0,
    0,
    0,
    0,
    0,
    0,
    0,
    0,
    0,
    0,
    0,
    0,
    0,
    0,
    0,
    0,
    0,
    0,
    0,
    0,
    0,
    0,
    0,
    0,
    0,
    0,
    0,
    0,
    0,
    0,
    0,
    5810,
    0,
    0,
    0,
    0,
    0,
    0,
    0,
    0,
    0,
    0,
    0,
    0,
    0,
    0,
    0,
    0,
    0,
    0,
    0,
    0,
    0,
    0,
    0,
    0,
    0,
    0,
    0,
    0,
    0,
    0,
    0,
    0,
    0,
    0,
    0,
    0,
    0,
    0,
    0,
    0,
    0,
    0,
    0,
    0,
    0,
    0,
    0,
    0,
    0,
    0,
    0,
    0,
    0,
    0,
    0,
    0,
    0,
    0,
    0,
    0,
    0,
    0,
    0,
    0,
    0,
    0,
    0,
    0,
    0,
    0,
    0,
    0,
    0,
    0,
    0,
    0,
    0,
    0,
    0,
    0,
    0,
    0,
    0,
    0,
    0,
    0,
    0,
    0,
    0,
    0,
    0,
    0,
    0,
    0,
    0,
    0,
    0,
    0,
    0,
    0,
    0,
    0,
    0,
    0,
    0,
    0,
    0,
    0,
    0,
    0,
    0,
    0,
    0,
    0,
    0,
    0,
    0,
    0,
    0,
    0,
    0,
    0,
    0,
    0,
    0,
    0,
    0,
    0,
    0,
    0,
    0,
    0,
    0,
    0,
    0,
    0,
    0,
    0,
    0,
    0,
    0,
    0,
    0,
    0,
    0,
    0,
    0,
    0,
    0,
    0,
    0,
    0,
    0,
    0,
    0,
    0,
    0,
    0,
    0,
    0,
    0,
    0,
    0,
    0,
    0,
    0,
    0,
    0,
    0,
    0,
    0,
    0,
    0,
    0,
    0,
    0,
    0,
    0,
    0,
    0,
    0,
    0,
    0,
    0,
    0,
    0,
    0,
    0,
    0,
    0,
    0,
    0,
    0,
    0,
    0,
    0,
    0,
    0,
    0,
    0,
    0,
    0,
    0,
    0,
    0,
    0,
    0,
    0,
    0,
    0,
    0,
    0,
    0,
    0,
    0,
    0,
    0,
    0,
    0,
    0,
    0,
    0,
    0,
    0,
    0,
    0,
    0,
    0,
    0,
    0,
    0,
    0,
    0,
    0,
    0,
    0,
    0,
    0,
    0,
    0,
    0,
    0,
    0,
    0,
    0,
    0,
    0,
    0,
    0,
    0,
    0,
    0,
    0,
    0,
    0,
    0,
    0,
    0,
    0,
    0,
    0,
    0,
    0,
    0,
    0,
    0,
    0,
    0,
    0,
    0,
    0,
    0,
    0,
    0,
    0,
    0,
    0,
    0,
    0,
    0,
    0,
    0,
    0,
    0,
    0,
    0,
    0,
    0,
    0,
    0,
    0,
    0,
    0,
    0,
    0,
    0,
    0,
    0,
    0,
    0,
    0,
    0,
    0,
    0,
    0,
    0,
    0,
    0,
    0,
    0,
    0,
    0,
    0,
    0,
    0,
    0,
    0,
    0,
    0,
    0,
    0,
    0,
    0,
    0,
    0,
    0,
    0,
    0,
    0,
    0,
    0,
    0,
    0,
    0,
    0,
    0,
    0,
    0,
    0,
    0,
    0,
    0,
    0,
    0,
    0,
    0,
    0,
    0,
    0,
    0,
    0,
    0,
    0,
    0,
    0,
    0,
    0,
    0,
    0,
    0,
    0,
    0,
    0,
    0,
    0,
    0,
    0,
    0,
    0,
    0,
    0,
    0,
    0,
    0,
    0,
    0,
    0,
    0,
    0,
    0,
    0,
    0,
    0,
    0,
    0,
    0,
    0,
    0,
    0,
    0,
    0,
    0,
    0,
    0,
    0,
    0,
    0,
    0,
    0,
    0,
    0,
    0,
    0,
    0,
    0,
    0,
    0,
    0,
    0,
    0,
    0,
    0,
    0,
    0,
    0,
    0,
    0,
    0,
    0,
    0,
    0,
    0,
    0,
    0,
    0,
    0,
    0,
    0,
    0,
    0,
    0,
    0,
    0,
    0,
    0,
    0,
    0,
    0,
    0,
    0,
    0,
    0,
    0,
    0,
    0,
    0,
    0,
    0,
    0,
    0,
    0,
    0,
    0,
    0,
    0,
    0,
    0,
    0,
    0,
    0,
    0,
    0,
    0,
    0,
    0,
    0,
    0,
    0,
    0,
    0,
    0,
    0,
    0,
    0,
    0,
    0,
    0,
    0,
    0,
    0,
    0,
    0,
    0,
    0,
    0,
    0,
    0,
    0,
    0,
    0,
    0,
    0,
    0,
    0,
    0,
    0,
    0,
    0,
    0,
    0,
    0,
    0,
    0,
    0,
    0,
    0,
    0,
    0,
    0,
    0,
    0,
    0,
    0,
    0,
    0,
    0,
    0,
    0,
    0,
    0,
    0,
    0,
    0,
    0,
    0,
    0,
    0,
    0,
    0,
    0,
    0,
    0,
    0,
    0,
    0,
    0,
    0,
    0,
    0,
    0,
    0,
    0,
    0,
    0,
    0,
    0,
    0,
    0,
    0,
    0,
    0,
    0,
    0,
    0,
    0,
    0,
    0,
    0,
    0,
    0,
    0,
    0,
    0,
    0,
    0,
    0,
    0,
    0,
    0,
    0,
    0,
    0,
    0,
    0,
    0,
    0,
    0,
    0,
    0,
    0,
    0,
    0,
    0,
    0,
    0,
    0,
    0,
    0,
    0,
    0,
    0,
    0,
    0,
    0,
    0,
    0,
    0,
    0,
    0,
    0,
    0,
    0,
    0,
    0,
    0,
    0,
    0,
    0,
    0,
    0,
    0,
    0,
    0,
    0,
    0,
    0,
    0,
    0,
    0,
    0,
    0,
    0,
    0,
    0,
    0,
    0,
    0,
    0,
    0,
    0,
    0,
    0,
    0,
    0,
    0,
    0,
    0,
    0,
    0,
    0,
    0,
    0,
    0,
    0,
    0,
    0,
    0,
    0,
    0,
    0,
    0,
    0,
    0,
    0,
    0,
    0,
    0,
    0,
    0,
    0,
    0,
    0,
    0,
    0,
    0,
    0,
    0,
    0,
    0,
    0,
    0,
    0,
    0,
    0,
    0,
    0,
    0,
    0,
    0,
    0,
    0,
    0,
    0,
    0,
    0,
    0,
    0,
    0,
    0,
    0,
    0,
    0,
    0,
    0,
    0,
    0,
    0,
    0,
    0,
    0,
    0,
    0,
    0,
    0,
    0,
    0,
    0,
    0,
    0,
    0,
    0,
    0,
    0,
    0,
    0,
    0,
    0,
    0,
    0,
    0,
    0,
    0,
    0,
    0,
    0,
    0,
    0,
    0,
    0,
    0,
    0,
    0,
    0,
    0,
    0,
    0,
    0,
    0,
    0,
    0,
    0,
    0,
    0,
    0,
    0,
    0,
    0,
    0,
    0,
    0,
    0,
    0,
    0,
    0,
    0,
    0,
    0,
    0,
    0,
    0,
    0,
    0,
    0,
    0,
    0,
    0,
    0,
    0,
    0,
    0,
    0,
    0,
    0,
    0,
    0,
    0,
    0,
    0,
    0
   ]
  },
  {
   "id": 8,
   "name": "insects_butterflies",
   "type": "tilelayer",
   "width": 48,
   "height": 36,
   "x": 0,
   "y": 0,
   "opacity": 1,
   "visible": true,
   "data": [
    0,
    0,
    0,
    0,
    0,
    0,
    0,
    0,
    0,
    0,
    0,
    0,
    0,
    0,
    0,
    0,
    0,
    0,
    0,
    0,
    0,
    0,
    0,
    0,
    0,
    0,
    0,
    0,
    0,
    0,
    0,
    0,
    0,
    0,
    0,
    0,
    0,
    0,
    0,
    0,
    0,
    0,
    0,
    0,
    0,
    0,
    0,
    0,
    0,
    0,
    0,
    0,
    0,
    0,
    0,
    0,
    0,
    0,
    0,
    0,
    0,
    0,
    0,
    0,
    0,
    0,
    0,
    0,
    0,
    0,
    0,
    0,
    0,
    0,
    0,
    0,
    0,
    0,
    0,
    0,
    0,
    0,
    0,
    0,
    0,
    0,
    0,
    0,
    0,
    0,
    0,
    0,
    0,
    0,
    0,
    0,
    0,
    0,
    0,
    0,
    0,
    0,
    0,
    0,
    0,
    0,
    0,
    0,
    0,
    0,
    0,
    0,
    0,
    0,
    0,
    0,
    0,
    0,
    0,
    0,
    0,
    0,
    0,
    0,
    0,
    0,
    0,
    0,
    0,
    0,
    0,
    0,
    0,
    0,
    0,
    0,
    0,
    0,
    0,
    0,
    0,
    0,
    0,
    0,
    0,
    0,
    0,
    0,
    0,
    0,
    0,
    0,
    0,
    0,
    0,
    0,
    0,
    0,
    0,
    0,
    0,
    0,
    0,
    0,
    0,
    0,
    0,
    0,
    0,
    0,
    0,
    0,
    0,
    0,
    0,
    0,
    0,
    0,
    0,
    0,
    0,
    0,
    0,
    0,
    0,
    0,
    0,
    0,
    0,
    0,
    0,
    0,
    0,
    0,
    0,
    0,
    0,
    0,
    0,
    0,
    0,
    0,
    0,
    0,
    0,
    0,
    0,
    0,
    0,
    0,
    0,
    0,
    0,
    0,
    0,
    0,
    0,
    0,
    0,
    0,
    0,
    0,
    0,
    0,
    0,
    0,
    0,
    0,
    0,
    0,
    0,
    0,
    0,
    0,
    0,
    0,
    0,
    0,
    0,
    0,
    0,
    0,
    0,
    0,
    0,
    0,
    0,
    0,
    0,
    0,
    0,
    0,
    0,
    0,
    0,
    0,
    0,
    0,
    0,
    0,
    0,
    0,
    0,
    0,
    0,
    0,
    0,
    0,
    0,
    0,
    0,
    0,
    0,
    0,
    0,
    0,
    0,
    0,
    0,
    0,
    0,
    0,
    0,
    0,
    0,
    0,
    0,
    0,
    0,
    0,
    0,
    0,
    0,
    0,
    0,
    0,
    0,
    0,
    0,
    0,
    0,
    0,
    0,
    0,
    0,
    0,
    0,
    0,
    0,
    0,
    0,
    0,
    0,
    0,
    0,
    0,
    0,
    0,
    0,
    0,
    0,
    0,
    0,
    0,
    0,
    0,
    0,
    0,
    0,
    0,
    0,
    0,
    0,
    0,
    0,
    0,
    0,
    0,
    0,
    0,
    0,
    0,
    0,
    0,
    0,
    0,
    0,
    0,
    0,
    0,
    0,
    0,
    0,
    0,
    0,
    0,
    0,
    0,
    0,
    0,
    0,
    0,
    0,
    0,
    0,
    0,
    0,
    0,
    0,
    0,
    0,
    0,
    0,
    0,
    0,
    0,
    0,
    0,
    0,
    0,
    0,
    0,
    0,
    0,
    0,
    0,
    0,
    0,
    0,
    0,
    0,
    0,
    0,
    0,
    0,
    0,
    0,
    0,
    0,
    0,
    0,
    0,
    0,
    5843,
    0,
    0,
    0,
    0,
    0,
    0,
    0,
    0,
    0,
    0,
    0,
    0,
    0,
    0,
    0,
    0,
    0,
    0,
    0,
    0,
    0,
    0,
    0,
    0,
    0,
    0,
    0,
    0,
    0,
    0,
    0,
    0,
    0,
    0,
    0,
    0,
    0,
    0,
    0,
    0,
    0,
    0,
    0,
    0,
    0,
    0,
    0,
    0,
    0,
    0,
    0,
    0,
    0,
    0,
    0,
    0,
    0,
    0,
    0,
    0,
    0,
    0,
    0,
    0,
    0,
    0,
    0,
    0,
    0,
    0,
    0,
    0,
    0,
    0,
    0,
    0,
    0,
    0,
    0,
    0,
    0,
    0,
    0,
    0,
    0,
    0,
    0,
    0,
    0,
    0,
    0,
    0,
    0,
    0,
    0,
    0,
    0,
    0,
    0,
    0,
    0,
    0,
    0,
    0,
    0,
    0,
    0,
    0,
    0,
    0,
    0,
    0,
    0,
    0,
    0,
    0,
    0,
    0,
    0,
    0,
    0,
    0,
    0,
    0,
    0,
    0,
    0,
    0,
    0,
    0,
    0,
    0,
    0,
    0,
    0,
    0,
    0,
    0,
    0,
    0,
    0,
    0,
    0,
    0,
    0,
    0,
    0,
    0,
    0,
    0,
    0,
    0,
    0,
    0,
    0,
    0,
    0,
    0,
    0,
    0,
    0,
    0,
    0,
    0,
    0,
    0,
    0,
    0,
    0,
    0,
    0,
    0,
    0,
    0,
    0,
    0,
    0,
    5827,
    0,
    0,
    0,
    0,
    0,
    0,
    0,
    0,
    5827,
    0,
    0,
    0,
    0,
    0,
    0,
    0,
    0,
    0,
    0,
    0,
    0,
    0,
    0,
    0,
    0,
    0,
    0,
    0,
    0,
    0,
    0,
    0,
    0,
    0,
    0,
    0,
    0,
    0,
    0,
    0,
    0,
    0,
    0,
    0,
    0,
    0,
    0,
    0,
    0,
    0,
    0,
    0,
    0,
    0,
    0,
    0,
    0,
    0,
    0,
    0,
    0,
    0,
    0,
    0,
    0,
    0,
    0,
    0,
    0,
    0,
    0,
    0,
    0,
    0,
    0,
    0,
    0,
    0,
    0,
    0,
    0,
    0,
    0,
    0,
    0,
    0,
    0,
    0,
    0,
    0,
    0,
    0,
    0,
    0,
    0,
    0,
    0,
    0,
    0,
    0,
    0,
    0,
    0,
    0,
    0,
    0,
    0,
    0,
    0,
    0,
    0,
    0,
    0,
    0,
    0,
    0,
    0,
    0,
    0,
    0,
    0,
    0,
    0,
    0,
    0,
    0,
    0,
    0,
    0,
    0,
    0,
    0,
    0,
    0,
    0,
    0,
    0,
    0,
    0,
    0,
    0,
    0,
    0,
    0,
    0,
    0,
    0,
    0,
    0,
    0,
    0,
    0,
    0,
    0,
    0,
    0,
    0,
    0,
    0,
    0,
    0,
    0,
    0,
    0,
    0,
    0,
    0,
    0,
    0,
    0,
    0,
    0,
    0,
    0,
    0,
    0,
    0,
    0,
    0,
    0,
    0,
    0,
    0,
    0,
    0,
    0,
    0,
    0,
    0,
    0,
    0,
    0,
    0,
    0,
    0,
    0,
    0,
    0,
    0,
    0,
    0,
    0,
    0,
    0,
    0,
    0,
    0,
    0,
    0,
    0,
    0,
    0,
    0,
    0,
    0,
    0,
    0,
    0,
    0,
    0,
    0,
    0,
    0,
    0,
    0,
    0,
    0,
    0,
    0,
    0,
    0,
    0,
    0,
    0,
    0,
    0,
    0,
    0,
    0,
    0,
    0,
    0,
    0,
    0,
    0,
    0,
    0,
    0,
    0,
    0,
    0,
    0,
    0,
    0,
    0,
    0,
    0,
    0,
    0,
    0,
    0,
    0,
    0,
    0,
    0,
    0,
    0,
    0,
    0,
    0,
    0,
    0,
    0,
    0,
    0,
    0,
    0,
    0,
    0,
    0,
    0,
    0,
    0,
    0,
    0,
    0,
    0,
    0,
    0,
    0,
    0,
    0,
    0,
    0,
    0,
    0,
    0,
    0,
    0,
    0,
    0,
    0,
    0,
    0,
    0,
    0,
    0,
    0,
    0,
    0,
    0,
    0,
    0,
    0,
    0,
    0,
    0,
    0,
    0,
    0,
    0,
    0,
    0,
    0,
    0,
    5842,
    0,
    0,
    0,
    0,
    0,
    0,
    0,
    0,
    0,
    0,
    0,
    0,
    0,
    0,
    0,
    0,
    0,
    0,
    0,
    0,
    0,
    0,
    0,
    0,
    0,
    5837,
    0,
    0,
    0,
    0,
    0,
    0,
    0,
    0,
    0,
    0,
    0,
    0,
    0,
    0,
    0,
    0,
    0,
    0,
    0,
    0,
    0,
    0,
    0,
    0,
    0,
    0,
    0,
    0,
    0,
    0,
    0,
    0,
    0,
    0,
    0,
    0,
    0,
    5840,
    0,
    0,
    0,
    0,
    0,
    0,
    0,
    0,
    0,
    0,
    0,
    0,
    0,
    0,
    0,
    0,
    0,
    0,
    0,
    0,
    0,
    0,
    0,
    0,
    0,
    0,
    0,
    0,
    0,
    0,
    0,
    0,
    0,
    0,
    0,
    0,
    0,
    0,
    0,
    0,
    0,
    0,
    0,
    0,
    0,
    0,
    0,
    0,
    0,
    0,
    0,
    0,
    0,
    0,
    0,
    0,
    0,
    0,
    0,
    0,
    0,
    0,
    0,
    0,
    0,
    0,
    0,
    0,
    0,
    0,
    0,
    0,
    0,
    0,
    0,
    0,
    0,
    0,
    0,
    0,
    0,
    0,
    0,
    0,
    0,
    0,
    0,
    0,
    0,
    0,
    0,
    0,
    0,
    0,
    0,
    0,
    0,
    0,
    0,
    0,
    0,
    0,
    0,
    0,
    0,
    0,
    0,
    0,
    0,
    0,
    0,
    0,
    0,
    0,
    0,
    0,
    0,
    0,
    0,
    0,
    0,
    0,
    0,
    0,
    0,
    0,
    0,
    0,
    0,
    0,
    0,
    0,
    0,
    0,
    0,
    0,
    0,
    0,
    0,
    0,
    0,
    0,
    0,
    0,
    0,
    0,
    0,
    0,
    0,
    0,
    0,
    0,
    0,
    0,
    0,
    0,
    0,
    0,
    0,
    0,
    0,
    0,
    0,
    0,
    0,
    0,
    0,
    0,
    0,
    0,
    0,
    0,
    0,
    0,
    0,
    0,
    0,
    0,
    0,
    0,
    0,
    0,
    0,
    0,
    0,
    0,
    0,
    0,
    0,
    0,
    0,
    0,
    0,
    0,
    0,
    0,
    0,
    0,
    0,
    0,
    0,
    0,
    0,
    0,
    0,
    0,
    0,
    0,
    0,
    0,
    0,
    0,
    0,
    0,
    0,
    0,
    0,
    0,
    0,
    0,
    0,
    0,
    0,
    0,
    0,
    0,
    0,
    0,
    0,
    0,
    0,
    0,
    0,
    0,
    0,
    0,
    0,
    0,
    0,
    0,
    0,
    0,
    0,
    0,
    0,
    0,
    0,
    0,
    0,
    0,
    0,
    0,
    0,
    0,
    0,
    0,
    0,
    0,
    0,
    0,
    0,
    0,
    0,
    0,
    0,
    0,
    0,
    0,
    0,
    0,
    0,
    0,
    0,
    0,
    0,
    0,
    0,
    0,
    0,
    0,
    0,
    0,
    0,
    0,
    0,
    0,
    0,
    0,
    0,
    0,
    0,
    0,
    0,
    0,
    0,
    0,
    0,
    0,
    0,
    0,
    0,
    0,
    0,
    0,
    0,
    0,
    0,
    0,
    0,
    0,
    0,
    0,
    0,
    0,
    0,
    0,
    0,
    0,
    0,
    0,
    0,
    0,
    0,
    0,
    0,
    0,
    0,
    0,
    0,
    0,
    0,
    0,
    0,
    0,
    0,
    0,
    0,
    0,
    0,
    0,
    0,
    0,
    0,
    0,
    0,
    0,
    0,
    0,
    0,
    0,
    0,
    0,
    0,
    0,
    0,
    0,
    0,
    0,
    0,
    0,
    0,
    0,
    0,
    0,
    0,
    0,
    0,
    0,
    0,
    0,
    0,
    0,
    0,
    0,
    0,
    0,
    0,
    0,
    0,
    0,
    0,
    0,
    0,
    0,
    0,
    0,
    0,
    0,
    0,
    0,
    0,
    0,
    0,
    0,
    0,
    0,
    0,
    0,
    0,
    0,
    0,
    0,
    0,
    0,
    0,
    0,
    0,
    0,
    0,
    0,
    0,
    0,
    0,
    0,
    0,
    0,
    0,
    0,
    0,
    0,
    0,
    0,
    0,
    0,
    0,
    0,
    0,
    0,
    0,
    0,
    0,
    0,
    0,
    0,
    0,
    0,
    0,
    0,
    0,
    0,
    0,
    0,
    0,
    0,
    0,
    0,
    0,
    0,
    0,
    0,
    0,
    0,
    0,
    0,
    0,
    0,
    0,
    0,
    0,
    0,
    0,
    0,
    0,
    0,
    0,
    0,
    0,
    0,
    0,
    0,
    0,
    0,
    0,
    0,
    0,
    0,
    0,
    0,
    0,
    0,
    0,
    0,
    0,
    0,
    0,
    0,
    0,
    0,
    0,
    0,
    0,
    0,
    0,
    0,
    0,
    0,
    0,
    0,
    0,
    0,
    0,
    0,
    0,
    0,
    0,
    0,
    0,
    0,
    0,
    0,
    0,
    0,
    0,
    0,
    0,
    0,
    0,
    0,
    0,
    0,
    0,
    0,
    0,
    0,
    0,
    0,
    0,
    0,
    0,
    0,
    0,
    0,
    0,
    0,
    0,
    0,
    0,
    0,
    0,
    0,
    0,
    0,
    0,
    0,
    0,
    0,
    0,
    0,
    0,
    0,
    0,
    0,
    0,
    0,
    0,
    0,
    0,
    0,
    0,
    0,
    0,
    0,
    0,
    0,
    0,
    0,
    0,
    0,
    0,
    0,
    0,
    0,
    0,
    0,
    0,
    0,
    0,
    5828,
    0,
    0,
    0,
    0,
    5843,
    0,
    0,
    0,
    0,
    0,
    0,
    0,
    0,
    0,
    0,
    0,
    0,
    0,
    0,
    0,
    0,
    0,
    0,
    0,
    0,
    0,
    0,
    0,
    0,
    0,
    0,
    0,
    0,
    0,
    0,
    0,
    0,
    0,
    0,
    0,
    0,
    0,
    0,
    0,
    0,
    0,
    0,
    0,
    0,
    0,
    0,
    0,
    0,
    0,
    0,
    0,
    0,
    0,
    0,
    0,
    0,
    0,
    0,
    0,
    0,
    0,
    0,
    0,
    0,
    0,
    0,
    0,
    0,
    0,
    0,
    0,
    0,
    0,
    0,
    0,
    0,
    0,
    0,
    0,
    0,
    0,
    0,
    0,
    0,
    0,
    0,
    0,
    0,
    0,
    0,
    0,
    0,
    0,
    0,
    0,
    0,
    0,
    0,
    0,
    0,
    0,
    0,
    0,
    0,
    0,
    0,
    0,
    0,
    0,
    0,
    0,
    0,
    0,
    0,
    0,
    0,
    0,
    0,
    0,
    0,
    0,
    0,
    0,
    0,
    0,
    0,
    0,
    0,
    0,
    0,
    0,
    0,
    0,
    0,
    0,
    0,
    0,
    0,
    0,
    0,
    0,
    0,
    0,
    0,
    0,
    0,
    0,
    0,
    0,
    0,
    0,
    0,
    0,
    0,
    0,
    0,
    0,
    0,
    0,
    0,
    0,
    0,
    0,
    0,
    0,
    0,
    0,
    0,
    0,
    0,
    0,
    0,
    0
   ]
  },
  {
   "id": 100,
   "name": "structures",
   "type": "objectgroup",
   "opacity": 1,
   "visible": true,
   "x": 0,
   "y": 0,
   "objects": [
    {
     "id": 200,
     "name": "기본형 (Base)",
     "type": "house",
     "gid": 5854,
     "x": 96,
     "y": 168,
     "width": 58,
     "height": 72,
     "visible": true,
     "rotation": 0
    },
    {
     "id": 201,
     "name": "어두운목재+해문양",
     "type": "house",
     "gid": 5855,
     "x": 320,
     "y": 195,
     "width": 74,
     "height": 83,
     "visible": true,
     "rotation": 0
    },
    {
     "id": 202,
     "name": "초록지붕(플레인)",
     "type": "house",
     "gid": 5856,
     "x": 560,
     "y": 179,
     "width": 101,
     "height": 83,
     "visible": true,
     "rotation": 0
    },
    {
     "id": 203,
     "name": "벽돌/빅토리안",
     "type": "house",
     "gid": 5857,
     "x": 304,
     "y": 441,
     "width": 82,
     "height": 73,
     "visible": true,
     "rotation": 0
    },
    {
     "id": 204,
     "name": "오두막+말굽문장",
     "type": "house",
     "gid": 5858,
     "x": 576,
     "y": 473,
     "width": 88,
     "height": 89,
     "visible": true,
     "rotation": 0
    }
   ]
  },
  {
   "id": 101,
   "name": "props",
   "type": "objectgroup",
   "opacity": 1,
   "visible": true,
   "x": 0,
   "y": 0,
   "objects": [
    {
     "id": 300,
     "name": "bench",
     "type": "prop",
     "gid": 5859,
     "x": 336,
     "y": 324,
     "width": 32,
     "height": 20,
     "visible": true,
     "rotation": 0
    },
    {
     "id": 301,
     "name": "bench",
     "type": "prop",
     "gid": 5859,
     "x": 336,
     "y": 484,
     "width": 32,
     "height": 20,
     "visible": true,
     "rotation": 0
    }
   ]
  },
  {
   "id": 102,
   "name": "collision",
   "type": "objectgroup",
   "opacity": 1,
   "visible": true,
   "x": 0,
   "y": 0,
   "objects": [
    {
     "id": 400,
     "name": "house_cream",
     "type": "collider",
     "x": 96,
     "y": 96,
     "width": 58,
     "height": 72,
     "visible": true,
     "rotation": 0
    },
    {
     "id": 401,
     "name": "house_dark",
     "type": "collider",
     "x": 320,
     "y": 112,
     "width": 74,
     "height": 83,
     "visible": true,
     "rotation": 0
    },
    {
     "id": 402,
     "name": "house_green",
     "type": "collider",
     "x": 560,
     "y": 96,
     "width": 101,
     "height": 83,
     "visible": true,
     "rotation": 0
    },
    {
     "id": 403,
     "name": "house_victorian",
     "type": "collider",
     "x": 304,
     "y": 368,
     "width": 82,
     "height": 73,
     "visible": true,
     "rotation": 0
    },
    {
     "id": 404,
     "name": "house_cabin",
     "type": "collider",
     "x": 576,
     "y": 384,
     "width": 88,
     "height": 89,
     "visible": true,
     "rotation": 0
    },
    {
     "id": 405,
     "name": "pond",
     "type": "collider",
     "x": 560,
     "y": 256,
     "width": 96,
     "height": 48,
     "visible": true,
     "rotation": 0
    },
    {
     "id": 406,
     "name": "fence",
     "type": "collider",
     "x": 48,
     "y": 48,
     "width": 16,
     "height": 16,
     "visible": true,
     "rotation": 0
    },
    {
     "id": 407,
     "name": "fence",
     "type": "collider",
     "x": 64,
     "y": 48,
     "width": 16,
     "height": 16,
     "visible": true,
     "rotation": 0
    },
    {
     "id": 408,
     "name": "fence",
     "type": "collider",
     "x": 80,
     "y": 48,
     "width": 16,
     "height": 16,
     "visible": true,
     "rotation": 0
    },
    {
     "id": 409,
     "name": "fence",
     "type": "collider",
     "x": 96,
     "y": 48,
     "width": 16,
     "height": 16,
     "visible": true,
     "rotation": 0
    },
    {
     "id": 410,
     "name": "fence",
     "type": "collider",
     "x": 112,
     "y": 48,
     "width": 16,
     "height": 16,
     "visible": true,
     "rotation": 0
    },
    {
     "id": 411,
     "name": "fence",
     "type": "collider",
     "x": 128,
     "y": 48,
     "width": 16,
     "height": 16,
     "visible": true,
     "rotation": 0
    },
    {
     "id": 412,
     "name": "fence",
     "type": "collider",
     "x": 144,
     "y": 48,
     "width": 16,
     "height": 16,
     "visible": true,
     "rotation": 0
    },
    {
     "id": 413,
     "name": "fence",
     "type": "collider",
     "x": 160,
     "y": 48,
     "width": 16,
     "height": 16,
     "visible": true,
     "rotation": 0
    },
    {
     "id": 414,
     "name": "fence",
     "type": "collider",
     "x": 176,
     "y": 48,
     "width": 16,
     "height": 16,
     "visible": true,
     "rotation": 0
    },
    {
     "id": 415,
     "name": "fence",
     "type": "collider",
     "x": 192,
     "y": 48,
     "width": 16,
     "height": 16,
     "visible": true,
     "rotation": 0
    },
    {
     "id": 416,
     "name": "fence",
     "type": "collider",
     "x": 208,
     "y": 48,
     "width": 16,
     "height": 16,
     "visible": true,
     "rotation": 0
    },
    {
     "id": 417,
     "name": "fence",
     "type": "collider",
     "x": 512,
     "y": 48,
     "width": 16,
     "height": 16,
     "visible": true,
     "rotation": 0
    },
    {
     "id": 418,
     "name": "fence",
     "type": "collider",
     "x": 528,
     "y": 48,
     "width": 16,
     "height": 16,
     "visible": true,
     "rotation": 0
    },
    {
     "id": 419,
     "name": "fence",
     "type": "collider",
     "x": 544,
     "y": 48,
     "width": 16,
     "height": 16,
     "visible": true,
     "rotation": 0
    },
    {
     "id": 420,
     "name": "fence",
     "type": "collider",
     "x": 560,
     "y": 48,
     "width": 16,
     "height": 16,
     "visible": true,
     "rotation": 0
    },
    {
     "id": 421,
     "name": "fence",
     "type": "collider",
     "x": 576,
     "y": 48,
     "width": 16,
     "height": 16,
     "visible": true,
     "rotation": 0
    },
    {
     "id": 422,
     "name": "fence",
     "type": "collider",
     "x": 592,
     "y": 48,
     "width": 16,
     "height": 16,
     "visible": true,
     "rotation": 0
    },
    {
     "id": 423,
     "name": "fence",
     "type": "collider",
     "x": 608,
     "y": 48,
     "width": 16,
     "height": 16,
     "visible": true,
     "rotation": 0
    },
    {
     "id": 424,
     "name": "fence",
     "type": "collider",
     "x": 624,
     "y": 48,
     "width": 16,
     "height": 16,
     "visible": true,
     "rotation": 0
    },
    {
     "id": 425,
     "name": "fence",
     "type": "collider",
     "x": 640,
     "y": 48,
     "width": 16,
     "height": 16,
     "visible": true,
     "rotation": 0
    },
    {
     "id": 426,
     "name": "fence",
     "type": "collider",
     "x": 656,
     "y": 48,
     "width": 16,
     "height": 16,
     "visible": true,
     "rotation": 0
    },
    {
     "id": 427,
     "name": "fence",
     "type": "collider",
     "x": 672,
     "y": 48,
     "width": 16,
     "height": 16,
     "visible": true,
     "rotation": 0
    },
    {
     "id": 428,
     "name": "fence",
     "type": "collider",
     "x": 688,
     "y": 48,
     "width": 16,
     "height": 16,
     "visible": true,
     "rotation": 0
    },
    {
     "id": 429,
     "name": "fence",
     "type": "collider",
     "x": 704,
     "y": 48,
     "width": 16,
     "height": 16,
     "visible": true,
     "rotation": 0
    },
    {
     "id": 430,
     "name": "fence",
     "type": "collider",
     "x": 720,
     "y": 48,
     "width": 16,
     "height": 16,
     "visible": true,
     "rotation": 0
    },
    {
     "id": 431,
     "name": "fence",
     "type": "collider",
     "x": 48,
     "y": 64,
     "width": 16,
     "height": 16,
     "visible": true,
     "rotation": 0
    },
    {
     "id": 432,
     "name": "fence",
     "type": "collider",
     "x": 64,
     "y": 64,
     "width": 16,
     "height": 16,
     "visible": true,
     "rotation": 0
    },
    {
     "id": 433,
     "name": "fence",
     "type": "collider",
     "x": 80,
     "y": 64,
     "width": 16,
     "height": 16,
     "visible": true,
     "rotation": 0
    },
    {
     "id": 434,
     "name": "fence",
     "type": "collider",
     "x": 96,
     "y": 64,
     "width": 16,
     "height": 16,
     "visible": true,
     "rotation": 0
    },
    {
     "id": 435,
     "name": "fence",
     "type": "collider",
     "x": 112,
     "y": 64,
     "width": 16,
     "height": 16,
     "visible": true,
     "rotation": 0
    },
    {
     "id": 436,
     "name": "fence",
     "type": "collider",
     "x": 128,
     "y": 64,
     "width": 16,
     "height": 16,
     "visible": true,
     "rotation": 0
    },
    {
     "id": 437,
     "name": "fence",
     "type": "collider",
     "x": 144,
     "y": 64,
     "width": 16,
     "height": 16,
     "visible": true,
     "rotation": 0
    },
    {
     "id": 438,
     "name": "fence",
     "type": "collider",
     "x": 160,
     "y": 64,
     "width": 16,
     "height": 16,
     "visible": true,
     "rotation": 0
    },
    {
     "id": 439,
     "name": "fence",
     "type": "collider",
     "x": 176,
     "y": 64,
     "width": 16,
     "height": 16,
     "visible": true,
     "rotation": 0
    },
    {
     "id": 440,
     "name": "fence",
     "type": "collider",
     "x": 192,
     "y": 64,
     "width": 16,
     "height": 16,
     "visible": true,
     "rotation": 0
    },
    {
     "id": 441,
     "name": "fence",
     "type": "collider",
     "x": 208,
     "y": 64,
     "width": 16,
     "height": 16,
     "visible": true,
     "rotation": 0
    },
    {
     "id": 442,
     "name": "fence",
     "type": "collider",
     "x": 272,
     "y": 64,
     "width": 16,
     "height": 16,
     "visible": true,
     "rotation": 0
    },
    {
     "id": 443,
     "name": "fence",
     "type": "collider",
     "x": 288,
     "y": 64,
     "width": 16,
     "height": 16,
     "visible": true,
     "rotation": 0
    },
    {
     "id": 444,
     "name": "fence",
     "type": "collider",
     "x": 432,
     "y": 64,
     "width": 16,
     "height": 16,
     "visible": true,
     "rotation": 0
    },
    {
     "id": 445,
     "name": "fence",
     "type": "collider",
     "x": 448,
     "y": 64,
     "width": 16,
     "height": 16,
     "visible": true,
     "rotation": 0
    },
    {
     "id": 446,
     "name": "fence",
     "type": "collider",
     "x": 512,
     "y": 64,
     "width": 16,
     "height": 16,
     "visible": true,
     "rotation": 0
    },
    {
     "id": 447,
     "name": "fence",
     "type": "collider",
     "x": 528,
     "y": 64,
     "width": 16,
     "height": 16,
     "visible": true,
     "rotation": 0
    },
    {
     "id": 448,
     "name": "fence",
     "type": "collider",
     "x": 544,
     "y": 64,
     "width": 16,
     "height": 16,
     "visible": true,
     "rotation": 0
    },
    {
     "id": 449,
     "name": "fence",
     "type": "collider",
     "x": 560,
     "y": 64,
     "width": 16,
     "height": 16,
     "visible": true,
     "rotation": 0
    },
    {
     "id": 450,
     "name": "fence",
     "type": "collider",
     "x": 576,
     "y": 64,
     "width": 16,
     "height": 16,
     "visible": true,
     "rotation": 0
    },
    {
     "id": 451,
     "name": "fence",
     "type": "collider",
     "x": 592,
     "y": 64,
     "width": 16,
     "height": 16,
     "visible": true,
     "rotation": 0
    },
    {
     "id": 452,
     "name": "fence",
     "type": "collider",
     "x": 608,
     "y": 64,
     "width": 16,
     "height": 16,
     "visible": true,
     "rotation": 0
    },
    {
     "id": 453,
     "name": "fence",
     "type": "collider",
     "x": 624,
     "y": 64,
     "width": 16,
     "height": 16,
     "visible": true,
     "rotation": 0
    },
    {
     "id": 454,
     "name": "fence",
     "type": "collider",
     "x": 640,
     "y": 64,
     "width": 16,
     "height": 16,
     "visible": true,
     "rotation": 0
    },
    {
     "id": 455,
     "name": "fence",
     "type": "collider",
     "x": 656,
     "y": 64,
     "width": 16,
     "height": 16,
     "visible": true,
     "rotation": 0
    },
    {
     "id": 456,
     "name": "fence",
     "type": "collider",
     "x": 672,
     "y": 64,
     "width": 16,
     "height": 16,
     "visible": true,
     "rotation": 0
    },
    {
     "id": 457,
     "name": "fence",
     "type": "collider",
     "x": 688,
     "y": 64,
     "width": 16,
     "height": 16,
     "visible": true,
     "rotation": 0
    },
    {
     "id": 458,
     "name": "fence",
     "type": "collider",
     "x": 704,
     "y": 64,
     "width": 16,
     "height": 16,
     "visible": true,
     "rotation": 0
    },
    {
     "id": 459,
     "name": "fence",
     "type": "collider",
     "x": 720,
     "y": 64,
     "width": 16,
     "height": 16,
     "visible": true,
     "rotation": 0
    },
    {
     "id": 460,
     "name": "fence",
     "type": "collider",
     "x": 192,
     "y": 80,
     "width": 16,
     "height": 16,
     "visible": true,
     "rotation": 0
    },
    {
     "id": 461,
     "name": "fence",
     "type": "collider",
     "x": 272,
     "y": 80,
     "width": 16,
     "height": 16,
     "visible": true,
     "rotation": 0
    },
    {
     "id": 462,
     "name": "fence",
     "type": "collider",
     "x": 288,
     "y": 80,
     "width": 16,
     "height": 16,
     "visible": true,
     "rotation": 0
    },
    {
     "id": 463,
     "name": "fence",
     "type": "collider",
     "x": 432,
     "y": 80,
     "width": 16,
     "height": 16,
     "visible": true,
     "rotation": 0
    },
    {
     "id": 464,
     "name": "fence",
     "type": "collider",
     "x": 448,
     "y": 80,
     "width": 16,
     "height": 16,
     "visible": true,
     "rotation": 0
    },
    {
     "id": 465,
     "name": "fence",
     "type": "collider",
     "x": 512,
     "y": 80,
     "width": 16,
     "height": 16,
     "visible": true,
     "rotation": 0
    },
    {
     "id": 466,
     "name": "fence",
     "type": "collider",
     "x": 704,
     "y": 80,
     "width": 16,
     "height": 16,
     "visible": true,
     "rotation": 0
    },
    {
     "id": 467,
     "name": "fence",
     "type": "collider",
     "x": 192,
     "y": 96,
     "width": 16,
     "height": 16,
     "visible": true,
     "rotation": 0
    },
    {
     "id": 468,
     "name": "fence",
     "type": "collider",
     "x": 272,
     "y": 96,
     "width": 16,
     "height": 16,
     "visible": true,
     "rotation": 0
    },
    {
     "id": 469,
     "name": "fence",
     "type": "collider",
     "x": 432,
     "y": 96,
     "width": 16,
     "height": 16,
     "visible": true,
     "rotation": 0
    },
    {
     "id": 470,
     "name": "fence",
     "type": "collider",
     "x": 512,
     "y": 96,
     "width": 16,
     "height": 16,
     "visible": true,
     "rotation": 0
    },
    {
     "id": 471,
     "name": "fence",
     "type": "collider",
     "x": 704,
     "y": 96,
     "width": 16,
     "height": 16,
     "visible": true,
     "rotation": 0
    },
    {
     "id": 472,
     "name": "fence",
     "type": "collider",
     "x": 192,
     "y": 112,
     "width": 16,
     "height": 16,
     "visible": true,
     "rotation": 0
    },
    {
     "id": 473,
     "name": "fence",
     "type": "collider",
     "x": 272,
     "y": 112,
     "width": 16,
     "height": 16,
     "visible": true,
     "rotation": 0
    },
    {
     "id": 474,
     "name": "fence",
     "type": "collider",
     "x": 432,
     "y": 112,
     "width": 16,
     "height": 16,
     "visible": true,
     "rotation": 0
    },
    {
     "id": 475,
     "name": "fence",
     "type": "collider",
     "x": 512,
     "y": 112,
     "width": 16,
     "height": 16,
     "visible": true,
     "rotation": 0
    },
    {
     "id": 476,
     "name": "fence",
     "type": "collider",
     "x": 704,
     "y": 112,
     "width": 16,
     "height": 16,
     "visible": true,
     "rotation": 0
    },
    {
     "id": 477,
     "name": "fence",
     "type": "collider",
     "x": 192,
     "y": 128,
     "width": 16,
     "height": 16,
     "visible": true,
     "rotation": 0
    },
    {
     "id": 478,
     "name": "fence",
     "type": "collider",
     "x": 272,
     "y": 128,
     "width": 16,
     "height": 16,
     "visible": true,
     "rotation": 0
    },
    {
     "id": 479,
     "name": "fence",
     "type": "collider",
     "x": 432,
     "y": 128,
     "width": 16,
     "height": 16,
     "visible": true,
     "rotation": 0
    },
    {
     "id": 480,
     "name": "fence",
     "type": "collider",
     "x": 512,
     "y": 128,
     "width": 16,
     "height": 16,
     "visible": true,
     "rotation": 0
    },
    {
     "id": 481,
     "name": "fence",
     "type": "collider",
     "x": 704,
     "y": 128,
     "width": 16,
     "height": 16,
     "visible": true,
     "rotation": 0
    },
    {
     "id": 482,
     "name": "fence",
     "type": "collider",
     "x": 272,
     "y": 144,
     "width": 16,
     "height": 16,
     "visible": true,
     "rotation": 0
    },
    {
     "id": 483,
     "name": "fence",
     "type": "collider",
     "x": 432,
     "y": 144,
     "width": 16,
     "height": 16,
     "visible": true,
     "rotation": 0
    },
    {
     "id": 484,
     "name": "fence",
     "type": "collider",
     "x": 512,
     "y": 144,
     "width": 16,
     "height": 16,
     "visible": true,
     "rotation": 0
    },
    {
     "id": 485,
     "name": "fence",
     "type": "collider",
     "x": 704,
     "y": 144,
     "width": 16,
     "height": 16,
     "visible": true,
     "rotation": 0
    },
    {
     "id": 486,
     "name": "fence",
     "type": "collider",
     "x": 272,
     "y": 160,
     "width": 16,
     "height": 16,
     "visible": true,
     "rotation": 0
    },
    {
     "id": 487,
     "name": "fence",
     "type": "collider",
     "x": 432,
     "y": 160,
     "width": 16,
     "height": 16,
     "visible": true,
     "rotation": 0
    },
    {
     "id": 488,
     "name": "fence",
     "type": "collider",
     "x": 512,
     "y": 160,
     "width": 16,
     "height": 16,
     "visible": true,
     "rotation": 0
    },
    {
     "id": 489,
     "name": "fence",
     "type": "collider",
     "x": 704,
     "y": 160,
     "width": 16,
     "height": 16,
     "visible": true,
     "rotation": 0
    },
    {
     "id": 490,
     "name": "fence",
     "type": "collider",
     "x": 192,
     "y": 176,
     "width": 16,
     "height": 16,
     "visible": true,
     "rotation": 0
    },
    {
     "id": 491,
     "name": "fence",
     "type": "collider",
     "x": 272,
     "y": 176,
     "width": 16,
     "height": 16,
     "visible": true,
     "rotation": 0
    },
    {
     "id": 492,
     "name": "fence",
     "type": "collider",
     "x": 432,
     "y": 176,
     "width": 16,
     "height": 16,
     "visible": true,
     "rotation": 0
    },
    {
     "id": 493,
     "name": "fence",
     "type": "collider",
     "x": 512,
     "y": 176,
     "width": 16,
     "height": 16,
     "visible": true,
     "rotation": 0
    },
    {
     "id": 494,
     "name": "fence",
     "type": "collider",
     "x": 704,
     "y": 176,
     "width": 16,
     "height": 16,
     "visible": true,
     "rotation": 0
    },
    {
     "id": 495,
     "name": "fence",
     "type": "collider",
     "x": 192,
     "y": 192,
     "width": 16,
     "height": 16,
     "visible": true,
     "rotation": 0
    },
    {
     "id": 496,
     "name": "fence",
     "type": "collider",
     "x": 272,
     "y": 192,
     "width": 16,
     "height": 16,
     "visible": true,
     "rotation": 0
    },
    {
     "id": 497,
     "name": "fence",
     "type": "collider",
     "x": 432,
     "y": 192,
     "width": 16,
     "height": 16,
     "visible": true,
     "rotation": 0
    },
    {
     "id": 498,
     "name": "fence",
     "type": "collider",
     "x": 512,
     "y": 192,
     "width": 16,
     "height": 16,
     "visible": true,
     "rotation": 0
    },
    {
     "id": 499,
     "name": "fence",
     "type": "collider",
     "x": 704,
     "y": 192,
     "width": 16,
     "height": 16,
     "visible": true,
     "rotation": 0
    },
    {
     "id": 500,
     "name": "fence",
     "type": "collider",
     "x": 48,
     "y": 208,
     "width": 16,
     "height": 16,
     "visible": true,
     "rotation": 0
    },
    {
     "id": 501,
     "name": "fence",
     "type": "collider",
     "x": 64,
     "y": 208,
     "width": 16,
     "height": 16,
     "visible": true,
     "rotation": 0
    },
    {
     "id": 502,
     "name": "fence",
     "type": "collider",
     "x": 80,
     "y": 208,
     "width": 16,
     "height": 16,
     "visible": true,
     "rotation": 0
    },
    {
     "id": 503,
     "name": "fence",
     "type": "collider",
     "x": 96,
     "y": 208,
     "width": 16,
     "height": 16,
     "visible": true,
     "rotation": 0
    },
    {
     "id": 504,
     "name": "fence",
     "type": "collider",
     "x": 112,
     "y": 208,
     "width": 16,
     "height": 16,
     "visible": true,
     "rotation": 0
    },
    {
     "id": 505,
     "name": "fence",
     "type": "collider",
     "x": 128,
     "y": 208,
     "width": 16,
     "height": 16,
     "visible": true,
     "rotation": 0
    },
    {
     "id": 506,
     "name": "fence",
     "type": "collider",
     "x": 144,
     "y": 208,
     "width": 16,
     "height": 16,
     "visible": true,
     "rotation": 0
    },
    {
     "id": 507,
     "name": "fence",
     "type": "collider",
     "x": 160,
     "y": 208,
     "width": 16,
     "height": 16,
     "visible": true,
     "rotation": 0
    },
    {
     "id": 508,
     "name": "fence",
     "type": "collider",
     "x": 176,
     "y": 208,
     "width": 16,
     "height": 16,
     "visible": true,
     "rotation": 0
    },
    {
     "id": 509,
     "name": "fence",
     "type": "collider",
     "x": 192,
     "y": 208,
     "width": 16,
     "height": 16,
     "visible": true,
     "rotation": 0
    },
    {
     "id": 510,
     "name": "fence",
     "type": "collider",
     "x": 208,
     "y": 208,
     "width": 16,
     "height": 16,
     "visible": true,
     "rotation": 0
    },
    {
     "id": 511,
     "name": "fence",
     "type": "collider",
     "x": 272,
     "y": 208,
     "width": 16,
     "height": 16,
     "visible": true,
     "rotation": 0
    },
    {
     "id": 512,
     "name": "fence",
     "type": "collider",
     "x": 432,
     "y": 208,
     "width": 16,
     "height": 16,
     "visible": true,
     "rotation": 0
    },
    {
     "id": 513,
     "name": "fence",
     "type": "collider",
     "x": 512,
     "y": 208,
     "width": 16,
     "height": 16,
     "visible": true,
     "rotation": 0
    },
    {
     "id": 514,
     "name": "fence",
     "type": "collider",
     "x": 704,
     "y": 208,
     "width": 16,
     "height": 16,
     "visible": true,
     "rotation": 0
    },
    {
     "id": 515,
     "name": "fence",
     "type": "collider",
     "x": 48,
     "y": 224,
     "width": 16,
     "height": 16,
     "visible": true,
     "rotation": 0
    },
    {
     "id": 516,
     "name": "fence",
     "type": "collider",
     "x": 64,
     "y": 224,
     "width": 16,
     "height": 16,
     "visible": true,
     "rotation": 0
    },
    {
     "id": 517,
     "name": "fence",
     "type": "collider",
     "x": 80,
     "y": 224,
     "width": 16,
     "height": 16,
     "visible": true,
     "rotation": 0
    },
    {
     "id": 518,
     "name": "fence",
     "type": "collider",
     "x": 96,
     "y": 224,
     "width": 16,
     "height": 16,
     "visible": true,
     "rotation": 0
    },
    {
     "id": 519,
     "name": "fence",
     "type": "collider",
     "x": 112,
     "y": 224,
     "width": 16,
     "height": 16,
     "visible": true,
     "rotation": 0
    },
    {
     "id": 520,
     "name": "fence",
     "type": "collider",
     "x": 128,
     "y": 224,
     "width": 16,
     "height": 16,
     "visible": true,
     "rotation": 0
    },
    {
     "id": 521,
     "name": "fence",
     "type": "collider",
     "x": 144,
     "y": 224,
     "width": 16,
     "height": 16,
     "visible": true,
     "rotation": 0
    },
    {
     "id": 522,
     "name": "fence",
     "type": "collider",
     "x": 160,
     "y": 224,
     "width": 16,
     "height": 16,
     "visible": true,
     "rotation": 0
    },
    {
     "id": 523,
     "name": "fence",
     "type": "collider",
     "x": 176,
     "y": 224,
     "width": 16,
     "height": 16,
     "visible": true,
     "rotation": 0
    },
    {
     "id": 524,
     "name": "fence",
     "type": "collider",
     "x": 192,
     "y": 224,
     "width": 16,
     "height": 16,
     "visible": true,
     "rotation": 0
    },
    {
     "id": 525,
     "name": "fence",
     "type": "collider",
     "x": 208,
     "y": 224,
     "width": 16,
     "height": 16,
     "visible": true,
     "rotation": 0
    },
    {
     "id": 526,
     "name": "fence",
     "type": "collider",
     "x": 272,
     "y": 224,
     "width": 16,
     "height": 16,
     "visible": true,
     "rotation": 0
    },
    {
     "id": 527,
     "name": "fence",
     "type": "collider",
     "x": 432,
     "y": 224,
     "width": 16,
     "height": 16,
     "visible": true,
     "rotation": 0
    },
    {
     "id": 528,
     "name": "fence",
     "type": "collider",
     "x": 512,
     "y": 224,
     "width": 16,
     "height": 16,
     "visible": true,
     "rotation": 0
    },
    {
     "id": 529,
     "name": "fence",
     "type": "collider",
     "x": 704,
     "y": 224,
     "width": 16,
     "height": 16,
     "visible": true,
     "rotation": 0
    },
    {
     "id": 530,
     "name": "fence",
     "type": "collider",
     "x": 272,
     "y": 240,
     "width": 16,
     "height": 16,
     "visible": true,
     "rotation": 0
    },
    {
     "id": 531,
     "name": "fence",
     "type": "collider",
     "x": 288,
     "y": 240,
     "width": 16,
     "height": 16,
     "visible": true,
     "rotation": 0
    },
    {
     "id": 532,
     "name": "fence",
     "type": "collider",
     "x": 304,
     "y": 240,
     "width": 16,
     "height": 16,
     "visible": true,
     "rotation": 0
    },
    {
     "id": 533,
     "name": "fence",
     "type": "collider",
     "x": 320,
     "y": 240,
     "width": 16,
     "height": 16,
     "visible": true,
     "rotation": 0
    },
    {
     "id": 534,
     "name": "fence",
     "type": "collider",
     "x": 336,
     "y": 240,
     "width": 16,
     "height": 16,
     "visible": true,
     "rotation": 0
    },
    {
     "id": 535,
     "name": "fence",
     "type": "collider",
     "x": 352,
     "y": 240,
     "width": 16,
     "height": 16,
     "visible": true,
     "rotation": 0
    },
    {
     "id": 536,
     "name": "fence",
     "type": "collider",
     "x": 368,
     "y": 240,
     "width": 16,
     "height": 16,
     "visible": true,
     "rotation": 0
    },
    {
     "id": 537,
     "name": "fence",
     "type": "collider",
     "x": 400,
     "y": 240,
     "width": 16,
     "height": 16,
     "visible": true,
     "rotation": 0
    },
    {
     "id": 538,
     "name": "fence",
     "type": "collider",
     "x": 416,
     "y": 240,
     "width": 16,
     "height": 16,
     "visible": true,
     "rotation": 0
    },
    {
     "id": 539,
     "name": "fence",
     "type": "collider",
     "x": 432,
     "y": 240,
     "width": 16,
     "height": 16,
     "visible": true,
     "rotation": 0
    },
    {
     "id": 540,
     "name": "fence",
     "type": "collider",
     "x": 448,
     "y": 240,
     "width": 16,
     "height": 16,
     "visible": true,
     "rotation": 0
    },
    {
     "id": 541,
     "name": "fence",
     "type": "collider",
     "x": 272,
     "y": 256,
     "width": 16,
     "height": 16,
     "visible": true,
     "rotation": 0
    },
    {
     "id": 542,
     "name": "fence",
     "type": "collider",
     "x": 288,
     "y": 256,
     "width": 16,
     "height": 16,
     "visible": true,
     "rotation": 0
    },
    {
     "id": 543,
     "name": "fence",
     "type": "collider",
     "x": 304,
     "y": 256,
     "width": 16,
     "height": 16,
     "visible": true,
     "rotation": 0
    },
    {
     "id": 544,
     "name": "fence",
     "type": "collider",
     "x": 320,
     "y": 256,
     "width": 16,
     "height": 16,
     "visible": true,
     "rotation": 0
    },
    {
     "id": 545,
     "name": "fence",
     "type": "collider",
     "x": 336,
     "y": 256,
     "width": 16,
     "height": 16,
     "visible": true,
     "rotation": 0
    },
    {
     "id": 546,
     "name": "fence",
     "type": "collider",
     "x": 352,
     "y": 256,
     "width": 16,
     "height": 16,
     "visible": true,
     "rotation": 0
    },
    {
     "id": 547,
     "name": "fence",
     "type": "collider",
     "x": 368,
     "y": 256,
     "width": 16,
     "height": 16,
     "visible": true,
     "rotation": 0
    },
    {
     "id": 548,
     "name": "fence",
     "type": "collider",
     "x": 400,
     "y": 256,
     "width": 16,
     "height": 16,
     "visible": true,
     "rotation": 0
    },
    {
     "id": 549,
     "name": "fence",
     "type": "collider",
     "x": 416,
     "y": 256,
     "width": 16,
     "height": 16,
     "visible": true,
     "rotation": 0
    },
    {
     "id": 550,
     "name": "fence",
     "type": "collider",
     "x": 432,
     "y": 256,
     "width": 16,
     "height": 16,
     "visible": true,
     "rotation": 0
    },
    {
     "id": 551,
     "name": "fence",
     "type": "collider",
     "x": 448,
     "y": 256,
     "width": 16,
     "height": 16,
     "visible": true,
     "rotation": 0
    },
    {
     "id": 552,
     "name": "fence",
     "type": "collider",
     "x": 256,
     "y": 320,
     "width": 16,
     "height": 16,
     "visible": true,
     "rotation": 0
    },
    {
     "id": 553,
     "name": "fence",
     "type": "collider",
     "x": 272,
     "y": 320,
     "width": 16,
     "height": 16,
     "visible": true,
     "rotation": 0
    },
    {
     "id": 554,
     "name": "fence",
     "type": "collider",
     "x": 432,
     "y": 320,
     "width": 16,
     "height": 16,
     "visible": true,
     "rotation": 0
    },
    {
     "id": 555,
     "name": "fence",
     "type": "collider",
     "x": 448,
     "y": 320,
     "width": 16,
     "height": 16,
     "visible": true,
     "rotation": 0
    },
    {
     "id": 556,
     "name": "fence",
     "type": "collider",
     "x": 256,
     "y": 336,
     "width": 16,
     "height": 16,
     "visible": true,
     "rotation": 0
    },
    {
     "id": 557,
     "name": "fence",
     "type": "collider",
     "x": 272,
     "y": 336,
     "width": 16,
     "height": 16,
     "visible": true,
     "rotation": 0
    },
    {
     "id": 558,
     "name": "fence",
     "type": "collider",
     "x": 432,
     "y": 336,
     "width": 16,
     "height": 16,
     "visible": true,
     "rotation": 0
    },
    {
     "id": 559,
     "name": "fence",
     "type": "collider",
     "x": 448,
     "y": 336,
     "width": 16,
     "height": 16,
     "visible": true,
     "rotation": 0
    },
    {
     "id": 560,
     "name": "fence",
     "type": "collider",
     "x": 528,
     "y": 336,
     "width": 16,
     "height": 16,
     "visible": true,
     "rotation": 0
    },
    {
     "id": 561,
     "name": "fence",
     "type": "collider",
     "x": 544,
     "y": 336,
     "width": 16,
     "height": 16,
     "visible": true,
     "rotation": 0
    },
    {
     "id": 562,
     "name": "fence",
     "type": "collider",
     "x": 560,
     "y": 336,
     "width": 16,
     "height": 16,
     "visible": true,
     "rotation": 0
    },
    {
     "id": 563,
     "name": "fence",
     "type": "collider",
     "x": 576,
     "y": 336,
     "width": 16,
     "height": 16,
     "visible": true,
     "rotation": 0
    },
    {
     "id": 564,
     "name": "fence",
     "type": "collider",
     "x": 592,
     "y": 336,
     "width": 16,
     "height": 16,
     "visible": true,
     "rotation": 0
    },
    {
     "id": 565,
     "name": "fence",
     "type": "collider",
     "x": 608,
     "y": 336,
     "width": 16,
     "height": 16,
     "visible": true,
     "rotation": 0
    },
    {
     "id": 566,
     "name": "fence",
     "type": "collider",
     "x": 624,
     "y": 336,
     "width": 16,
     "height": 16,
     "visible": true,
     "rotation": 0
    },
    {
     "id": 567,
     "name": "fence",
     "type": "collider",
     "x": 656,
     "y": 336,
     "width": 16,
     "height": 16,
     "visible": true,
     "rotation": 0
    },
    {
     "id": 568,
     "name": "fence",
     "type": "collider",
     "x": 672,
     "y": 336,
     "width": 16,
     "height": 16,
     "visible": true,
     "rotation": 0
    },
    {
     "id": 569,
     "name": "fence",
     "type": "collider",
     "x": 688,
     "y": 336,
     "width": 16,
     "height": 16,
     "visible": true,
     "rotation": 0
    },
    {
     "id": 570,
     "name": "fence",
     "type": "collider",
     "x": 704,
     "y": 336,
     "width": 16,
     "height": 16,
     "visible": true,
     "rotation": 0
    },
    {
     "id": 571,
     "name": "fence",
     "type": "collider",
     "x": 720,
     "y": 336,
     "width": 16,
     "height": 16,
     "visible": true,
     "rotation": 0
    },
    {
     "id": 572,
     "name": "fence",
     "type": "collider",
     "x": 256,
     "y": 352,
     "width": 16,
     "height": 16,
     "visible": true,
     "rotation": 0
    },
    {
     "id": 573,
     "name": "fence",
     "type": "collider",
     "x": 432,
     "y": 352,
     "width": 16,
     "height": 16,
     "visible": true,
     "rotation": 0
    },
    {
     "id": 574,
     "name": "fence",
     "type": "collider",
     "x": 528,
     "y": 352,
     "width": 16,
     "height": 16,
     "visible": true,
     "rotation": 0
    },
    {
     "id": 575,
     "name": "fence",
     "type": "collider",
     "x": 544,
     "y": 352,
     "width": 16,
     "height": 16,
     "visible": true,
     "rotation": 0
    },
    {
     "id": 576,
     "name": "fence",
     "type": "collider",
     "x": 560,
     "y": 352,
     "width": 16,
     "height": 16,
     "visible": true,
     "rotation": 0
    },
    {
     "id": 577,
     "name": "fence",
     "type": "collider",
     "x": 576,
     "y": 352,
     "width": 16,
     "height": 16,
     "visible": true,
     "rotation": 0
    },
    {
     "id": 578,
     "name": "fence",
     "type": "collider",
     "x": 592,
     "y": 352,
     "width": 16,
     "height": 16,
     "visible": true,
     "rotation": 0
    },
    {
     "id": 579,
     "name": "fence",
     "type": "collider",
     "x": 608,
     "y": 352,
     "width": 16,
     "height": 16,
     "visible": true,
     "rotation": 0
    },
    {
     "id": 580,
     "name": "fence",
     "type": "collider",
     "x": 624,
     "y": 352,
     "width": 16,
     "height": 16,
     "visible": true,
     "rotation": 0
    },
    {
     "id": 581,
     "name": "fence",
     "type": "collider",
     "x": 656,
     "y": 352,
     "width": 16,
     "height": 16,
     "visible": true,
     "rotation": 0
    },
    {
     "id": 582,
     "name": "fence",
     "type": "collider",
     "x": 672,
     "y": 352,
     "width": 16,
     "height": 16,
     "visible": true,
     "rotation": 0
    },
    {
     "id": 583,
     "name": "fence",
     "type": "collider",
     "x": 688,
     "y": 352,
     "width": 16,
     "height": 16,
     "visible": true,
     "rotation": 0
    },
    {
     "id": 584,
     "name": "fence",
     "type": "collider",
     "x": 704,
     "y": 352,
     "width": 16,
     "height": 16,
     "visible": true,
     "rotation": 0
    },
    {
     "id": 585,
     "name": "fence",
     "type": "collider",
     "x": 720,
     "y": 352,
     "width": 16,
     "height": 16,
     "visible": true,
     "rotation": 0
    },
    {
     "id": 586,
     "name": "fence",
     "type": "collider",
     "x": 256,
     "y": 368,
     "width": 16,
     "height": 16,
     "visible": true,
     "rotation": 0
    },
    {
     "id": 587,
     "name": "fence",
     "type": "collider",
     "x": 432,
     "y": 368,
     "width": 16,
     "height": 16,
     "visible": true,
     "rotation": 0
    },
    {
     "id": 588,
     "name": "fence",
     "type": "collider",
     "x": 528,
     "y": 368,
     "width": 16,
     "height": 16,
     "visible": true,
     "rotation": 0
    },
    {
     "id": 589,
     "name": "fence",
     "type": "collider",
     "x": 704,
     "y": 368,
     "width": 16,
     "height": 16,
     "visible": true,
     "rotation": 0
    },
    {
     "id": 590,
     "name": "fence",
     "type": "collider",
     "x": 256,
     "y": 384,
     "width": 16,
     "height": 16,
     "visible": true,
     "rotation": 0
    },
    {
     "id": 591,
     "name": "fence",
     "type": "collider",
     "x": 432,
     "y": 384,
     "width": 16,
     "height": 16,
     "visible": true,
     "rotation": 0
    },
    {
     "id": 592,
     "name": "fence",
     "type": "collider",
     "x": 528,
     "y": 384,
     "width": 16,
     "height": 16,
     "visible": true,
     "rotation": 0
    },
    {
     "id": 593,
     "name": "fence",
     "type": "collider",
     "x": 704,
     "y": 384,
     "width": 16,
     "height": 16,
     "visible": true,
     "rotation": 0
    },
    {
     "id": 594,
     "name": "fence",
     "type": "collider",
     "x": 256,
     "y": 400,
     "width": 16,
     "height": 16,
     "visible": true,
     "rotation": 0
    },
    {
     "id": 595,
     "name": "fence",
     "type": "collider",
     "x": 432,
     "y": 400,
     "width": 16,
     "height": 16,
     "visible": true,
     "rotation": 0
    },
    {
     "id": 596,
     "name": "fence",
     "type": "collider",
     "x": 528,
     "y": 400,
     "width": 16,
     "height": 16,
     "visible": true,
     "rotation": 0
    },
    {
     "id": 597,
     "name": "fence",
     "type": "collider",
     "x": 704,
     "y": 400,
     "width": 16,
     "height": 16,
     "visible": true,
     "rotation": 0
    },
    {
     "id": 598,
     "name": "fence",
     "type": "collider",
     "x": 256,
     "y": 416,
     "width": 16,
     "height": 16,
     "visible": true,
     "rotation": 0
    },
    {
     "id": 599,
     "name": "fence",
     "type": "collider",
     "x": 432,
     "y": 416,
     "width": 16,
     "height": 16,
     "visible": true,
     "rotation": 0
    },
    {
     "id": 600,
     "name": "fence",
     "type": "collider",
     "x": 528,
     "y": 416,
     "width": 16,
     "height": 16,
     "visible": true,
     "rotation": 0
    },
    {
     "id": 601,
     "name": "fence",
     "type": "collider",
     "x": 704,
     "y": 416,
     "width": 16,
     "height": 16,
     "visible": true,
     "rotation": 0
    },
    {
     "id": 602,
     "name": "fence",
     "type": "collider",
     "x": 256,
     "y": 432,
     "width": 16,
     "height": 16,
     "visible": true,
     "rotation": 0
    },
    {
     "id": 603,
     "name": "fence",
     "type": "collider",
     "x": 432,
     "y": 432,
     "width": 16,
     "height": 16,
     "visible": true,
     "rotation": 0
    },
    {
     "id": 604,
     "name": "fence",
     "type": "collider",
     "x": 528,
     "y": 432,
     "width": 16,
     "height": 16,
     "visible": true,
     "rotation": 0
    },
    {
     "id": 605,
     "name": "fence",
     "type": "collider",
     "x": 704,
     "y": 432,
     "width": 16,
     "height": 16,
     "visible": true,
     "rotation": 0
    },
    {
     "id": 606,
     "name": "fence",
     "type": "collider",
     "x": 256,
     "y": 448,
     "width": 16,
     "height": 16,
     "visible": true,
     "rotation": 0
    },
    {
     "id": 607,
     "name": "fence",
     "type": "collider",
     "x": 432,
     "y": 448,
     "width": 16,
     "height": 16,
     "visible": true,
     "rotation": 0
    },
    {
     "id": 608,
     "name": "fence",
     "type": "collider",
     "x": 528,
     "y": 448,
     "width": 16,
     "height": 16,
     "visible": true,
     "rotation": 0
    },
    {
     "id": 609,
     "name": "fence",
     "type": "collider",
     "x": 704,
     "y": 448,
     "width": 16,
     "height": 16,
     "visible": true,
     "rotation": 0
    },
    {
     "id": 610,
     "name": "fence",
     "type": "collider",
     "x": 256,
     "y": 464,
     "width": 16,
     "height": 16,
     "visible": true,
     "rotation": 0
    },
    {
     "id": 611,
     "name": "fence",
     "type": "collider",
     "x": 432,
     "y": 464,
     "width": 16,
     "height": 16,
     "visible": true,
     "rotation": 0
    },
    {
     "id": 612,
     "name": "fence",
     "type": "collider",
     "x": 528,
     "y": 464,
     "width": 16,
     "height": 16,
     "visible": true,
     "rotation": 0
    },
    {
     "id": 613,
     "name": "fence",
     "type": "collider",
     "x": 704,
     "y": 464,
     "width": 16,
     "height": 16,
     "visible": true,
     "rotation": 0
    },
    {
     "id": 614,
     "name": "fence",
     "type": "collider",
     "x": 256,
     "y": 480,
     "width": 16,
     "height": 16,
     "visible": true,
     "rotation": 0
    },
    {
     "id": 615,
     "name": "fence",
     "type": "collider",
     "x": 272,
     "y": 480,
     "width": 16,
     "height": 16,
     "visible": true,
     "rotation": 0
    },
    {
     "id": 616,
     "name": "fence",
     "type": "collider",
     "x": 288,
     "y": 480,
     "width": 16,
     "height": 16,
     "visible": true,
     "rotation": 0
    },
    {
     "id": 617,
     "name": "fence",
     "type": "collider",
     "x": 304,
     "y": 480,
     "width": 16,
     "height": 16,
     "visible": true,
     "rotation": 0
    },
    {
     "id": 618,
     "name": "fence",
     "type": "collider",
     "x": 320,
     "y": 480,
     "width": 16,
     "height": 16,
     "visible": true,
     "rotation": 0
    },
    {
     "id": 619,
     "name": "fence",
     "type": "collider",
     "x": 336,
     "y": 480,
     "width": 16,
     "height": 16,
     "visible": true,
     "rotation": 0
    },
    {
     "id": 620,
     "name": "fence",
     "type": "collider",
     "x": 352,
     "y": 480,
     "width": 16,
     "height": 16,
     "visible": true,
     "rotation": 0
    },
    {
     "id": 621,
     "name": "fence",
     "type": "collider",
     "x": 368,
     "y": 480,
     "width": 16,
     "height": 16,
     "visible": true,
     "rotation": 0
    },
    {
     "id": 622,
     "name": "fence",
     "type": "collider",
     "x": 384,
     "y": 480,
     "width": 16,
     "height": 16,
     "visible": true,
     "rotation": 0
    },
    {
     "id": 623,
     "name": "fence",
     "type": "collider",
     "x": 400,
     "y": 480,
     "width": 16,
     "height": 16,
     "visible": true,
     "rotation": 0
    },
    {
     "id": 624,
     "name": "fence",
     "type": "collider",
     "x": 416,
     "y": 480,
     "width": 16,
     "height": 16,
     "visible": true,
     "rotation": 0
    },
    {
     "id": 625,
     "name": "fence",
     "type": "collider",
     "x": 432,
     "y": 480,
     "width": 16,
     "height": 16,
     "visible": true,
     "rotation": 0
    },
    {
     "id": 626,
     "name": "fence",
     "type": "collider",
     "x": 448,
     "y": 480,
     "width": 16,
     "height": 16,
     "visible": true,
     "rotation": 0
    },
    {
     "id": 627,
     "name": "fence",
     "type": "collider",
     "x": 528,
     "y": 480,
     "width": 16,
     "height": 16,
     "visible": true,
     "rotation": 0
    },
    {
     "id": 628,
     "name": "fence",
     "type": "collider",
     "x": 704,
     "y": 480,
     "width": 16,
     "height": 16,
     "visible": true,
     "rotation": 0
    },
    {
     "id": 629,
     "name": "fence",
     "type": "collider",
     "x": 256,
     "y": 496,
     "width": 16,
     "height": 16,
     "visible": true,
     "rotation": 0
    },
    {
     "id": 630,
     "name": "fence",
     "type": "collider",
     "x": 272,
     "y": 496,
     "width": 16,
     "height": 16,
     "visible": true,
     "rotation": 0
    },
    {
     "id": 631,
     "name": "fence",
     "type": "collider",
     "x": 288,
     "y": 496,
     "width": 16,
     "height": 16,
     "visible": true,
     "rotation": 0
    },
    {
     "id": 632,
     "name": "fence",
     "type": "collider",
     "x": 304,
     "y": 496,
     "width": 16,
     "height": 16,
     "visible": true,
     "rotation": 0
    },
    {
     "id": 633,
     "name": "fence",
     "type": "collider",
     "x": 320,
     "y": 496,
     "width": 16,
     "height": 16,
     "visible": true,
     "rotation": 0
    },
    {
     "id": 634,
     "name": "fence",
     "type": "collider",
     "x": 336,
     "y": 496,
     "width": 16,
     "height": 16,
     "visible": true,
     "rotation": 0
    },
    {
     "id": 635,
     "name": "fence",
     "type": "collider",
     "x": 352,
     "y": 496,
     "width": 16,
     "height": 16,
     "visible": true,
     "rotation": 0
    },
    {
     "id": 636,
     "name": "fence",
     "type": "collider",
     "x": 368,
     "y": 496,
     "width": 16,
     "height": 16,
     "visible": true,
     "rotation": 0
    },
    {
     "id": 637,
     "name": "fence",
     "type": "collider",
     "x": 384,
     "y": 496,
     "width": 16,
     "height": 16,
     "visible": true,
     "rotation": 0
    },
    {
     "id": 638,
     "name": "fence",
     "type": "collider",
     "x": 400,
     "y": 496,
     "width": 16,
     "height": 16,
     "visible": true,
     "rotation": 0
    },
    {
     "id": 639,
     "name": "fence",
     "type": "collider",
     "x": 416,
     "y": 496,
     "width": 16,
     "height": 16,
     "visible": true,
     "rotation": 0
    },
    {
     "id": 640,
     "name": "fence",
     "type": "collider",
     "x": 432,
     "y": 496,
     "width": 16,
     "height": 16,
     "visible": true,
     "rotation": 0
    },
    {
     "id": 641,
     "name": "fence",
     "type": "collider",
     "x": 448,
     "y": 496,
     "width": 16,
     "height": 16,
     "visible": true,
     "rotation": 0
    },
    {
     "id": 642,
     "name": "fence",
     "type": "collider",
     "x": 528,
     "y": 496,
     "width": 16,
     "height": 16,
     "visible": true,
     "rotation": 0
    },
    {
     "id": 643,
     "name": "fence",
     "type": "collider",
     "x": 704,
     "y": 496,
     "width": 16,
     "height": 16,
     "visible": true,
     "rotation": 0
    },
    {
     "id": 644,
     "name": "fence",
     "type": "collider",
     "x": 528,
     "y": 512,
     "width": 16,
     "height": 16,
     "visible": true,
     "rotation": 0
    },
    {
     "id": 645,
     "name": "fence",
     "type": "collider",
     "x": 704,
     "y": 512,
     "width": 16,
     "height": 16,
     "visible": true,
     "rotation": 0
    },
    {
     "id": 646,
     "name": "tree_trunk",
     "type": "collider",
     "x": 64,
     "y": 16,
     "width": 16,
     "height": 16,
     "visible": true,
     "rotation": 0
    },
    {
     "id": 647,
     "name": "tree_trunk",
     "type": "collider",
     "x": 320,
     "y": 336,
     "width": 16,
     "height": 16,
     "visible": true,
     "rotation": 0
    },
    {
     "id": 648,
     "name": "tree_trunk",
     "type": "collider",
     "x": 128,
     "y": 16,
     "width": 16,
     "height": 16,
     "visible": true,
     "rotation": 0
    },
    {
     "id": 649,
     "name": "tree_trunk",
     "type": "collider",
     "x": 160,
     "y": 112,
     "width": 16,
     "height": 16,
     "visible": true,
     "rotation": 0
    },
    {
     "id": 650,
     "name": "tree_trunk",
     "type": "collider",
     "x": 736,
     "y": 48,
     "width": 16,
     "height": 16,
     "visible": true,
     "rotation": 0
    },
    {
     "id": 651,
     "name": "tree_trunk",
     "type": "collider",
     "x": 192,
     "y": 560,
     "width": 16,
     "height": 16,
     "visible": true,
     "rotation": 0
    },
    {
     "id": 652,
     "name": "tree_trunk",
     "type": "collider",
     "x": 0,
     "y": 240,
     "width": 16,
     "height": 16,
     "visible": true,
     "rotation": 0
    },
    {
     "id": 653,
     "name": "tree_trunk",
     "type": "collider",
     "x": 736,
     "y": 336,
     "width": 16,
     "height": 16,
     "visible": true,
     "rotation": 0
    },
    {
     "id": 654,
     "name": "tree_trunk",
     "type": "collider",
     "x": 576,
     "y": 16,
     "width": 16,
     "height": 16,
     "visible": true,
     "rotation": 0
    },
    {
     "id": 655,
     "name": "tree_trunk",
     "type": "collider",
     "x": 32,
     "y": 528,
     "width": 16,
     "height": 16,
     "visible": true,
     "rotation": 0
    },
    {
     "id": 656,
     "name": "tree_trunk",
     "type": "collider",
     "x": 288,
     "y": 464,
     "width": 16,
     "height": 16,
     "visible": true,
     "rotation": 0
    },
    {
     "id": 657,
     "name": "tree_trunk",
     "type": "collider",
     "x": 480,
     "y": 48,
     "width": 16,
     "height": 16,
     "visible": true,
     "rotation": 0
    },
    {
     "id": 658,
     "name": "tree_trunk",
     "type": "collider",
     "x": 640,
     "y": 560,
     "width": 16,
     "height": 16,
     "visible": true,
     "rotation": 0
    },
    {
     "id": 659,
     "name": "tree_trunk",
     "type": "collider",
     "x": 736,
     "y": 80,
     "width": 16,
     "height": 16,
     "visible": true,
     "rotation": 0
    },
    {
     "id": 660,
     "name": "tree_trunk",
     "type": "collider",
     "x": 0,
     "y": 272,
     "width": 16,
     "height": 16,
     "visible": true,
     "rotation": 0
    },
    {
     "id": 661,
     "name": "tree_trunk",
     "type": "collider",
     "x": 608,
     "y": 16,
     "width": 16,
     "height": 16,
     "visible": true,
     "rotation": 0
    },
    {
     "id": 662,
     "name": "tree_trunk",
     "type": "collider",
     "x": 672,
     "y": 560,
     "width": 16,
     "height": 16,
     "visible": true,
     "rotation": 0
    },
    {
     "id": 663,
     "name": "tree_trunk",
     "type": "collider",
     "x": 288,
     "y": 208,
     "width": 16,
     "height": 16,
     "visible": true,
     "rotation": 0
    },
    {
     "id": 664,
     "name": "tree_trunk",
     "type": "collider",
     "x": 32,
     "y": 560,
     "width": 16,
     "height": 16,
     "visible": true,
     "rotation": 0
    },
    {
     "id": 665,
     "name": "tree_trunk",
     "type": "collider",
     "x": 736,
     "y": 560,
     "width": 16,
     "height": 16,
     "visible": true,
     "rotation": 0
    },
    {
     "id": 666,
     "name": "tree_trunk",
     "type": "collider",
     "x": 544,
     "y": 240,
     "width": 16,
     "height": 16,
     "visible": true,
     "rotation": 0
    },
    {
     "id": 667,
     "name": "tree_trunk",
     "type": "collider",
     "x": 224,
     "y": 144,
     "width": 16,
     "height": 16,
     "visible": true,
     "rotation": 0
    },
    {
     "id": 668,
     "name": "tree_trunk",
     "type": "collider",
     "x": 96,
     "y": 560,
     "width": 16,
     "height": 16,
     "visible": true,
     "rotation": 0
    },
    {
     "id": 669,
     "name": "tree_trunk",
     "type": "collider",
     "x": 0,
     "y": 16,
     "width": 16,
     "height": 16,
     "visible": true,
     "rotation": 0
    },
    {
     "id": 670,
     "name": "tree_trunk",
     "type": "collider",
     "x": 736,
     "y": 112,
     "width": 16,
     "height": 16,
     "visible": true,
     "rotation": 0
    },
    {
     "id": 671,
     "name": "tree_trunk",
     "type": "collider",
     "x": 416,
     "y": 16,
     "width": 16,
     "height": 16,
     "visible": true,
     "rotation": 0
    },
    {
     "id": 672,
     "name": "tree_trunk",
     "type": "collider",
     "x": 608,
     "y": 48,
     "width": 16,
     "height": 16,
     "visible": true,
     "rotation": 0
    },
    {
     "id": 673,
     "name": "tree_trunk",
     "type": "collider",
     "x": 128,
     "y": 560,
     "width": 16,
     "height": 16,
     "visible": true,
     "rotation": 0
    },
    {
     "id": 674,
     "name": "tree_trunk",
     "type": "collider",
     "x": 480,
     "y": 560,
     "width": 16,
     "height": 16,
     "visible": true,
     "rotation": 0
    },
    {
     "id": 675,
     "name": "tree_trunk",
     "type": "collider",
     "x": 0,
     "y": 496,
     "width": 16,
     "height": 16,
     "visible": true,
     "rotation": 0
    },
    {
     "id": 676,
     "name": "tree_trunk",
     "type": "collider",
     "x": 448,
     "y": 16,
     "width": 16,
     "height": 16,
     "visible": true,
     "rotation": 0
    },
    {
     "id": 677,
     "name": "tree_trunk",
     "type": "collider",
     "x": 608,
     "y": 528,
     "width": 16,
     "height": 16,
     "visible": true,
     "rotation": 0
    },
    {
     "id": 678,
     "name": "tree_trunk",
     "type": "collider",
     "x": 480,
     "y": 112,
     "width": 16,
     "height": 16,
     "visible": true,
     "rotation": 0
    },
    {
     "id": 679,
     "name": "tree_trunk",
     "type": "collider",
     "x": 192,
     "y": 368,
     "width": 16,
     "height": 16,
     "visible": true,
     "rotation": 0
    },
    {
     "id": 680,
     "name": "tree_trunk",
     "type": "collider",
     "x": 0,
     "y": 48,
     "width": 16,
     "height": 16,
     "visible": true,
     "rotation": 0
    },
    {
     "id": 681,
     "name": "tree_trunk",
     "type": "collider",
     "x": 512,
     "y": 16,
     "width": 16,
     "height": 16,
     "visible": true,
     "rotation": 0
    },
    {
     "id": 682,
     "name": "tree_trunk",
     "type": "collider",
     "x": 224,
     "y": 464,
     "width": 16,
     "height": 16,
     "visible": true,
     "rotation": 0
    },
    {
     "id": 683,
     "name": "tree_trunk",
     "type": "collider",
     "x": 576,
     "y": 560,
     "width": 16,
     "height": 16,
     "visible": true,
     "rotation": 0
    },
    {
     "id": 684,
     "name": "tree_trunk",
     "type": "collider",
     "x": 32,
     "y": 336,
     "width": 16,
     "height": 16,
     "visible": true,
     "rotation": 0
    },
    {
     "id": 685,
     "name": "tree_trunk",
     "type": "collider",
     "x": 544,
     "y": 16,
     "width": 16,
     "height": 16,
     "visible": true,
     "rotation": 0
    },
    {
     "id": 686,
     "name": "tree_trunk",
     "type": "collider",
     "x": 608,
     "y": 560,
     "width": 16,
     "height": 16,
     "visible": true,
     "rotation": 0
    },
    {
     "id": 687,
     "name": "tree_trunk",
     "type": "collider",
     "x": 160,
     "y": 144,
     "width": 16,
     "height": 16,
     "visible": true,
     "rotation": 0
    },
    {
     "id": 688,
     "name": "tree_trunk",
     "type": "collider",
     "x": 288,
     "y": 16,
     "width": 16,
     "height": 16,
     "visible": true,
     "rotation": 0
    },
    {
     "id": 689,
     "name": "tree_trunk",
     "type": "collider",
     "x": 160,
     "y": 432,
     "width": 16,
     "height": 16,
     "visible": true,
     "rotation": 0
    },
    {
     "id": 690,
     "name": "tree_trunk",
     "type": "collider",
     "x": 32,
     "y": 368,
     "width": 16,
     "height": 16,
     "visible": true,
     "rotation": 0
    },
    {
     "id": 691,
     "name": "tree_trunk",
     "type": "collider",
     "x": 736,
     "y": 368,
     "width": 16,
     "height": 16,
     "visible": true,
     "rotation": 0
    },
    {
     "id": 692,
     "name": "tree_trunk",
     "type": "collider",
     "x": 416,
     "y": 560,
     "width": 16,
     "height": 16,
     "visible": true,
     "rotation": 0
    },
    {
     "id": 693,
     "name": "tree_trunk",
     "type": "collider",
     "x": 64,
     "y": 368,
     "width": 16,
     "height": 16,
     "visible": true,
     "rotation": 0
    },
    {
     "id": 694,
     "name": "tree_trunk",
     "type": "collider",
     "x": 224,
     "y": 528,
     "width": 16,
     "height": 16,
     "visible": true,
     "rotation": 0
    },
    {
     "id": 695,
     "name": "tree_trunk",
     "type": "collider",
     "x": 384,
     "y": 16,
     "width": 16,
     "height": 16,
     "visible": true,
     "rotation": 0
    },
    {
     "id": 696,
     "name": "tree_trunk",
     "type": "collider",
     "x": 32,
     "y": 112,
     "width": 16,
     "height": 16,
     "visible": true,
     "rotation": 0
    },
    {
     "id": 697,
     "name": "tree_trunk",
     "type": "collider",
     "x": 0,
     "y": 304,
     "width": 16,
     "height": 16,
     "visible": true,
     "rotation": 0
    },
    {
     "id": 698,
     "name": "tree_trunk",
     "type": "collider",
     "x": 448,
     "y": 560,
     "width": 16,
     "height": 16,
     "visible": true,
     "rotation": 0
    },
    {
     "id": 699,
     "name": "tree_trunk",
     "type": "collider",
     "x": 32,
     "y": 400,
     "width": 16,
     "height": 16,
     "visible": true,
     "rotation": 0
    },
    {
     "id": 700,
     "name": "tree_trunk",
     "type": "collider",
     "x": 352,
     "y": 48,
     "width": 16,
     "height": 16,
     "visible": true,
     "rotation": 0
    },
    {
     "id": 701,
     "name": "tree_trunk",
     "type": "collider",
     "x": 512,
     "y": 560,
     "width": 16,
     "height": 16,
     "visible": true,
     "rotation": 0
    },
    {
     "id": 702,
     "name": "tree_trunk",
     "type": "collider",
     "x": 384,
     "y": 48,
     "width": 16,
     "height": 16,
     "visible": true,
     "rotation": 0
    },
    {
     "id": 703,
     "name": "tree_trunk",
     "type": "collider",
     "x": 32,
     "y": 144,
     "width": 16,
     "height": 16,
     "visible": true,
     "rotation": 0
    },
    {
     "id": 704,
     "name": "tree_trunk",
     "type": "collider",
     "x": 672,
     "y": 432,
     "width": 16,
     "height": 16,
     "visible": true,
     "rotation": 0
    },
    {
     "id": 705,
     "name": "tree_trunk",
     "type": "collider",
     "x": 736,
     "y": 144,
     "width": 16,
     "height": 16,
     "visible": true,
     "rotation": 0
    },
    {
     "id": 706,
     "name": "tree_trunk",
     "type": "collider",
     "x": 480,
     "y": 400,
     "width": 16,
     "height": 16,
     "visible": true,
     "rotation": 0
    },
    {
     "id": 707,
     "name": "tree_trunk",
     "type": "collider",
     "x": 0,
     "y": 336,
     "width": 16,
     "height": 16,
     "visible": true,
     "rotation": 0
    },
    {
     "id": 708,
     "name": "tree_trunk",
     "type": "collider",
     "x": 384,
     "y": 528,
     "width": 16,
     "height": 16,
     "visible": true,
     "rotation": 0
    },
    {
     "id": 709,
     "name": "tree_trunk",
     "type": "collider",
     "x": 64,
     "y": 144,
     "width": 16,
     "height": 16,
     "visible": true,
     "rotation": 0
    },
    {
     "id": 710,
     "name": "tree_trunk",
     "type": "collider",
     "x": 288,
     "y": 560,
     "width": 16,
     "height": 16,
     "visible": true,
     "rotation": 0
    },
    {
     "id": 711,
     "name": "tree_trunk",
     "type": "collider",
     "x": 64,
     "y": 432,
     "width": 16,
     "height": 16,
     "visible": true,
     "rotation": 0
    },
    {
     "id": 712,
     "name": "tree_trunk",
     "type": "collider",
     "x": 480,
     "y": 144,
     "width": 16,
     "height": 16,
     "visible": true,
     "rotation": 0
    },
    {
     "id": 713,
     "name": "tree_trunk",
     "type": "collider",
     "x": 672,
     "y": 176,
     "width": 16,
     "height": 16,
     "visible": true,
     "rotation": 0
    },
    {
     "id": 714,
     "name": "tree_trunk",
     "type": "collider",
     "x": 0,
     "y": 80,
     "width": 16,
     "height": 16,
     "visible": true,
     "rotation": 0
    },
    {
     "id": 715,
     "name": "tree_trunk",
     "type": "collider",
     "x": 704,
     "y": 272,
     "width": 16,
     "height": 16,
     "visible": true,
     "rotation": 0
    },
    {
     "id": 716,
     "name": "tree_trunk",
     "type": "collider",
     "x": 32,
     "y": 176,
     "width": 16,
     "height": 16,
     "visible": true,
     "rotation": 0
    },
    {
     "id": 717,
     "name": "tree_trunk",
     "type": "collider",
     "x": 672,
     "y": 464,
     "width": 16,
     "height": 16,
     "visible": true,
     "rotation": 0
    },
    {
     "id": 718,
     "name": "tree_trunk",
     "type": "collider",
     "x": 736,
     "y": 176,
     "width": 16,
     "height": 16,
     "visible": true,
     "rotation": 0
    },
    {
     "id": 719,
     "name": "tree_trunk",
     "type": "collider",
     "x": 0,
     "y": 368,
     "width": 16,
     "height": 16,
     "visible": true,
     "rotation": 0
    },
    {
     "id": 720,
     "name": "tree_trunk",
     "type": "collider",
     "x": 320,
     "y": 16,
     "width": 16,
     "height": 16,
     "visible": true,
     "rotation": 0
    },
    {
     "id": 721,
     "name": "tree_trunk",
     "type": "collider",
     "x": 160,
     "y": 528,
     "width": 16,
     "height": 16,
     "visible": true,
     "rotation": 0
    },
    {
     "id": 722,
     "name": "tree_trunk",
     "type": "collider",
     "x": 32,
     "y": 464,
     "width": 16,
     "height": 16,
     "visible": true,
     "rotation": 0
    },
    {
     "id": 723,
     "name": "tree_trunk",
     "type": "collider",
     "x": 640,
     "y": 208,
     "width": 16,
     "height": 16,
     "visible": true,
     "rotation": 0
    },
    {
     "id": 724,
     "name": "tree_trunk",
     "type": "collider",
     "x": 736,
     "y": 464,
     "width": 16,
     "height": 16,
     "visible": true,
     "rotation": 0
    },
    {
     "id": 725,
     "name": "tree_trunk",
     "type": "collider",
     "x": 96,
     "y": 464,
     "width": 16,
     "height": 16,
     "visible": true,
     "rotation": 0
    },
    {
     "id": 726,
     "name": "tree_trunk",
     "type": "collider",
     "x": 640,
     "y": 496,
     "width": 16,
     "height": 16,
     "visible": true,
     "rotation": 0
    },
    {
     "id": 727,
     "name": "tree_trunk",
     "type": "collider",
     "x": 672,
     "y": 208,
     "width": 16,
     "height": 16,
     "visible": true,
     "rotation": 0
    },
    {
     "id": 728,
     "name": "tree_trunk",
     "type": "collider",
     "x": 0,
     "y": 112,
     "width": 16,
     "height": 16,
     "visible": true,
     "rotation": 0
    },
    {
     "id": 729,
     "name": "tree_trunk",
     "type": "collider",
     "x": 448,
     "y": 368,
     "width": 16,
     "height": 16,
     "visible": true,
     "rotation": 0
    },
    {
     "id": 730,
     "name": "tree_trunk",
     "type": "collider",
     "x": 256,
     "y": 48,
     "width": 16,
     "height": 16,
     "visible": true,
     "rotation": 0
    },
    {
     "id": 731,
     "name": "tree_trunk",
     "type": "collider",
     "x": 736,
     "y": 208,
     "width": 16,
     "height": 16,
     "visible": true,
     "rotation": 0
    },
    {
     "id": 732,
     "name": "tree_trunk",
     "type": "collider",
     "x": 0,
     "y": 400,
     "width": 16,
     "height": 16,
     "visible": true,
     "rotation": 0
    },
    {
     "id": 733,
     "name": "tree_trunk",
     "type": "collider",
     "x": 320,
     "y": 48,
     "width": 16,
     "height": 16,
     "visible": true,
     "rotation": 0
    },
    {
     "id": 734,
     "name": "tree_trunk",
     "type": "collider",
     "x": 32,
     "y": 496,
     "width": 16,
     "height": 16,
     "visible": true,
     "rotation": 0
    },
    {
     "id": 735,
     "name": "tree_trunk",
     "type": "collider",
     "x": 736,
     "y": 496,
     "width": 16,
     "height": 16,
     "visible": true,
     "rotation": 0
    },
    {
     "id": 736,
     "name": "tree_trunk",
     "type": "collider",
     "x": 192,
     "y": 272,
     "width": 16,
     "height": 16,
     "visible": true,
     "rotation": 0
    },
    {
     "id": 737,
     "name": "tree_trunk",
     "type": "collider",
     "x": 256,
     "y": 528,
     "width": 16,
     "height": 16,
     "visible": true,
     "rotation": 0
    },
    {
     "id": 738,
     "name": "tree_trunk",
     "type": "collider",
     "x": 160,
     "y": 16,
     "width": 16,
     "height": 16,
     "visible": true,
     "rotation": 0
    },
    {
     "id": 739,
     "name": "tree_trunk",
     "type": "collider",
     "x": 480,
     "y": 208,
     "width": 16,
     "height": 16,
     "visible": true,
     "rotation": 0
    },
    {
     "id": 740,
     "name": "tree_trunk",
     "type": "collider",
     "x": 0,
     "y": 144,
     "width": 16,
     "height": 16,
     "visible": true,
     "rotation": 0
    },
    {
     "id": 741,
     "name": "tree_trunk",
     "type": "collider",
     "x": 224,
     "y": 560,
     "width": 16,
     "height": 16,
     "visible": true,
     "rotation": 0
    },
    {
     "id": 742,
     "name": "tree_trunk",
     "type": "collider",
     "x": 0,
     "y": 432,
     "width": 16,
     "height": 16,
     "visible": true,
     "rotation": 0
    },
    {
     "id": 743,
     "name": "tree_trunk",
     "type": "collider",
     "x": 384,
     "y": 336,
     "width": 16,
     "height": 16,
     "visible": true,
     "rotation": 0
    },
    {
     "id": 744,
     "name": "tree_trunk",
     "type": "collider",
     "x": 192,
     "y": 16,
     "width": 16,
     "height": 16,
     "visible": true,
     "rotation": 0
    },
    {
     "id": 745,
     "name": "tree_trunk",
     "type": "collider",
     "x": 736,
     "y": 528,
     "width": 16,
     "height": 16,
     "visible": true,
     "rotation": 0
    },
    {
     "id": 746,
     "name": "tree_trunk",
     "type": "collider",
     "x": 224,
     "y": 112,
     "width": 16,
     "height": 16,
     "visible": true,
     "rotation": 0
    },
    {
     "id": 747,
     "name": "tree_trunk",
     "type": "collider",
     "x": 256,
     "y": 560,
     "width": 16,
     "height": 16,
     "visible": true,
     "rotation": 0
    },
    {
     "id": 748,
     "name": "tree_trunk",
     "type": "collider",
     "x": 320,
     "y": 560,
     "width": 16,
     "height": 16,
     "visible": true,
     "rotation": 0
    },
    {
     "id": 749,
     "name": "tree_trunk",
     "type": "collider",
     "x": 672,
     "y": 272,
     "width": 16,
     "height": 16,
     "visible": true,
     "rotation": 0
    },
    {
     "id": 750,
     "name": "tree_trunk",
     "type": "collider",
     "x": 0,
     "y": 176,
     "width": 16,
     "height": 16,
     "visible": true,
     "rotation": 0
    },
    {
     "id": 751,
     "name": "tree_trunk",
     "type": "collider",
     "x": 32,
     "y": 272,
     "width": 16,
     "height": 16,
     "visible": true,
     "rotation": 0
    },
    {
     "id": 752,
     "name": "tree_trunk",
     "type": "collider",
     "x": 480,
     "y": 528,
     "width": 16,
     "height": 16,
     "visible": true,
     "rotation": 0
    },
    {
     "id": 753,
     "name": "tree_trunk",
     "type": "collider",
     "x": 608,
     "y": 208,
     "width": 16,
     "height": 16,
     "visible": true,
     "rotation": 0
    },
    {
     "id": 754,
     "name": "tree_trunk",
     "type": "collider",
     "x": 96,
     "y": 272,
     "width": 16,
     "height": 16,
     "visible": true,
     "rotation": 0
    },
    {
     "id": 755,
     "name": "tree_trunk",
     "type": "collider",
     "x": 704,
     "y": 560,
     "width": 16,
     "height": 16,
     "visible": true,
     "rotation": 0
    },
    {
     "id": 756,
     "name": "tree_trunk",
     "type": "collider",
     "x": 608,
     "y": 496,
     "width": 16,
     "height": 16,
     "visible": true,
     "rotation": 0
    },
    {
     "id": 757,
     "name": "tree_trunk",
     "type": "collider",
     "x": 672,
     "y": 16,
     "width": 16,
     "height": 16,
     "visible": true,
     "rotation": 0
    },
    {
     "id": 758,
     "name": "tree_trunk",
     "type": "collider",
     "x": 448,
     "y": 176,
     "width": 16,
     "height": 16,
     "visible": true,
     "rotation": 0
    },
    {
     "id": 759,
     "name": "tree_trunk",
     "type": "collider",
     "x": 224,
     "y": 336,
     "width": 16,
     "height": 16,
     "visible": true,
     "rotation": 0
    },
    {
     "id": 760,
     "name": "tree_trunk",
     "type": "collider",
     "x": 576,
     "y": 528,
     "width": 16,
     "height": 16,
     "visible": true,
     "rotation": 0
    },
    {
     "id": 761,
     "name": "tree_trunk",
     "type": "collider",
     "x": 448,
     "y": 464,
     "width": 16,
     "height": 16,
     "visible": true,
     "rotation": 0
    },
    {
     "id": 762,
     "name": "tree_trunk",
     "type": "collider",
     "x": 32,
     "y": 304,
     "width": 16,
     "height": 16,
     "visible": true,
     "rotation": 0
    },
    {
     "id": 763,
     "name": "tree_trunk",
     "type": "collider",
     "x": 736,
     "y": 304,
     "width": 16,
     "height": 16,
     "visible": true,
     "rotation": 0
    },
    {
     "id": 764,
     "name": "tree_trunk",
     "type": "collider",
     "x": 608,
     "y": 240,
     "width": 16,
     "height": 16,
     "visible": true,
     "rotation": 0
    }
   ]
  }
 ]
}